res/luts/lut1.CUBE
#Created by: Adobe Photoshop Export Color Lookup Plugin
TITLE "lut1"
#LUT size
LUT_3D_SIZE 5
#data domain
#LUT data points
DOMAIN_MIN 0.000000 0.000000 0.000000
DOMAIN_MAX 0.903226 0.903226 0.903226
0.956268 0.958923 0.966919
0.945831 0.948944 0.950470
0.914032 0.914032 0.914032
0.912842 0.910095 0.902222
0.946350 0.951111 0.955353
0.918915 0.918732 0.917969
0.882233 0.868469 0.852051
0.870117 0.853333 0.841309
0.886688 0.883759 0.875916
0.876038 0.876038 0.868744
0.805817 0.809723 0.888184
0.634460 0.603424 0.715485
0.290253 0.326569 0.397278
0.496490 0.552521 0.567871
0.479401 0.532745 0.568329
0.869171 0.873627 0.943878
0.746582 0.692474 0.809052
0.500916 0.374054 0.571564
0.375977 0.317627 0.479706
0.324310 0.320404 0.332794
0.902039 0.902039 0.909882
0.942749 0.937958 0.955841
0.870300 0.870697 0.877808
0.907288 0.911224 0.926910
0.925201 0.920441 0.952118
0.950745 0.954681 0.962524
0.948181 0.950317 0.954651
0.913635 0.913879 0.905426
0.910675 0.906494 0.898651
0.931854 0.935211 0.943329
0.896576 0.881042 0.877533
0.925110 0.915314 0.915588
0.864197 0.843964 0.831909
0.898041 0.897308 0.889465
0.871277 0.871277 0.871338
0.767944 0.771881 0.850067
0.630127 0.596191 0.727051
0.306793 0.332825 0.379364
0.522369 0.581055 0.608978
0.515564 0.595276 0.651886
0.843048 0.839630 0.910339
0.778870 0.734619 0.833282
0.549927 0.396240 0.622681
0.671600 0.637177 0.771515
0.296509 0.292358 0.316803
0.899902 0.900513 0.907990
0.938660 0.941711 0.949554
0.880615 0.872131 0.883667
0.921753 0.924133 0.940582
0.883453 0.895203 0.922668
0.952820 0.956726 0.964569
0.947205 0.950287 0.956360
0.913513 0.909607 0.901764
0.911743 0.911774 0.909607
0.936493 0.939819 0.947937
0.897552 0.881866 0.869843
0.918213 0.914734 0.918213
0.861053 0.840820 0.828766
0.894470 0.893707 0.885864
0.875732 0.875366 0.875580
0.783417 0.787598 0.869232
0.591461 0.564331 0.704010
0.294952 0.330048 0.356140
0.589355 0.663940 0.701630
0.639893 0.719299 0.760864
0.861816 0.858368 0.920654
0.788483 0.745880 0.842743
0.588196 0.442749 0.634644
0.633789 0.602173 0.746460
0.614075 0.625000 0.689819
0.933044 0.933929 0.943268
0.930328 0.930328 0.932068
0.884521 0.876007 0.887543
0.920197 0.922546 0.938995
0.887085 0.898865 0.918030
0.952698 0.956604 0.972778
0.947968 0.953217 0.948395
0.913788 0.909851 0.902008
0.942169 0.943665 0.942963
0.945404 0.949280 0.957214
0.882996 0.879242 0.870789
0.917206 0.915863 0.919312
0.856262 0.836029 0.819824
0.894562 0.890656 0.881256
0.881042 0.881042 0.881104
0.751129 0.751099 0.855804
0.575867 0.562805 0.713501
0.303101 0.315247 0.332550
0.583923 0.646698 0.694458
0.454773 0.528046 0.585022
0.859039 0.854706 0.909393
0.782013 0.744812 0.839966
0.599884 0.476471 0.649200
0.634216 0.555542 0.714233
0.536499 0.599121 0.691040
0.936371 0.952789 0.964294
0.897217 0.889343 0.901123
0.883514 0.883514 0.891357
0.912933 0.916840 0.932526
0.897278 0.909027 0.928650
0.953003 0.956909 0.973083
0.947845 0.953094 0.948273
0.913574 0.909607 0.901764
0.945251 0.946747 0.946045
0.928802 0.932678 0.940582
0.916412 0.916687 0.916046
0.918121 0.916779 0.920258
0.846710 0.826447 0.810211
0.894287 0.890350 0.880981
0.860535 0.852478 0.856323
0.774536 0.778625 0.896515
0.566650 0.572266 0.698608
0.317902 0.332764 0.344391
0.683197 0.709595 0.740021
0.307953 0.307068 0.308350
0.868805 0.864471 0.919647
0.803436 0.771484 0.849091
0.622070 0.519592 0.678497
0.625793 0.532623 0.720490
0.551422 0.604126 0.728607
0.937103 0.953491 0.964996
0.900818 0.892944 0.904724
0.886780 0.886780 0.894623
0.922241 0.926147 0.941833
0.901642 0.913422 0.933014
