res/luts/lut1.CUBE
#Created by: Adobe Photoshop Export Color Lookup Plugin
TITLE "lut1"
#LUT size
LUT_3D_SIZE 32
#data domain
DOMAIN_MIN 0.0 0.0 0.0
DOMAIN_MAX 1.0 1.0 1.0
#LUT data points
0.956268 0.958923 0.966919
0.954681 0.957703 0.965546
0.957336 0.961304 0.969147
0.954926 0.958862 0.966705
0.950867 0.954681 0.962769
0.957001 0.961182 0.968201
0.960663 0.966339 0.971191
0.945831 0.948944 0.950470
0.916351 0.912201 0.904053
0.918915 0.914978 0.907104
0.921997 0.917877 0.909576
0.917084 0.914001 0.907806
0.912201 0.912323 0.912506
0.904724 0.904755 0.904785
0.914032 0.914032 0.914032
0.948975 0.948975 0.948975
0.958588 0.958588 0.958588
0.948608 0.948608 0.948608
0.928741 0.928894 0.929321
0.915894 0.915344 0.913818
0.913788 0.911011 0.903046
0.912842 0.910095 0.902222
0.911255 0.908447 0.900330
0.903625 0.901184 0.894348
0.912231 0.910675 0.908356
0.941345 0.941345 0.938904
0.938538 0.944031 0.940948
0.942657 0.948090 0.946594
0.946350 0.951111 0.955353
0.936005 0.942352 0.946747
0.929657 0.941589 0.946808
0.928040 0.940765 0.945740
0.952942 0.956848 0.967926
0.953247 0.957184 0.967346
0.955322 0.959259 0.966980
0.956909 0.960846 0.968689
0.956848 0.960693 0.968811
0.956848 0.961121 0.967957
0.959167 0.965240 0.969025
0.947998 0.951385 0.952148
0.916931 0.912781 0.904633
0.919159 0.915222 0.907318
0.919067 0.915161 0.907318
0.916779 0.912872 0.905029
0.913757 0.909698 0.901855
0.913116 0.909698 0.901855
0.911804 0.910309 0.902222
0.911774 0.910278 0.903412
0.909607 0.907990 0.905029
0.913269 0.912048 0.908997
0.926453 0.926208 0.923096
0.949585 0.950531 0.947601
0.938171 0.942871 0.940582
0.940674 0.946075 0.943390
0.936890 0.944763 0.940857
0.928528 0.936401 0.932495
0.938873 0.946716 0.942810
0.939697 0.947540 0.943604
0.933228 0.941284 0.936768
0.928680 0.935822 0.933990
0.932587 0.936493 0.944427
0.936798 0.940735 0.948669
0.937561 0.941467 0.949310
0.936981 0.940948 0.948792
0.948456 0.952515 0.960602
0.956879 0.960297 0.967194
0.950195 0.952026 0.955719
0.954834 0.956726 0.960510
0.958038 0.960052 0.964111
0.954651 0.956116 0.959015
0.921143 0.921204 0.921295
0.909332 0.908356 0.906403
0.917389 0.913361 0.905304
0.916382 0.912445 0.904572
0.916534 0.912628 0.904785
0.911713 0.907806 0.899963
0.908295 0.904175 0.896332
0.898926 0.895844 0.888000
0.904816 0.904877 0.896606
0.934601 0.934631 0.928375
0.937500 0.937073 0.937469
0.937286 0.938812 0.938080
0.937347 0.945343 0.941345
0.936890 0.944763 0.940796
0.935455 0.943298 0.939362
0.935181 0.943024 0.939087
0.932465 0.940308 0.936401
0.929504 0.937347 0.933411
0.931915 0.939758 0.935852
0.935883 0.943726 0.939819
0.936920 0.944855 0.940643
0.933350 0.940857 0.937958
0.933960 0.939911 0.941711
0.937500 0.943420 0.945221
0.936829 0.942902 0.944336
0.931976 0.937592 0.940369
0.923767 0.917877 0.915039
0.915588 0.910797 0.907593
0.912872 0.910614 0.905823
0.910522 0.908813 0.905365
0.902161 0.902039 0.902283
0.929962 0.930725 0.930359
0.966034 0.969910 0.968536
0.947357 0.949097 0.946045
0.904724 0.900604 0.892609
0.909210 0.905273 0.897400
0.910919 0.906982 0.899139
0.905853 0.901917 0.894073
0.902740 0.898590 0.890503
0.892944 0.889832 0.882935
0.899628 0.899719 0.896271
0.932739 0.932739 0.930115
0.937439 0.936981 0.937286
0.942810 0.944366 0.943604
0.938721 0.946716 0.942719
0.937103 0.944977 0.941040
0.935730 0.943573 0.939636
0.935577 0.943420 0.939514
0.932556 0.940643 0.936615
0.928650 0.935669 0.932159
0.928772 0.931915 0.930145
0.931488 0.935303 0.934143
0.929108 0.935303 0.936432
0.924103 0.930267 0.931427
0.917542 0.923492 0.924438
0.917419 0.924377 0.926086
0.921204 0.932312 0.936646
0.926025 0.935303 0.940399
0.947571 0.949677 0.957672
0.945282 0.949982 0.957245
0.945679 0.958069 0.963104
0.952515 0.962402 0.968262
0.950012 0.953857 0.961792
0.944916 0.948242 0.956085
0.949799 0.951843 0.960480
0.939575 0.938019 0.942932
0.905640 0.893250 0.887787
0.910156 0.900177 0.894287
0.902466 0.898773 0.890839
0.898834 0.894958 0.887115
0.890137 0.886169 0.878326
0.889648 0.886017 0.878174
0.894043 0.891388 0.883240
0.931519 0.929474 0.922699
0.930267 0.930328 0.927551
0.932037 0.932037 0.929901
0.937744 0.937592 0.937744
0.930969 0.931488 0.931244
0.922729 0.925201 0.923950
0.929626 0.933319 0.931458
0.933014 0.940918 0.936951
0.932556 0.940430 0.936523
0.936279 0.944550 0.940857
0.928955 0.935394 0.930786
0.925079 0.925201 0.917725
0.889526 0.888763 0.879517
0.876373 0.872986 0.857513
0.874817 0.869080 0.852417
0.880219 0.865936 0.845062
0.876923 0.861511 0.840057
0.943085 0.946716 0.960968
0.945465 0.949341 0.961609
0.945831 0.949921 0.957581
0.947632 0.950897 0.958710
0.951416 0.952362 0.960205
0.948547 0.949554 0.957397
0.954071 0.955750 0.964081
0.942291 0.940887 0.946930
0.896179 0.886292 0.886230
0.902435 0.891235 0.889740
0.904022 0.888184 0.882263
0.903717 0.888031 0.881226
0.892120 0.875946 0.866333
0.888275 0.874420 0.864136
0.889740 0.882721 0.869781
0.936554 0.930115 0.918701
0.940155 0.936066 0.929504
0.918671 0.914551 0.907379
0.905945 0.901978 0.893372
0.879089 0.874390 0.864349
0.871979 0.865540 0.851105
0.881409 0.872131 0.856354
0.884430 0.865448 0.844818
0.888458 0.870697 0.850586
0.874207 0.860352 0.841766
0.866302 0.852722 0.834320
0.867767 0.854523 0.836945
0.872559 0.861359 0.844025
0.906738 0.902618 0.885620
0.921112 0.918304 0.903473
0.915527 0.917572 0.910095
0.924072 0.926514 0.922211
0.937408 0.941345 0.949188
0.942139 0.946075 0.953918
0.940247 0.944183 0.952026
0.936829 0.940735 0.948578
0.937683 0.941589 0.949432
0.941650 0.945587 0.953430
0.950287 0.954681 0.963928
0.936737 0.938934 0.941498
0.885681 0.882263 0.865723
0.891357 0.884827 0.869904
0.897797 0.881622 0.870331
0.890961 0.875885 0.862793
0.882233 0.870239 0.851624
0.888489 0.874390 0.857330
0.893463 0.872711 0.859894
0.882996 0.863586 0.851318
0.873077 0.856842 0.846802
0.868591 0.855225 0.844147
0.883972 0.880066 0.865387
0.936768 0.933685 0.920685
0.915527 0.915161 0.907654
0.906281 0.907806 0.899231
0.914490 0.922852 0.910736
0.916687 0.923157 0.912354
0.889679 0.889587 0.883240
0.893555 0.893494 0.887146
0.892456 0.892456 0.885742
0.904633 0.904633 0.899384
0.901123 0.901123 0.900787
0.904419 0.904419 0.905792
0.888062 0.887909 0.895813
0.898834 0.899353 0.907288
0.918915 0.918732 0.917969
0.890045 0.888428 0.885712
0.893524 0.888733 0.880371
0.891571 0.883820 0.874725
0.897491 0.881287 0.869781
0.896851 0.881897 0.868805
0.881256 0.869537 0.851288
0.882233 0.868469 0.852051
0.882355 0.862823 0.851257
0.882751 0.864227 0.852478
0.880920 0.864929 0.853119
0.875885 0.859467 0.847778
0.871552 0.853882 0.842590
0.856445 0.839203 0.827789
0.870117 0.853333 0.841309
0.913971 0.900330 0.889343
0.909546 0.905884 0.898102
0.907898 0.904144 0.896332
0.904724 0.901276 0.893433
0.904449 0.900970 0.893127
0.902344 0.898682 0.890839
0.886688 0.883759 0.875916
0.884613 0.884155 0.876282
0.900146 0.899811 0.892120
0.901764 0.901764 0.894836
0.875427 0.875427 0.868530
0.891663 0.891663 0.884735
0.886383 0.886383 0.879456
0.876038 0.876038 0.868744
0.883087 0.883087 0.877350
0.877991 0.877991 0.878052
0.873474 0.873474 0.873535
0.934479 0.934753 0.934662
0.936188 0.937317 0.939545
0.935028 0.939087 0.947174
0.934326 0.938202 0.945953
0.924500 0.928192 0.935516
0.929230 0.932922 0.940277
0.937683 0.942780 0.951233
0.909454 0.907745 0.910889
0.866730 0.845764 0.833984
0.869110 0.848602 0.836212
0.864044 0.843872 0.828369
0.862518 0.839386 0.824890
0.853699 0.820618 0.809418
0.841156 0.811615 0.799255
0.846832 0.826569 0.810394
0.894562 0.878326 0.864014
0.897705 0.894409 0.885315
0.904022 0.901428 0.894165
0.887665 0.888428 0.887756
0.890472 0.890167 0.887665
0.902405 0.898682 0.891113
0.884338 0.880432 0.871185
0.875275 0.870392 0.854950
0.886505 0.882721 0.869110
0.887329 0.887451 0.880188
0.886963 0.886810 0.879456
0.868408 0.867615 0.860046
0.861694 0.860016 0.852264
0.869720 0.865356 0.856873
0.862183 0.855408 0.847595
0.862366 0.846436 0.841187
0.878571 0.863007 0.857666
0.912109 0.934448 0.923218
0.898804 0.930573 0.902313
0.848602 0.903412 0.834473
0.819946 0.887482 0.792999
0.790283 0.893250 0.728271
0.757965 0.869537 0.686737
0.752594 0.889221 0.646118
0.749390 0.899353 0.670258
0.646271 0.837280 0.640808
0.638184 0.824646 0.636902
0.665344 0.841736 0.677521
0.660553 0.837158 0.694763
0.643280 0.816956 0.743866
0.637909 0.824982 0.745209
0.610199 0.837677 0.742462
0.642120 0.870392 0.774750
0.661530 0.897278 0.797302
0.665344 0.889221 0.798737
0.610229 0.795959 0.740356
0.587250 0.772797 0.698151
0.582367 0.764191 0.630951
0.579376 0.767517 0.626709
0.542572 0.751312 0.579407
0.526489 0.737701 0.582520
0.510651 0.731415 0.634308
0.511200 0.729950 0.631866
0.513184 0.724945 0.623871
0.509003 0.720490 0.621490
0.498932 0.709656 0.617737
0.488495 0.697601 0.607483
0.491974 0.695557 0.611450
0.499176 0.700531 0.618835
0.855042 0.960785 0.833069
0.848053 0.957825 0.829437
0.836456 0.956421 0.825897
0.828674 0.956421 0.822266
0.807587 0.956970 0.813354
0.792999 0.945953 0.798920
0.782288 0.944611 0.787231
0.775726 0.951416 0.792969
0.741150 0.955261 0.788818
0.716492 0.933136 0.785492
0.707642 0.932800 0.841583
0.697021 0.931274 0.832336
0.674286 0.936554 0.818481
0.655823 0.918762 0.801117
0.661957 0.930145 0.812469
0.639587 0.902252 0.784088
0.652100 0.899261 0.775269
0.661011 0.900757 0.796356
0.629456 0.843536 0.805969
0.613068 0.830536 0.776367
0.628113 0.855408 0.753632
0.653290 0.880371 0.764038
0.676331 0.901764 0.731049
0.660828 0.892090 0.738098
0.632446 0.884583 0.787598
0.632263 0.882324 0.786804
0.665314 0.908173 0.818878
0.662964 0.906006 0.816620
0.651459 0.896362 0.806305
0.635803 0.875122 0.786713
0.634857 0.853333 0.771057
0.610931 0.828491 0.746582
0.541260 0.352936 0.393402
0.543060 0.362518 0.391327
0.515961 0.355408 0.356445
0.508972 0.357971 0.353851
0.485443 0.361847 0.339294
0.481598 0.362549 0.346832
0.470337 0.363251 0.366150
0.448303 0.357727 0.356293
0.377502 0.335205 0.322540
0.355255 0.312164 0.301361
0.283173 0.240295 0.233368
0.319489 0.282959 0.279175
0.394531 0.376221 0.381500
0.448090 0.434662 0.442932
0.485779 0.488373 0.505554
0.455353 0.458801 0.479248
0.417877 0.423981 0.455933
0.539795 0.550598 0.579102
0.845673 0.867889 0.889374
0.922699 0.961914 0.982513
0.878876 0.973633 0.973969
0.786469 0.907135 0.893829
0.686859 0.875000 0.836151
0.642365 0.813629 0.793793
0.639069 0.756195 0.801178
0.646820 0.749420 0.802673
0.651062 0.701080 0.785858
0.619232 0.665649 0.747406
0.634216 0.664490 0.738251
0.611633 0.654419 0.716125
0.551727 0.639801 0.656677
0.544617 0.640808 0.656036
0.884766 0.863678 0.879089
0.896637 0.880981 0.894012
0.878632 0.879028 0.885773
0.874451 0.876709 0.880188
0.595215 0.603546 0.597412
0.324738 0.335510 0.329681
0.354401 0.373413 0.367279
0.353699 0.369537 0.363983
0.365936 0.373535 0.369690
0.358337 0.366028 0.362091
0.358002 0.365295 0.361389
0.354370 0.361694 0.357788
0.434906 0.442200 0.438324
0.499115 0.506531 0.502625
0.422852 0.430695 0.426788
0.351349 0.359314 0.355347
0.360077 0.368439 0.364288
0.360596 0.368958 0.364807
0.360352 0.368713 0.364594
0.360199 0.368561 0.364319
0.360413 0.368805 0.364136
0.359894 0.368195 0.363525
0.366638 0.374725 0.370026
0.338104 0.346161 0.341614
0.275330 0.283173 0.279266
0.354645 0.362488 0.358582
0.372528 0.380371 0.376495
0.351349 0.359192 0.355255
0.358368 0.366211 0.362244
0.362610 0.370453 0.366516
0.359222 0.367065 0.363159
0.362457 0.370300 0.366394
0.832764 0.827698 0.883209
0.827728 0.822052 0.877197
0.826813 0.819061 0.873718
0.810272 0.800232 0.856110
0.829956 0.814148 0.873169
0.846161 0.827118 0.887146
0.822388 0.796997 0.859070
0.753571 0.712585 0.779816
0.633331 0.548645 0.630371
0.623047 0.532440 0.615997
0.611786 0.501923 0.590851
0.595245 0.477600 0.571655
0.544098 0.399567 0.509613
0.488708 0.352692 0.462189
0.498260 0.381958 0.492340
0.695007 0.598602 0.702148
0.749603 0.716156 0.799072
0.651794 0.621826 0.701355
0.619049 0.604065 0.672577
0.620483 0.605194 0.668274
0.609253 0.590454 0.637695
0.620911 0.617523 0.654053
0.585602 0.633728 0.633240
0.572601 0.621674 0.623352
0.551208 0.604065 0.611694
0.543427 0.598938 0.610382
0.517273 0.581909 0.606262
0.494476 0.561920 0.589874
0.474091 0.550842 0.591553
0.568329 0.648865 0.691467
0.558014 0.651947 0.700562
0.511261 0.607819 0.660278
0.805817 0.809723 0.888184
0.807068 0.810974 0.890350
0.792542 0.797119 0.878937
0.773682 0.774963 0.859955
0.765778 0.757874 0.852081
0.763123 0.755554 0.849091
0.735260 0.733978 0.821289
0.634460 0.603424 0.715485
0.493103 0.377258 0.560303
0.456848 0.344849 0.522736
0.434082 0.323547 0.493591
0.407013 0.310394 0.472443
0.331879 0.272400 0.413391
0.279602 0.243713 0.367126
0.290253 0.326569 0.397278
0.529358 0.574188 0.635895
0.573273 0.650299 0.680939
0.572174 0.644470 0.673248
0.616913 0.676086 0.697449
0.586945 0.644745 0.664612
0.556152 0.607971 0.622314
0.496490 0.552521 0.567871
0.481415 0.552032 0.570557
0.490509 0.558258 0.577240
0.492279 0.550293 0.570496
0.485474 0.543732 0.565613
0.493622 0.552704 0.580475
0.494568 0.552521 0.582001
0.479401 0.532745 0.568329
0.478729 0.534485 0.570618
0.511566 0.575378 0.613037
0.556549 0.624847 0.665253
0.754211 0.755707 0.866455
0.751373 0.753815 0.866180
0.759033 0.763702 0.881287
0.745636 0.750031 0.867340
0.740936 0.745056 0.862091
0.729340 0.732483 0.849579
0.716034 0.716705 0.832428
0.577393 0.575867 0.699432
0.332001 0.322235 0.471863
0.328918 0.327393 0.458405
0.317474 0.340973 0.421570
0.314789 0.331726 0.401550
0.284180 0.283508 0.318298
0.273071 0.270630 0.298248
0.313934 0.302094 0.305939
0.447205 0.447662 0.449554
0.458344 0.498444 0.491760
0.307465 0.340759 0.339264
0.263916 0.279236 0.294403
0.272461 0.279541 0.292969
0.280823 0.259308 0.269348
0.297363 0.279877 0.283661
0.293732 0.289093 0.270447
0.289520 0.283936 0.270538
0.284058 0.275574 0.280029
0.295624 0.287109 0.291626
0.304596 0.295441 0.301208
0.310608 0.303406 0.306091
0.296326 0.295929 0.287598
0.304932 0.306549 0.297211
0.303650 0.312744 0.299744
0.292023 0.301117 0.288147
0.536987 0.437408 0.652283
0.499908 0.395508 0.622955
0.474426 0.353394 0.618652
0.418182 0.310425 0.567413
0.355804 0.278687 0.519867
0.322601 0.266052 0.492035
0.265839 0.271301 0.456635
0.277618 0.280334 0.446320
0.315643 0.315155 0.426666
0.318604 0.321686 0.414276
0.313232 0.326294 0.361542
0.316437 0.331451 0.354767
0.285919 0.308075 0.289764
0.249115 0.269470 0.255219
0.257843 0.273346 0.267395
0.365295 0.381226 0.380554
0.508575 0.525543 0.542419
0.557098 0.574463 0.589355
0.587616 0.606018 0.615417
0.615570 0.635498 0.644958
0.656921 0.681091 0.690460
0.672089 0.699860 0.708679
0.680725 0.721039 0.727295
0.701508 0.740723 0.750244
0.800964 0.836853 0.857758
0.800385 0.835510 0.856445
0.746613 0.778564 0.799744
0.729614 0.763367 0.784698
0.744080 0.783966 0.805786
0.735840 0.777069 0.799622
0.745514 0.791107 0.816132
0.736938 0.784637 0.811035
0.691772 0.707153 0.871887
0.674225 0.692352 0.850037
0.671112 0.694336 0.840729
0.567596 0.597961 0.720581
0.438202 0.487244 0.548553
0.434418 0.490997 0.527222
0.447876 0.519226 0.478760
0.523468 0.634918 0.592621
0.591583 0.815338 0.760681
0.606079 0.843842 0.790894
0.508118 0.798462 0.746124
0.511505 0.790558 0.753723
0.551666 0.798584 0.808990
0.535065 0.791656 0.800903
0.507629 0.794250 0.805298
0.500488 0.774017 0.775238
0.531616 0.774628 0.744232
0.555420 0.757538 0.730865
0.563629 0.621246 0.606232
0.607391 0.711151 0.690094
0.464386 0.706665 0.664276
0.355011 0.620239 0.587219
0.295837 0.641602 0.642578
0.289429 0.640686 0.627533
0.289703 0.664490 0.599030
0.276154 0.638397 0.588745
0.302673 0.620331 0.626984
0.292542 0.608887 0.615662
0.298279 0.611969 0.621826
0.349884 0.653656 0.653107
0.390015 0.671021 0.627991
0.475342 0.694122 0.665649
0.643890 0.833557 0.720917
0.585999 0.739746 0.626740
0.809875 0.866791 0.756287
0.827332 0.900269 0.786804
0.871094 0.974548 0.858551
0.786987 0.911011 0.769531
0.639191 0.824188 0.604004
0.631165 0.817505 0.626709
0.628845 0.821045 0.710449
0.612213 0.820160 0.692719
0.567200 0.827637 0.647552
0.548279 0.782867 0.645966
0.569153 0.736267 0.734406
0.659058 0.795197 0.753998
0.790802 0.820435 0.668091
0.770569 0.836792 0.689331
0.664062 0.836151 0.699615
0.611450 0.797546 0.651917
0.532776 0.771576 0.594604
0.527771 0.760742 0.595764
0.515900 0.732666 0.606140
0.499634 0.715454 0.585114
0.511292 0.724548 0.579620
0.508484 0.716370 0.584747
0.491425 0.687103 0.599609
0.489990 0.656281 0.578033
0.583893 0.642609 0.603729
0.692505 0.756561 0.694824
0.727081 0.807312 0.660065
0.764984 0.857117 0.722626
0.740265 0.877075 0.794647
0.756317 0.893250 0.797638
0.919220 0.968323 0.942078
0.921021 0.974701 0.938354
0.897156 0.968231 0.901184
0.908447 0.954651 0.899994
0.965698 0.938873 0.915497
0.949310 0.951263 0.927124
0.904602 0.982330 0.960724
0.907684 0.980011 0.950562
0.911163 0.972992 0.921539
0.899292 0.969574 0.917725
0.886780 0.982239 0.929352
0.876678 0.966614 0.904968
0.888000 0.962860 0.875549
0.880554 0.956787 0.864929
0.854431 0.936737 0.826447
0.879547 0.947815 0.851105
0.941193 0.961548 0.908386
0.894318 0.932800 0.871246
0.803528 0.899139 0.813751
0.816895 0.908691 0.818298
0.884125 0.964874 0.856567
0.872467 0.958344 0.852570
0.856720 0.957794 0.861664
0.886414 0.994446 0.891296
0.826050 0.956360 0.829559
0.675232 0.815948 0.686157
0.673950 0.859344 0.719116
0.794250 0.948059 0.806335
0.875977 0.915588 0.763306
0.851105 0.898041 0.761169
0.873047 0.947571 0.870667
0.816010 0.896606 0.812012
0.509186 0.667786 0.733795
0.463959 0.663483 0.683289
0.447876 0.774170 0.669159
0.490540 0.826294 0.708496
0.400970 0.772064 0.604950
0.386902 0.771606 0.614258
0.316559 0.751282 0.613922
0.341461 0.738556 0.615479
0.444244 0.741058 0.667847
0.534515 0.820526 0.712433
0.619965 0.851624 0.641083
0.518066 0.817108 0.623840
0.394897 0.904144 0.755676
0.415253 0.877014 0.726562
0.532990 0.862549 0.709473
0.539948 0.880127 0.726379
0.463837 0.818390 0.664276
0.399323 0.809326 0.642334
0.271454 0.862640 0.654602
0.275879 0.865509 0.654083
0.266937 0.858551 0.633392
0.257965 0.855652 0.634613
0.199463 0.831879 0.623901
0.224976 0.793121 0.586670
0.523132 0.860596 0.656921
0.552277 0.918457 0.726929
0.435211 0.898682 0.752747
0.379700 0.855591 0.701782
0.369232 0.888184 0.704041
0.372833 0.900970 0.726196
0.337616 0.902985 0.762177
0.352905 0.903259 0.770477
0.869171 0.873627 0.943878
0.863831 0.864990 0.938416
0.851654 0.844208 0.926514
0.847504 0.836914 0.921204
0.810516 0.791138 0.881500
0.805695 0.783325 0.874573
0.825409 0.799652 0.888031
0.746582 0.692474 0.809052
0.650146 0.515472 0.711853
0.635651 0.499847 0.696594
0.630341 0.484741 0.688599
0.603119 0.458130 0.663483
0.548370 0.403320 0.614655
0.490479 0.350159 0.557831
0.500916 0.374054 0.571564
0.658630 0.535919 0.731201
0.725800 0.615479 0.804138
0.815369 0.711548 0.895355
0.695557 0.612305 0.780243
0.411438 0.333771 0.500244
0.377716 0.319092 0.479645
0.375977 0.317627 0.479706
0.367096 0.307343 0.478638
0.355438 0.308899 0.460785
0.311218 0.310944 0.396851
0.302826 0.301910 0.380981
0.281128 0.278717 0.333984
0.300964 0.298218 0.343994
0.324310 0.320404 0.332794
0.321075 0.317566 0.325470
0.356689 0.354248 0.345673
0.404907 0.404602 0.395569
0.868958 0.864655 0.919830
0.869751 0.865784 0.920715
0.868622 0.864929 0.919830
0.871826 0.867004 0.921906
0.869995 0.862488 0.917145
0.868286 0.858673 0.914459
0.864929 0.853821 0.909454
0.811676 0.777985 0.849060
0.728882 0.630829 0.744690
0.723236 0.625977 0.744781
0.712067 0.613159 0.748627
0.702606 0.597992 0.739746
0.670105 0.546143 0.709167
0.628540 0.513672 0.673065
0.626831 0.535461 0.687103
0.747223 0.668823 0.811920
0.755188 0.720825 0.835693
0.724670 0.681885 0.801605
0.736969 0.670563 0.801758
0.759613 0.687775 0.830719
0.694855 0.602325 0.783020
0.698944 0.615295 0.800323
0.658844 0.603821 0.805725
0.603394 0.550262 0.747955
0.581787 0.534393 0.719055
0.585114 0.543793 0.722382
0.566315 0.544769 0.703278
0.547180 0.535461 0.685272
0.547607 0.569336 0.688690
0.680725 0.711456 0.825897
0.556702 0.619324 0.715179
0.525604 0.595184 0.692169
0.885193 0.894897 0.938629
0.879730 0.886658 0.928986
0.878662 0.878387 0.917480
0.875732 0.875702 0.914917
0.881622 0.881866 0.921539
0.887512 0.886627 0.924103
0.888123 0.886902 0.915710
0.850769 0.836334 0.876465
0.766785 0.715698 0.786407
0.773254 0.717865 0.791992
0.769958 0.699310 0.785309
0.765076 0.692749 0.781555
0.734375 0.654663 0.753418
0.707733 0.633392 0.729858
0.705170 0.645264 0.735748
0.799042 0.745605 0.834198
0.822998 0.790161 0.872162
0.812317 0.782410 0.865479
0.777252 0.758759 0.844025
0.769592 0.746979 0.837158
0.783264 0.748138 0.853729
0.760071 0.723236 0.831451
0.736511 0.692444 0.809631
0.726654 0.686310 0.806213
0.705688 0.678619 0.806976
0.669464 0.641449 0.775116
0.694580 0.663788 0.815613
0.742950 0.709442 0.867188
0.666351 0.622681 0.801208
0.596863 0.554626 0.736664
0.610748 0.572754 0.768677
0.638367 0.606293 0.798035
0.858765 0.831024 0.858398
0.859619 0.832153 0.860535
0.853241 0.825287 0.857025
0.838501 0.812836 0.843323
0.836456 0.816895 0.844238
0.827057 0.808167 0.835632
0.837372 0.821960 0.848480
0.855927 0.836182 0.867126
0.807434 0.776367 0.819244
0.812744 0.778778 0.824493
0.813904 0.770660 0.825317
0.805145 0.761292 0.818207
0.787079 0.740509 0.805145
0.765839 0.720184 0.784210
0.777893 0.733734 0.797333
0.854553 0.815399 0.874939
0.855438 0.831421 0.877930
0.839478 0.819153 0.866913
0.845581 0.838257 0.888458
0.828644 0.820099 0.874207
0.801514 0.790100 0.856384
0.801666 0.788361 0.857391
0.796417 0.776093 0.853851
0.781708 0.764221 0.845612
0.779968 0.772278 0.866760
0.794861 0.787079 0.880768
0.773438 0.765594 0.856354
0.787781 0.779938 0.871429
0.771515 0.763519 0.857422
0.735260 0.727966 0.822906
0.712433 0.707397 0.806030
0.727234 0.723267 0.823242
0.924713 0.936737 0.956329
0.918549 0.929382 0.949005
0.916931 0.924896 0.944519
0.913330 0.920258 0.939850
0.931305 0.935120 0.954712
0.931000 0.934906 0.954498
0.920471 0.926300 0.945190
0.906860 0.903778 0.925995
0.839874 0.811127 0.843048
0.836365 0.810486 0.841064
0.835968 0.816071 0.843445
0.823639 0.805695 0.833160
0.819305 0.808441 0.835205
0.822205 0.808014 0.837921
0.813660 0.790558 0.829773
0.813873 0.787872 0.827972
0.803894 0.768127 0.810944
0.789825 0.755249 0.799957
0.797546 0.765045 0.816589
0.852570 0.825470 0.874908
0.846252 0.835632 0.879089
0.864807 0.859253 0.900848
0.842682 0.855591 0.889709
0.855225 0.864227 0.903107
0.854279 0.850372 0.905518
0.852020 0.847290 0.902344
0.827057 0.819366 0.873657
0.825958 0.817413 0.874390
0.782532 0.770752 0.837097
0.783051 0.771240 0.839355
0.761658 0.749725 0.823883
0.777100 0.765961 0.841858
0.930573 0.934509 0.954102
0.932770 0.936707 0.956299
0.928070 0.931976 0.951813
0.926727 0.930664 0.949341
0.931030 0.934937 0.950500
0.928558 0.932465 0.948120
0.929657 0.934998 0.950226
0.910339 0.909027 0.926453
0.858978 0.838745 0.862457
0.865784 0.846069 0.869629
0.864716 0.844421 0.868195
0.859619 0.842499 0.865204
0.837677 0.830017 0.849548
0.825897 0.818451 0.838043
0.834747 0.828857 0.848053
0.890564 0.883209 0.904419
0.901825 0.889923 0.917572
0.906769 0.894989 0.922455
0.899750 0.888428 0.915863
0.811340 0.798065 0.825500
0.809509 0.790192 0.817413
0.808716 0.787567 0.815765
0.809357 0.782043 0.812439
0.800079 0.771851 0.806854
0.810303 0.778900 0.830109
0.784241 0.752838 0.803955
0.790192 0.758423 0.809570
0.778107 0.748108 0.798401
0.761169 0.737122 0.784332
0.742828 0.721375 0.767731
0.761658 0.749542 0.792389
0.822540 0.812286 0.856323
0.922485 0.939270 0.950684
0.927063 0.940002 0.952698
0.934265 0.937836 0.953644
0.937408 0.941284 0.956970
0.937042 0.940948 0.956635
0.938049 0.941956 0.957642
0.945831 0.950470 0.966400
0.925934 0.927216 0.942017
0.871216 0.863068 0.874756
0.877655 0.869781 0.881531
0.871033 0.863190 0.875000
0.867401 0.859558 0.871338
0.854462 0.846405 0.857727
0.847137 0.840118 0.853546
0.853699 0.849854 0.869629
0.901581 0.897675 0.917328
0.908417 0.904510 0.924103
0.905121 0.901215 0.920807
