res/luts/lut1.CUBE
#Created by: Adobe Photoshop Export Color Lookup Plugin
TITLE "lut1"
#LUT size
LUT_3D_SIZE 8
#data domain
#LUT data points
DOMAIN_MIN 0.000000 0.000000 0.000000
DOMAIN_MAX 0.903226 0.903226 0.903226
0.956268 0.958923 0.966919
0.950867 0.954681 0.962769
0.916351 0.912201 0.904053
0.912201 0.912323 0.912506
0.958588 0.958588 0.958588
0.913788 0.911011 0.903046
0.912231 0.910675 0.908356
0.946350 0.951111 0.955353
0.947571 0.949677 0.957672
0.950012 0.953857 0.961792
0.905640 0.893250 0.887787
0.890137 0.886169 0.878326
0.930267 0.930328 0.927551
0.922729 0.925201 0.923950
0.936279 0.944550 0.940857
0.876373 0.872986 0.857513
0.934479 0.934753 0.934662
0.924500 0.928192 0.935516
0.866730 0.845764 0.833984
0.853699 0.820618 0.809418
0.897705 0.894409 0.885315
0.902405 0.898682 0.891113
0.887329 0.887451 0.880188
0.869720 0.865356 0.856873
0.884766 0.863678 0.879089
0.595215 0.603546 0.597412
0.365936 0.373535 0.369690
0.434906 0.442200 0.438324
0.360077 0.368439 0.364288
0.360413 0.368805 0.364136
0.275330 0.283173 0.279266
0.358368 0.366211 0.362244
0.536987 0.437408 0.652283
0.355804 0.278687 0.519867
0.315643 0.315155 0.426666
0.285919 0.308075 0.289764
0.508575 0.525543 0.542419
0.656921 0.681091 0.690460
0.800964 0.836853 0.857758
0.744080 0.783966 0.805786
0.509186 0.667786 0.733795
0.400970 0.772064 0.604950
0.444244 0.741058 0.667847
0.394897 0.904144 0.755676
0.463837 0.818390 0.664276
0.266937 0.858551 0.633392
0.523132 0.860596 0.656921
0.369232 0.888184 0.704041
0.858765 0.831024 0.858398
0.836456 0.816895 0.844238
0.807434 0.776367 0.819244
0.787079 0.740509 0.805145
0.855438 0.831421 0.877930
0.801514 0.790100 0.856384
0.779968 0.772278 0.866760
0.771515 0.763519 0.857422
0.902039 0.902039 0.909882
0.944000 0.944244 0.951385
0.889740 0.881805 0.893341
0.871704 0.863403 0.875397
0.922150 0.917694 0.937775
0.906250 0.910187 0.925873
0.893524 0.897461 0.917114
0.925201 0.920441 0.952118
0.953766 0.957672 0.965515
0.955933 0.959839 0.967682
0.916382 0.912262 0.903992
0.911957 0.912048 0.903778
0.956635 0.956635 0.957062
0.917267 0.913300 0.905457
0.930511 0.930145 0.930450
0.936462 0.939758 0.947876
0.947571 0.951630 0.959473
0.946747 0.950653 0.958496
0.900574 0.896454 0.888184
0.888214 0.884064 0.876221
0.936157 0.936157 0.927856
0.936188 0.944153 0.940186
0.929901 0.935486 0.930511
0.873108 0.861664 0.842194
0.933990 0.938080 0.945923
0.935425 0.935303 0.935059
0.878723 0.832367 0.824890
0.821564 0.819244 0.799164
0.926422 0.905823 0.894562
0.880280 0.871582 0.876801
0.894745 0.863342 0.855194
0.861542 0.859222 0.851227
0.867157 0.862946 0.895294
0.881775 0.878296 0.910645
0.413696 0.404694 0.406067
0.370026 0.378540 0.373962
0.409515 0.418030 0.413757
0.329987 0.337616 0.333588
0.363831 0.371643 0.367737
0.366882 0.374725 0.370789
0.811920 0.799805 0.940399
0.721039 0.760529 0.886810
0.296600 0.294586 0.409027
0.295990 0.294617 0.285278
0.540863 0.591003 0.623566
0.531677 0.591644 0.599945
0.460144 0.561310 0.558319
0.508850 0.575043 0.612915
0.722321 0.606262 0.771149
0.578369 0.568451 0.619446
0.552460 0.891815 0.754089
0.211792 0.861206 0.619354
0.246399 0.788971 0.628357
0.574463 0.839630 0.709503
0.530792 0.838715 0.692902
0.272736 0.821228 0.630280
0.853088 0.845825 0.864990
0.839813 0.812347 0.843109
0.814819 0.791962 0.838867
0.790375 0.746979 0.801971
0.856445 0.832458 0.887573
0.841553 0.834106 0.884674
0.788849 0.780853 0.863373
0.762207 0.762238 0.856018
0.904053 0.895782 0.901123
0.914154 0.914154 0.921875
0.889862 0.890228 0.897827
0.874664 0.866821 0.878571
0.923340 0.926880 0.942871
0.916595 0.920746 0.936279
0.893127 0.905121 0.932678
0.882690 0.894501 0.921967
0.952148 0.956116 0.963959
0.957001 0.960938 0.968781
0.915863 0.914398 0.906158
0.911835 0.909180 0.901337
0.945007 0.942383 0.934540
0.906006 0.904724 0.896881
0.946655 0.946259 0.946564
0.933472 0.936798 0.944916
0.947144 0.951050 0.958893
0.941589 0.945557 0.953400
0.898651 0.894531 0.886261
0.888306 0.884186 0.876343
0.934998 0.934998 0.926697
0.927948 0.935913 0.931915
0.926392 0.918884 0.909882
0.882477 0.862823 0.847504
0.931122 0.935059 0.951752
0.933746 0.933838 0.942413
0.843140 0.841797 0.820740
0.850708 0.801025 0.802155
0.914856 0.898682 0.894592
0.886017 0.889648 0.898132
0.889465 0.845886 0.859985
0.800934 0.887360 0.850708
0.866425 0.866943 0.906860
0.836975 0.829376 0.873962
0.704376 0.625946 0.660492
0.499817 0.453735 0.479340
0.363159 0.371185 0.366913
0.339752 0.360779 0.344482
0.437073 0.444916 0.441223
0.366699 0.374542 0.370636
0.654572 0.666290 0.834930
0.561340 0.608246 0.773712
0.287292 0.285736 0.398132
0.288239 0.295563 0.279663
0.596313 0.650146 0.694672
0.529694 0.608337 0.643677
0.490753 0.596191 0.611572
0.636566 0.683838 0.750824
0.856476 0.864380 0.939117
0.636536 0.537689 0.719818
0.480774 0.502106 0.616028
0.430542 0.811676 0.702545
0.209106 0.728943 0.581116
0.391235 0.617126 0.522949
0.213257 0.776642 0.606903
0.251831 0.799347 0.636597
0.864502 0.857452 0.882660
0.848999 0.829712 0.856934
0.823273 0.795441 0.836853
0.796631 0.752533 0.807861
0.870758 0.854950 0.910156
0.809814 0.802399 0.853149
0.779541 0.775970 0.846161
0.769470 0.771881 0.858582
0.899536 0.899902 0.907501
0.896210 0.896210 0.903931
0.886139 0.886475 0.894104
0.874207 0.866364 0.878113
0.929169 0.932678 0.948669
0.916870 0.921021 0.936554
0.896362 0.908325 0.934052
0.880768 0.892517 0.920013
0.952789 0.956696 0.964539
0.956848 0.960785 0.968628
0.912140 0.912048 0.912292
0.916656 0.912659 0.904816
0.926910 0.923004 0.915161
0.911163 0.911224 0.902954
0.942169 0.941742 0.941956
0.934357 0.937653 0.945770
0.938538 0.955353 0.958893
0.945648 0.949799 0.957642
0.894623 0.890594 0.882355
0.886200 0.882050 0.874207
0.933990 0.933990 0.925690
0.931183 0.939148 0.935150
0.881348 0.866486 0.852386
0.881531 0.861877 0.838318
0.925049 0.928986 0.945129
0.927551 0.931671 0.939972
0.884521 0.826050 0.822601
0.830933 0.818939 0.799011
0.909698 0.892548 0.881012
0.835907 0.910858 0.865936
0.609894 0.793457 0.754883
0.550049 0.759583 0.680084
0.865967 0.879425 0.914154
0.842712 0.831360 0.875427
0.702637 0.606232 0.658783
0.631927 0.531708 0.588013
0.742889 0.721497 0.752319
0.365570 0.366150 0.373138
0.356995 0.365051 0.360901
0.411896 0.419739 0.415833
0.667847 0.687164 0.849762
0.653503 0.710022 0.844635
0.288269 0.282013 0.408081
0.293335 0.292053 0.298584
0.589111 0.644165 0.691193
0.529602 0.602356 0.644043
0.467255 0.587097 0.616333
0.543427 0.659363 0.711853
0.812653 0.805237 0.890015
0.777740 0.688995 0.836700
0.577759 0.428894 0.626862
0.474304 0.305542 0.627533
0.459290 0.770630 0.716278
0.367065 0.801239 0.668579
0.204102 0.738861 0.603485
0.204559 0.740753 0.622437
0.919495 0.920410 0.941437
0.846527 0.827179 0.854370
0.828369 0.796906 0.840363
0.797546 0.760071 0.808624
0.871063 0.861420 0.904144
0.813538 0.806030 0.856842
0.826447 0.816650 0.876526
0.759766 0.757050 0.838745
0.920105 0.920074 0.927551
0.893463 0.893707 0.901886
0.886536 0.886993 0.894806
0.879333 0.871490 0.883270
0.919800 0.923279 0.939270
0.919464 0.923615 0.939148
0.893311 0.905304 0.924896
0.884308 0.896057 0.921722
0.952148 0.956055 0.969269
0.956055 0.959808 0.968140
0.915527 0.912750 0.907532
0.912781 0.908813 0.900909
0.912659 0.908600 0.900757
0.903595 0.903351 0.903595
0.946259 0.951172 0.948700
0.937408 0.941071 0.949066
0.941681 0.957977 0.964264
0.947815 0.955444 0.962097
0.891937 0.889069 0.880981
0.883514 0.879395 0.869080
0.931641 0.931610 0.925720
0.932800 0.936096 0.934723
0.875793 0.868439 0.851196
0.884094 0.866821 0.841949
0.918091 0.934906 0.946045
0.913696 0.917694 0.925293
0.844421 0.833801 0.812897
0.838898 0.805023 0.794708
0.790497 0.877808 0.809265
0.600830 0.781555 0.668152
0.606293 0.771881 0.718262
0.623016 0.755524 0.701965
0.849213 0.862610 0.896790
0.848480 0.837067 0.871429
0.672699 0.603363 0.649170
0.633026 0.504456 0.589569
0.745972 0.688202 0.757507
0.607361 0.586975 0.624542
0.466675 0.476776 0.468079
0.360931 0.368500 0.361664
0.695404 0.689514 0.863678
0.614807 0.622589 0.794983
0.288788 0.296661 0.395203
0.291748 0.295990 0.272675
0.573975 0.619385 0.634338
0.548767 0.603943 0.601227
0.561310 0.609711 0.622345
0.508148 0.638275 0.649292
0.809021 0.820587 0.889130
0.807068 0.787140 0.878662
0.609589 0.445312 0.685883
0.515533 0.317169 0.579285
0.420746 0.299103 0.534882
0.275024 0.388733 0.443909
0.495239 0.777863 0.770844
0.426117 0.681915 0.649139
0.915100 0.914948 0.946930
0.843231 0.823608 0.851166
0.835144 0.803680 0.847229
0.794861 0.763031 0.805939
0.902985 0.895020 0.938080
0.854034 0.846497 0.897369
0.789032 0.781494 0.835785
0.778015 0.771881 0.847534
0.936890 0.941193 0.957275
0.905334 0.897003 0.900879
0.890808 0.891266 0.899109
0.879272 0.871429 0.883209
0.924744 0.928284 0.944275
0.915253 0.919403 0.934937
0.907867 0.919861 0.939453
0.900452 0.912231 0.931427
0.951569 0.955505 0.971649
0.954620 0.958282 0.966827
0.917450 0.913239 0.905273
0.912567 0.908630 0.900787
0.914551 0.910400 0.902557
0.919434 0.919006 0.919342
0.943054 0.950897 0.946960
0.943542 0.947449 0.955383
0.939148 0.955231 0.967621
0.942413 0.955048 0.959991
0.890320 0.890472 0.882660
0.892120 0.875488 0.863556
0.931824 0.931732 0.931610
0.932251 0.925903 0.926941
0.879944 0.862946 0.851532
0.875031 0.863281 0.835358
0.936310 0.940094 0.956787
0.923126 0.923004 0.930359
0.851746 0.834595 0.805786
0.753540 0.853485 0.718445
0.672913 0.819916 0.634064
0.577301 0.760681 0.687775
0.535400 0.741547 0.650909
0.599792 0.759644 0.696869
0.867188 0.866669 0.913879
0.854980 0.838623 0.895477
0.674530 0.584198 0.646240
0.615997 0.483612 0.557526
0.691101 0.658966 0.723663
0.681885 0.613770 0.689423
0.636139 0.624359 0.667267
0.541351 0.566772 0.596985
0.672760 0.689148 0.835541
0.586609 0.639038 0.773651
0.309479 0.294434 0.415222
0.283508 0.301819 0.329559
0.528809 0.590729 0.572968
0.371033 0.594574 0.570648
0.524536 0.512451 0.529633
0.200745 0.647614 0.608673
0.838318 0.833984 0.905762
0.841064 0.825775 0.924866
0.618103 0.469513 0.675354
0.521301 0.336365 0.610992
0.429077 0.295441 0.535614
0.342285 0.319763 0.452362
0.331451 0.314819 0.350494
0.261963 0.271027 0.285004
0.915619 0.927612 0.947327
0.861786 0.850220 0.877808
0.838898 0.819855 0.847015
0.814880 0.774506 0.818115
0.863678 0.863525 0.902954
0.872284 0.872498 0.919556
0.807281 0.791290 0.849762
0.801605 0.797363 0.859680
0.938080 0.954559 0.966034
0.901855 0.902252 0.909607
0.896179 0.888275 0.900085
0.878235 0.878448 0.886200
0.925751 0.925507 0.932892
0.917480 0.921417 0.937103
0.903259 0.919342 0.930603
0.898438 0.910187 0.929810
0.949066 0.952972 0.969147
0.954224 0.957916 0.966461
0.917480 0.913269 0.905304
0.912567 0.908630 0.900787
0.914124 0.909973 0.902130
0.940613 0.940186 0.940521
0.932129 0.939972 0.936066
0.937592 0.941467 0.949402
0.932892 0.949677 0.961823
0.946442 0.950348 0.958191
0.893585 0.889465 0.881683
0.895538 0.878876 0.867004
0.937042 0.937134 0.937286
0.915741 0.912323 0.904694
0.885864 0.866180 0.854675
0.865509 0.853394 0.833588
0.930542 0.926331 0.958893
0.914154 0.933014 0.911530
0.791901 0.890686 0.741119
0.695282 0.817474 0.626648
0.601868 0.811523 0.693665
0.553955 0.745056 0.618469
0.633301 0.864563 0.777405
0.658447 0.831696 0.772247
0.871613 0.879944 0.926971
0.822052 0.814453 0.865326
0.660309 0.560516 0.634979
0.591370 0.451172 0.537170
0.705994 0.660248 0.737793
0.649780 0.593079 0.661072
0.609650 0.630493 0.654297
0.529785 0.593170 0.633423
0.716400 0.728058 0.853394
0.666534 0.711090 0.833527
0.259338 0.307770 0.439423
0.215607 0.280701 0.287750
0.272156 0.672424 0.649475
0.357666 0.685455 0.689850
0.365875 0.741974 0.711670
0.572845 0.634521 0.647491
0.827728 0.834534 0.894135
0.850647 0.835114 0.926208
0.616669 0.483673 0.670258
0.540344 0.343658 0.623688
0.479156 0.316864 0.585266
0.342834 0.300781 0.456696
0.406494 0.402618 0.442963
0.327545 0.323700 0.315918
0.915009 0.927002 0.946747
0.921844 0.914307 0.939758
0.837036 0.817749 0.845001
0.804962 0.773041 0.816650
0.862946 0.852997 0.896332
0.858612 0.858887 0.901550
0.806152 0.798279 0.853241
0.795654 0.787445 0.852020
0.940247 0.956635 0.968170
0.894226 0.894592 0.901947
0.895935 0.888092 0.899872
0.879028 0.879211 0.886963
0.932068 0.931854 0.939240
0.920563 0.924500 0.940186
0.904633 0.920685 0.931976
0.890259 0.902039 0.921631
0.953003 0.956909 0.973083
0.956848 0.960571 0.969116
0.917450 0.913239 0.905304
0.912506 0.908569 0.900726
0.917877 0.913727 0.905884
0.945618 0.945221 0.945557
0.930939 0.938782 0.934845
0.928802 0.932678 0.940582
0.942108 0.945648 0.962219
0.947998 0.952148 0.959991
0.893036 0.889709 0.881561
0.894470 0.878113 0.866211
0.940216 0.940308 0.938354
0.870087 0.866974 0.851196
0.887726 0.867706 0.856445
0.868866 0.864777 0.844604
0.924866 0.926910 0.937836
0.864899 0.924286 0.825775
0.741974 0.853302 0.638794
0.639099 0.823059 0.655823
0.555206 0.761414 0.645447
0.596191 0.825806 0.768341
0.649506 0.877991 0.781860
0.530243 0.693634 0.638672
0.838074 0.847656 0.898499
0.810394 0.803497 0.858429
0.646362 0.556335 0.633942
0.556305 0.412231 0.515503
0.682159 0.649414 0.731537
0.679993 0.644531 0.696136
0.555511 0.614929 0.643402
0.518158 0.596558 0.639038
0.752991 0.767731 0.912659
0.711761 0.747101 0.857361
0.395233 0.347870 0.355530
0.476715 0.629425 0.616333
0.471619 0.679352 0.653381
0.306519 0.673065 0.651886
0.607666 0.701447 0.737091
0.593475 0.616791 0.628601
0.850555 0.858948 0.917297
0.813232 0.794464 0.885040
0.625275 0.494690 0.678162
0.560547 0.377991 0.632751
0.532043 0.376007 0.624115
0.371979 0.314026 0.482941
0.330780 0.307953 0.400635
0.396240 0.378601 0.392609
0.919708 0.931946 0.951569
0.918884 0.919128 0.940582
0.840668 0.812134 0.843964
0.811005 0.795990 0.822784
0.791351 0.763123 0.804199
0.870178 0.861725 0.904968
0.835236 0.827209 0.882294
0.781281 0.769073 0.835663
0.937103 0.953491 0.964996
0.898193 0.898560 0.905914
0.899048 0.891205 0.902954
0.880127 0.880310 0.888062
0.927399 0.927185 0.934570
0.914948 0.918854 0.934540
0.902039 0.918091 0.929413
0.901642 0.913422 0.933014
