res/luts/lut2.CUBE
#Created by: Adobe Photoshop Export Color Lookup Plugin
TITLE "lut2"
#LUT size
LUT_3D_SIZE 32
#data domain
DOMAIN_MIN 0.0 0.0 0.0
DOMAIN_MAX 1.0 1.0 1.0
#LUT data points
0.001923 0.150696 0.123627
0.002075 0.154724 0.128357
0.001831 0.142761 0.115906
0.002045 0.150909 0.124390
0.002411 0.164551 0.137848
0.001862 0.143158 0.119171
0.001556 0.125641 0.108704
0.002930 0.182770 0.178009
0.006989 0.283386 0.301666
0.006561 0.276825 0.295013
0.006104 0.269775 0.289459
0.006866 0.279144 0.293427
0.007721 0.283112 0.282684
0.009094 0.300140 0.300079
0.007385 0.279053 0.279053
0.002594 0.182678 0.182678
0.001709 0.151794 0.151794
0.002655 0.183838 0.183838
0.005096 0.241272 0.240112
0.007080 0.275940 0.279572
0.007416 0.286163 0.303802
0.007599 0.288269 0.305542
0.007874 0.291992 0.309479
0.009308 0.307709 0.321320
0.007721 0.286926 0.292206
0.003448 0.205933 0.213104
0.003784 0.197876 0.207092
0.003296 0.185455 0.190063
0.002899 0.175964 0.162384
0.004089 0.202911 0.189575
0.004944 0.205200 0.189392
0.005188 0.207642 0.192688
0.002228 0.157532 0.120148
0.002197 0.156433 0.122162
0.001984 0.149597 0.123413
0.001862 0.144287 0.117493
0.001862 0.144806 0.117065
0.001862 0.143372 0.120026
0.001648 0.129395 0.116333
0.002716 0.175110 0.172699
0.006897 0.282043 0.300415
0.006531 0.276245 0.294525
0.006561 0.276398 0.294525
0.006927 0.281830 0.299561
0.007446 0.289185 0.306305
0.007568 0.289185 0.306305
0.007782 0.287781 0.305542
0.007782 0.287842 0.303040
0.008179 0.293030 0.299561
0.007538 0.283752 0.290771
0.005402 0.248444 0.256592
0.002563 0.177826 0.186951
0.003815 0.201355 0.208191
0.003510 0.191650 0.199799
0.003998 0.195648 0.207367
0.005127 0.220337 0.231384
0.003723 0.189667 0.201538
0.003632 0.187134 0.199158
0.004486 0.206116 0.219299
0.005096 0.221985 0.227203
0.004547 0.220093 0.196686
0.003998 0.207733 0.183624
0.003906 0.205566 0.181641
0.003967 0.207092 0.183258
0.002655 0.171539 0.145111
0.001862 0.146118 0.122681
0.002472 0.173096 0.161224
0.002045 0.157928 0.145416
0.001770 0.146942 0.133270
0.002075 0.159912 0.150391
0.006226 0.261444 0.261230
0.008209 0.292206 0.296539
0.006805 0.280670 0.298950
0.006989 0.282837 0.300537
0.006958 0.282410 0.300079
0.007812 0.293427 0.310242
0.008423 0.301392 0.317505
0.010223 0.318451 0.332977
0.009064 0.299896 0.316956
0.004272 0.225372 0.242676
0.003906 0.218414 0.217255
0.003937 0.213348 0.215485
0.003937 0.193878 0.205933
0.003998 0.195648 0.207550
0.004150 0.200073 0.211761
0.004211 0.200897 0.212585
0.004578 0.208984 0.220337
0.004974 0.217621 0.228821
0.004639 0.210602 0.221893
0.004120 0.198792 0.210419
0.003967 0.195374 0.208008
0.004456 0.207367 0.215851
0.004364 0.210144 0.204834
0.003906 0.199707 0.194244
0.003998 0.201263 0.196960
0.004639 0.216888 0.208801
0.005798 0.269775 0.276672
0.007141 0.286652 0.293915
0.007599 0.287048 0.297821
0.008026 0.291168 0.298828
0.009583 0.305908 0.305420
0.004913 0.236298 0.237274
0.001160 0.113220 0.118042
0.002777 0.182312 0.191742
0.009094 0.308899 0.324615
0.008240 0.299011 0.315399
0.007935 0.295258 0.311890
0.008881 0.306183 0.321869
0.009460 0.313019 0.328491
0.011475 0.329712 0.341522
0.010071 0.310730 0.317627
0.004547 0.230713 0.237946
0.003906 0.218689 0.217804
0.003265 0.196869 0.199158
0.003754 0.189667 0.201813
0.003967 0.195007 0.206818
0.004120 0.199249 0.210968
0.004150 0.199707 0.211304
0.004547 0.208008 0.219727
0.005096 0.222443 0.232300
0.005096 0.232971 0.237854
0.004700 0.223480 0.226746
0.005005 0.223480 0.220245
0.005768 0.237518 0.234314
0.006805 0.255585 0.253113
0.006805 0.253265 0.248779
0.006226 0.231903 0.219666
0.005463 0.223480 0.208710
0.002747 0.180481 0.154816
0.002991 0.179535 0.156219
0.002960 0.153534 0.136688
0.002258 0.139069 0.118958
0.002502 0.167206 0.141144
0.003052 0.184967 0.160004
0.002533 0.173645 0.145538
0.003662 0.215668 0.201172
0.008911 0.323425 0.333344
0.008087 0.309784 0.321442
0.009521 0.312653 0.327881
0.010223 0.320160 0.334503
0.012085 0.336121 0.348724
0.012177 0.336365 0.348938
0.011230 0.326874 0.341003
0.004700 0.239685 0.257629
0.004883 0.237366 0.244904
0.004608 0.232635 0.238525
0.003876 0.216888 0.216461
0.004761 0.234161 0.234833
0.005981 0.251129 0.254395
0.004944 0.229065 0.234253
0.004486 0.207184 0.218781
0.004547 0.208618 0.220001
0.004059 0.196289 0.207367
0.005035 0.223206 0.236115
0.005615 0.251129 0.270142
0.012207 0.331604 0.346893
0.015289 0.356384 0.377472
0.015686 0.361847 0.384186
0.014343 0.366150 0.393616
0.015137 0.372162 0.399933
0.003235 0.189667 0.143890
0.002960 0.181549 0.141754
0.002930 0.179718 0.155121
0.002747 0.176636 0.151398
0.002350 0.171997 0.146423
0.002655 0.180878 0.155731
0.002106 0.161133 0.133362
0.003326 0.207275 0.189026
0.010773 0.335938 0.336029
0.009521 0.327179 0.329865
0.009216 0.332642 0.342560
0.009277 0.332916 0.344238
0.011658 0.352203 0.365631
0.012482 0.354370 0.368622
0.012146 0.341858 0.360870
0.004028 0.237946 0.267731
0.003571 0.221283 0.239624
0.006622 0.277832 0.294403
0.008850 0.306061 0.323181
0.014648 0.354431 0.368317
0.016388 0.366669 0.385864
0.014069 0.357574 0.378998
0.013367 0.366791 0.393921
0.012451 0.359589 0.386536
0.015839 0.373688 0.397766
0.017883 0.383789 0.407043
0.017487 0.381439 0.403809
0.016235 0.372345 0.394958
0.008698 0.304718 0.337067
0.006226 0.268738 0.302887
0.007141 0.270538 0.288269
0.005768 0.247650 0.258881
0.003906 0.205933 0.182007
0.003357 0.191650 0.167023
0.003571 0.197418 0.173096
0.003998 0.207733 0.183929
0.003876 0.205200 0.181244
0.003418 0.193146 0.168610
0.002472 0.164551 0.133881
0.003998 0.213013 0.205475
0.013092 0.342560 0.366425
0.011810 0.338409 0.360687
0.010437 0.343597 0.360077
0.011902 0.352295 0.370422
0.013885 0.360229 0.385193
0.012451 0.354431 0.377716
0.011353 0.356781 0.374329
0.013702 0.369324 0.385590
0.016113 0.378357 0.391418
0.017273 0.380493 0.394775
0.013489 0.346039 0.366882
0.003998 0.228058 0.262756
0.007141 0.276398 0.293793
0.008789 0.293427 0.311707
0.007324 0.257233 0.286774
0.006927 0.256439 0.283051
0.012177 0.330170 0.341003
0.011322 0.322968 0.334442
0.011566 0.324921 0.336853
0.009094 0.300415 0.311401
0.009766 0.307831 0.308533
0.009155 0.300873 0.297882
0.012543 0.333130 0.318512
0.010223 0.311462 0.294617
0.006561 0.267670 0.269531
0.012085 0.332214 0.336914
0.011322 0.331665 0.345581
0.011749 0.340057 0.353943
0.010529 0.344116 0.360870
0.010651 0.343170 0.362213
0.014099 0.361206 0.385620
0.013885 0.362671 0.384644
0.013855 0.370392 0.385681
0.013763 0.368469 0.384094
0.014191 0.367523 0.383240
0.015411 0.374878 0.390167
0.016479 0.382263 0.396759
0.020599 0.401001 0.414978
0.016876 0.382965 0.398346
0.007385 0.309479 0.330597
0.008179 0.297699 0.313995
0.008484 0.301453 0.317505
0.009094 0.307526 0.323090
0.009125 0.308167 0.323639
0.009552 0.312836 0.327881
0.012848 0.340179 0.352234
0.013306 0.339508 0.351715
0.009979 0.310547 0.325531
0.009644 0.306488 0.320404
0.015533 0.352936 0.362610
0.011749 0.326385 0.338562
0.012909 0.335754 0.346985
0.015381 0.352051 0.362305
0.013672 0.341248 0.350159
0.014893 0.349213 0.349121
0.016022 0.355713 0.355621
0.004272 0.225037 0.225281
0.004059 0.217712 0.211212
0.004211 0.212585 0.188263
0.004303 0.215149 0.192017
0.005707 0.243164 0.222870
0.005005 0.230194 0.209076
0.003876 0.201630 0.175598
0.008209 0.293579 0.286438
0.017761 0.392731 0.407440
0.017120 0.389099 0.404724
0.018494 0.395142 0.414276
0.018890 0.400787 0.418457
0.021423 0.423553 0.436554
0.025238 0.434052 0.448029
0.023468 0.416443 0.435455
0.011139 0.348724 0.368774
0.010468 0.321228 0.337585
0.009216 0.307220 0.321686
0.012604 0.332214 0.333405
0.011993 0.329102 0.333557
0.009552 0.312836 0.327393
0.013397 0.345490 0.358917
0.015564 0.360016 0.380859
0.012878 0.341858 0.361786
0.012695 0.333923 0.345856
0.012787 0.335022 0.346985
0.017303 0.363861 0.374115
0.019135 0.374146 0.384369
0.016968 0.366943 0.378326
0.018982 0.380249 0.390411
0.018951 0.391876 0.398529
0.014740 0.370117 0.377258
0.007721 0.225891 0.256287
0.010254 0.236694 0.305359
0.022919 0.303040 0.406860
0.032440 0.333862 0.454987
0.043976 0.323425 0.521271
0.058594 0.361206 0.559692
0.061218 0.330811 0.594879
0.062805 0.311462 0.574219
0.125122 0.403381 0.599335
0.130920 0.418762 0.602600
0.112000 0.397827 0.567871
0.115234 0.403534 0.552490
0.127258 0.427856 0.506104
0.131104 0.418365 0.504761
0.151947 0.402893 0.507477
0.128082 0.360016 0.474609
0.114563 0.315643 0.450226
0.112000 0.330811 0.448608
0.151917 0.451721 0.509552
0.170349 0.476654 0.549408
0.174408 0.485596 0.607483
0.176910 0.482178 0.610962
0.209229 0.498688 0.648529
0.224213 0.512146 0.646118
0.239471 0.518250 0.604706
0.238922 0.519653 0.606720
0.237000 0.524445 0.613281
0.241089 0.528687 0.615234
0.251068 0.538849 0.618286
0.261627 0.549896 0.626526
0.258087 0.551758 0.623352
0.250824 0.547241 0.617401
0.021027 0.144501 0.408600
0.023102 0.154327 0.412994
0.026764 0.158905 0.417236
0.029358 0.158905 0.421600
0.037018 0.157135 0.432037
0.042877 0.192017 0.448425
0.047394 0.196106 0.461273
0.050323 0.175018 0.455017
0.067017 0.162689 0.459534
0.080383 0.229584 0.463165
0.085480 0.230530 0.398010
0.091797 0.234772 0.409485
0.106110 0.219910 0.426056
0.118469 0.267578 0.445984
0.114288 0.237854 0.433044
0.129913 0.305481 0.464661
0.121033 0.311646 0.474060
0.114929 0.308594 0.451263
0.137329 0.395569 0.440491
0.149719 0.411652 0.472900
0.138306 0.380249 0.496368
0.120209 0.345581 0.485748
0.104767 0.306488 0.518616
0.115051 0.325592 0.511749
0.135101 0.338806 0.460876
0.135254 0.342468 0.461731
0.112000 0.292603 0.425598
0.113617 0.297424 0.428223
0.121490 0.317444 0.440094
0.132660 0.353394 0.461853
0.133331 0.382965 0.478485
0.151367 0.414154 0.503418
0.210449 0.804413 0.778839
0.208801 0.798431 0.780182
0.234283 0.802856 0.802216
0.241119 0.801270 0.803833
0.264771 0.798828 0.812836
0.268738 0.798401 0.808197
0.280548 0.797974 0.796143
0.304382 0.801422 0.802307
0.387512 0.815338 0.823059
0.415710 0.829376 0.835846
0.513855 0.871613 0.875580
0.463104 0.846771 0.849030
0.366608 0.789795 0.786438
0.304626 0.751892 0.746368
0.264435 0.715271 0.703186
0.296631 0.735687 0.721619
0.338867 0.758972 0.737610
0.211792 0.670380 0.648773
0.023804 0.363464 0.330536
0.005981 0.140717 0.067596
0.014679 0.100006 0.098816
0.045593 0.294922 0.322327
0.098053 0.353546 0.404785
0.127899 0.431702 0.454102
0.130280 0.493774 0.445892
0.124725 0.500580 0.444214
0.121765 0.546753 0.462738
0.144989 0.578247 0.502594
0.133820 0.579254 0.511627
0.150848 0.587860 0.532806
0.200958 0.600159 0.585938
0.207367 0.599335 0.586487
0.013275 0.369202 0.347534
0.010681 0.344635 0.321991
0.014709 0.347626 0.336792
0.015778 0.351105 0.345856
0.163849 0.629639 0.634491
0.455994 0.815155 0.818726
0.416809 0.791595 0.795441
0.417725 0.794006 0.797516
0.402039 0.791504 0.793915
0.411743 0.796234 0.798676
0.412170 0.796692 0.799133
0.416840 0.798950 0.801392
0.319336 0.746857 0.749451
0.250885 0.702484 0.705261
0.333099 0.754517 0.757111
0.420746 0.800415 0.802917
0.409485 0.794708 0.797302
0.408844 0.794403 0.796997
0.409149 0.794556 0.797119
0.409332 0.794647 0.797302
0.409088 0.794495 0.797424
0.409760 0.794861 0.797791
0.401154 0.790741 0.793701
0.438110 0.808624 0.811432
0.525146 0.846680 0.848969
0.416473 0.798431 0.800873
0.393707 0.787170 0.789612
0.420746 0.800507 0.802948
0.411682 0.796112 0.798584
0.406281 0.793427 0.795929
0.410583 0.795593 0.798035
0.406464 0.793518 0.795990
0.027954 0.415100 0.341064
0.029694 0.421844 0.350372
0.029999 0.425354 0.355377
0.035980 0.446960 0.379333
0.028931 0.431091 0.356140
0.023651 0.415771 0.334442
0.031555 0.450562 0.375427
0.060730 0.536102 0.469238
0.134430 0.671844 0.607971
0.142090 0.683777 0.619659
0.150726 0.705750 0.639648
0.163818 0.722778 0.654480
0.207855 0.774872 0.700287
0.261414 0.804565 0.733337
0.251740 0.786163 0.712494
0.093018 0.633575 0.545746
0.062714 0.532776 0.448242
0.121246 0.614960 0.546478
0.145111 0.629242 0.572205
0.144043 0.628357 0.575958
0.152679 0.639954 0.601929
0.143738 0.618439 0.588165
0.171722 0.605225 0.605621
0.182648 0.615082 0.613708
0.201416 0.629242 0.623138
0.208466 0.633301 0.624176
0.233032 0.646606 0.627502
0.255554 0.661865 0.640411
0.276581 0.670197 0.639099
0.186340 0.592590 0.555450
0.195374 0.589966 0.547211
0.238861 0.626251 0.582855
0.037720 0.436188 0.332642
0.037231 0.434753 0.328766
0.043030 0.450409 0.347778
0.051208 0.474396 0.374237
0.054871 0.492065 0.384613
0.056122 0.494415 0.388458
0.070099 0.515778 0.422729
0.133636 0.629730 0.533417
0.256958 0.789154 0.663086
0.295013 0.809418 0.690826
0.320251 0.822479 0.711639
0.351654 0.830414 0.726318
0.446381 0.852997 0.765900
0.518982 0.869659 0.795532
0.503754 0.820648 0.776367
0.221497 0.652557 0.603424
0.182098 0.591370 0.564850
0.183044 0.596283 0.571625
0.146759 0.569122 0.550049
0.170624 0.596039 0.579132
0.196991 0.626129 0.614563
0.253510 0.668945 0.657379
0.268921 0.669281 0.655334
0.259583 0.664642 0.650208
0.257782 0.670593 0.655396
0.264740 0.675476 0.659088
0.256409 0.668823 0.647705
0.255463 0.668945 0.646545
0.271027 0.683563 0.657013
0.271729 0.682312 0.655273
0.238556 0.651642 0.622070
0.196655 0.612488 0.578583
0.060425 0.494263 0.365448
0.061829 0.496155 0.365814
0.058075 0.486115 0.344116
0.064728 0.499969 0.364227
0.067139 0.504913 0.371368
0.073273 0.517212 0.387848
0.080658 0.532257 0.409363
0.178589 0.651276 0.548248
0.446228 0.823273 0.726746
0.450348 0.820129 0.735931
0.465851 0.811798 0.760559
0.469513 0.817474 0.773590
0.512390 0.846466 0.825653
0.528442 0.854034 0.837708
0.470673 0.835419 0.833099
0.305573 0.743195 0.741913
0.293396 0.708191 0.712921
0.479614 0.811920 0.812866
0.541809 0.848969 0.839996
0.529327 0.848785 0.840851
0.517212 0.860626 0.854797
0.493713 0.848602 0.846375
0.498840 0.843140 0.854126
0.504791 0.846191 0.854095
0.512573 0.851135 0.848511
0.496155 0.844330 0.841675
0.483582 0.839386 0.835938
0.475250 0.834625 0.833008
0.495178 0.839081 0.844025
0.483124 0.832733 0.838318
0.484924 0.829010 0.836823
0.501251 0.835999 0.843719
0.214386 0.750061 0.589691
0.250092 0.777496 0.614044
0.276245 0.804138 0.617523
0.338501 0.830414 0.657715
0.414978 0.849304 0.692932
0.458862 0.856689 0.712708
0.539001 0.853638 0.737122
0.521851 0.848328 0.744080
0.468323 0.827576 0.757202
0.464294 0.823608 0.765350
0.471649 0.820801 0.799042
0.467285 0.817657 0.803253
0.509918 0.831818 0.842773
0.563843 0.854706 0.863007
0.550812 0.852448 0.855927
0.402863 0.786621 0.787048
0.241486 0.688812 0.676453
0.196167 0.652344 0.640808
0.170074 0.627686 0.620148
0.147797 0.603729 0.595856
0.117706 0.564728 0.556366
0.107544 0.547852 0.539734
0.101959 0.528168 0.522217
0.089111 0.509186 0.499756
0.039612 0.403931 0.377136
0.039856 0.405579 0.378876
0.064209 0.470581 0.447479
0.073120 0.486450 0.464020
0.065491 0.464783 0.440704
0.069794 0.472168 0.447632
0.064789 0.457062 0.428802
0.069214 0.464081 0.434692
0.095032 0.541168 0.357910
0.106140 0.554657 0.387268
0.108185 0.552856 0.399109
0.186981 0.634064 0.528595
0.315613 0.716064 0.671906
0.319885 0.713440 0.687592
0.304840 0.693390 0.721985
0.227081 0.604218 0.638275
0.166809 0.429718 0.489197
0.155182 0.395172 0.457306
0.241943 0.448944 0.503876
0.238617 0.457642 0.496277
0.201019 0.448792 0.437042
0.216187 0.456451 0.446228
0.242432 0.453613 0.441254
0.249512 0.475372 0.474091
0.219391 0.474731 0.505737
0.197662 0.492401 0.518799
0.190430 0.615417 0.627502
0.154144 0.537445 0.556702
0.286896 0.541626 0.579407
0.416016 0.616241 0.642487
0.495850 0.598663 0.597839
0.504913 0.599426 0.610291
0.504517 0.579254 0.633209
0.523956 0.601349 0.641296
0.486267 0.616180 0.610748
0.500488 0.625397 0.619965
0.492432 0.622925 0.614960
0.422668 0.588501 0.588959
0.372101 0.573578 0.609924
0.275269 0.553070 0.578247
0.126831 0.407990 0.528290
0.171387 0.510162 0.610931
0.036133 0.364990 0.493683
0.029816 0.309601 0.461731
0.016632 0.096741 0.376099
0.045380 0.286163 0.480072
0.130188 0.419281 0.629272
0.136047 0.427216 0.610962
0.137756 0.423035 0.538086
0.150360 0.424072 0.554321
0.187317 0.415161 0.593658
0.204071 0.465973 0.595001
0.185638 0.513550 0.515350
0.116241 0.452545 0.495972
0.043762 0.423767 0.576141
0.052643 0.403992 0.557404
0.112854 0.404785 0.548096
0.150970 0.449951 0.589996
0.218292 0.477936 0.636719
0.222992 0.489136 0.635803
0.234344 0.517029 0.627594
0.250366 0.533447 0.644104
0.238831 0.524841 0.648346
0.241577 0.532562 0.644409
0.258636 0.559357 0.632751
0.260101 0.586273 0.649597
0.173157 0.597809 0.629517
0.094574 0.493408 0.552429
0.074493 0.438965 0.583038
0.055237 0.378021 0.526672
0.067474 0.350555 0.453156
0.059387 0.323425 0.449860
0.006531 0.118744 0.203735
0.006256 0.096191 0.214722
0.010590 0.119080 0.307709
0.008392 0.164673 0.310181
0.001190 0.213196 0.275574
0.002594 0.175507 0.246033
0.009125 0.068268 0.144714
0.008514 0.076843 0.177734
0.007904 0.102295 0.260590
0.010162 0.114410 0.270142
0.012848 0.068634 0.240021
0.015198 0.124695 0.299683
0.012543 0.137512 0.352753
0.014282 0.157715 0.367523
0.021210 0.219391 0.416595
0.014526 0.186310 0.385864
0.003448 0.141937 0.292145
0.011169 0.230530 0.358826
0.038605 0.311890 0.431580
0.033539 0.291443 0.426270
0.013428 0.130676 0.378723
0.016266 0.152618 0.383972
0.020538 0.154419 0.371948
0.012909 0.021973 0.327057
0.030273 0.159119 0.412842
0.105469 0.429016 0.560242
0.106323 0.375031 0.529999
0.042328 0.185547 0.440063
0.015381 0.275330 0.486511
0.022186 0.314117 0.488708
0.016113 0.187042 0.359619
0.033844 0.316956 0.433563
0.240906 0.576385 0.515961
0.287354 0.580109 0.562775
0.304840 0.475220 0.575195
0.259552 0.416779 0.539917
0.358826 0.477417 0.628540
0.375916 0.477905 0.621094
0.467102 0.498718 0.621338
0.433685 0.511322 0.620087
0.308868 0.508850 0.576355
0.216675 0.423645 0.536255
0.144440 0.385193 0.599091
0.232269 0.427643 0.613312
0.366150 0.301453 0.494293
0.341919 0.350647 0.522919
0.218109 0.370758 0.539001
0.211670 0.345947 0.523071
0.287476 0.426147 0.579407
0.360809 0.436676 0.598053
0.530792 0.370636 0.587708
0.524353 0.366730 0.588135
0.537384 0.376099 0.605469
0.550629 0.379944 0.604462
0.640869 0.410034 0.613281
0.600677 0.454834 0.642914
0.227417 0.373383 0.585724
0.200439 0.268341 0.522552
0.318970 0.312836 0.497253
0.384796 0.380005 0.546112
0.397858 0.332642 0.544037
0.393341 0.308167 0.523254
0.438751 0.303925 0.487671
0.418732 0.303345 0.479095
0.017120 0.355499 0.198334
0.018555 0.367432 0.214539
0.022003 0.394684 0.247650
0.023254 0.403839 0.261444
0.035889 0.457031 0.343811
0.037781 0.465485 0.354156
0.030457 0.447601 0.332916
0.064209 0.554535 0.436981
0.122406 0.696075 0.536804
0.132751 0.707214 0.550812
0.136658 0.717834 0.558044
0.157501 0.736115 0.580109
0.203979 0.772461 0.620758
0.259613 0.806122 0.664978
0.249084 0.791168 0.654541
0.116547 0.681213 0.518463
0.075195 0.620087 0.442566
0.034088 0.537079 0.319397
0.092682 0.622650 0.468781
0.346405 0.816223 0.706940
0.387238 0.825165 0.721344
0.389404 0.826050 0.721313
0.400574 0.832275 0.722076
0.415466 0.831329 0.734314
0.474426 0.830109 0.776642
0.486053 0.835510 0.786804
0.516785 0.849304 0.816101
0.488647 0.837738 0.809937
0.456573 0.824371 0.816803
0.460938 0.826080 0.821289
0.413849 0.803589 0.808929
0.354156 0.771637 0.777466
0.017181 0.367889 0.264923
0.016968 0.366364 0.262695
0.017242 0.367523 0.264923
0.016418 0.364685 0.259644
0.016907 0.370850 0.271576
0.017365 0.375946 0.278046
0.018250 0.382324 0.289734
0.035461 0.471191 0.388519
0.073517 0.607605 0.505280
0.076599 0.611572 0.505188
0.082916 0.621979 0.501373
0.088470 0.634033 0.510162
0.108826 0.673676 0.539307
0.137970 0.697357 0.571777
0.139252 0.681580 0.559357
0.063904 0.575500 0.433685
0.059937 0.528381 0.405334
0.075806 0.564026 0.445435
0.069183 0.573975 0.445251
0.057800 0.558777 0.411438
0.093109 0.630615 0.465820
0.090637 0.620239 0.446869
0.116394 0.629425 0.440765
0.157288 0.670624 0.502045
0.174896 0.682373 0.530029
0.172150 0.675446 0.526886
0.188080 0.674713 0.544739
0.205048 0.681580 0.561005
0.204651 0.656250 0.557953
0.101959 0.537170 0.417236
0.196503 0.617004 0.533691
0.225067 0.636261 0.554810
0.013184 0.320282 0.213898
0.014465 0.335297 0.240997
0.014709 0.348633 0.270752
0.015442 0.352539 0.276978
0.014008 0.343201 0.260590
0.012665 0.335327 0.253967
0.012512 0.334869 0.275055
0.022278 0.404572 0.351440
0.054382 0.533203 0.462158
0.051422 0.531158 0.456085
0.052917 0.548340 0.463348
0.055206 0.554321 0.467377
0.070557 0.587677 0.496582
0.085419 0.605469 0.519745
0.086914 0.595612 0.514069
0.040375 0.504364 0.407196
0.031342 0.458099 0.357544
0.035217 0.466461 0.366760
0.049622 0.491150 0.394958
0.053101 0.503021 0.403534
0.046967 0.501862 0.382446
0.057556 0.526093 0.410553
0.069427 0.554565 0.436310
0.074738 0.560089 0.440216
0.086639 0.566925 0.439362
0.109253 0.598785 0.474213
0.093292 0.579834 0.429413
0.066101 0.539032 0.364441
0.111328 0.614258 0.445862
0.162537 0.667389 0.513153
0.151520 0.653625 0.480957
0.130798 0.627472 0.449402
0.019958 0.411072 0.376312
0.019714 0.409698 0.373474
0.021515 0.417999 0.378113
0.026093 0.432617 0.395844
0.026764 0.427917 0.394653
0.029907 0.437988 0.405426
0.026428 0.421936 0.389252
0.020752 0.404755 0.364532
0.037079 0.472900 0.425140
0.035065 0.470337 0.418945
0.034637 0.478882 0.417969
0.037964 0.488586 0.426361
0.045349 0.509399 0.441406
0.054840 0.528992 0.464539
0.049316 0.516022 0.450195
0.021149 0.429657 0.353638
0.020905 0.410583 0.349304
0.025787 0.425262 0.364807
0.023865 0.402161 0.332153
0.029388 0.424164 0.354675
0.039398 0.458160 0.378967
0.039337 0.460052 0.377625
0.041473 0.473175 0.382294
0.047668 0.485565 0.392914
0.048431 0.477203 0.365021
0.042084 0.461426 0.344971
0.051331 0.484161 0.378998
0.045044 0.469116 0.358582
0.052216 0.486298 0.377594
0.070099 0.521576 0.420837
0.082703 0.540924 0.440430
0.074402 0.526062 0.420441
0.005646 0.219391 0.159210
0.006653 0.239960 0.182587
0.006897 0.251923 0.196381
0.007507 0.263855 0.210327
0.004700 0.223999 0.164459
0.004761 0.224609 0.165161
0.006348 0.248199 0.194366
0.008698 0.302246 0.249023
0.025665 0.434601 0.396179
0.026794 0.435333 0.398682
0.026917 0.428864 0.395691
0.031097 0.440796 0.408478
0.032654 0.437683 0.405945
0.031616 0.438141 0.402588
0.034729 0.457642 0.412598
0.034637 0.460571 0.414764
0.038452 0.481537 0.434784
0.044189 0.494720 0.447266
0.040985 0.484711 0.428253
0.021759 0.417786 0.353699
0.023651 0.405426 0.347534
0.018280 0.375183 0.308411
0.024750 0.380005 0.329926
0.020966 0.368469 0.303680
0.021240 0.386841 0.298492
0.021881 0.390778 0.305298
0.029907 0.425018 0.355469
0.030304 0.427307 0.354431
0.047302 0.478790 0.403625
0.047089 0.478302 0.400818
0.056824 0.500275 0.419647
0.049683 0.483765 0.397675
0.004822 0.225739 0.166443
0.004517 0.219482 0.159302
0.005188 0.232819 0.173737
0.005371 0.236450 0.181549
0.004761 0.224518 0.177917
0.005127 0.231476 0.185364
0.004944 0.224365 0.178772
0.008057 0.290680 0.247803
0.019897 0.401581 0.370880
0.018036 0.392334 0.361084
0.018280 0.394440 0.363068
0.019714 0.396851 0.367126
0.026367 0.412292 0.387909
0.030304 0.426086 0.402435
0.027313 0.413696 0.389801
0.011993 0.341064 0.300873
0.009644 0.329529 0.270538
0.008698 0.320099 0.258240
0.010040 0.332214 0.274689
0.035583 0.449371 0.417755
0.036285 0.458038 0.427307
0.036591 0.460907 0.429230
0.036346 0.466858 0.433075
0.039978 0.477661 0.439484
0.035980 0.470215 0.412170
0.046539 0.497162 0.442780
0.044037 0.491516 0.436371
0.049255 0.501892 0.449005
0.057037 0.512726 0.464386
0.066162 0.527863 0.481934
0.056824 0.500458 0.455627
0.031494 0.433258 0.379059
0.006012 0.212036 0.177338
0.005341 0.209869 0.170959
0.004303 0.216187 0.167908
0.003906 0.206116 0.157135
0.003967 0.207092 0.158203
0.003845 0.204102 0.154907
0.002930 0.178009 0.125427
0.005493 0.245789 0.203918
0.016602 0.370056 0.353912
0.014954 0.360870 0.343750
0.016663 0.369873 0.353546
0.017578 0.374756 0.358704
0.021179 0.391907 0.377197
0.023346 0.399872 0.382690
0.021423 0.387482 0.361084
0.009674 0.314850 0.271118
0.008392 0.300659 0.253967
0.009003 0.307648 0.262451
