res/luts/lut2.CUBE
#Created by: Adobe Photoshop Export Color Lookup Plugin
TITLE "lut2"
#LUT size
LUT_3D_SIZE 8
#data domain
#LUT data points
DOMAIN_MIN 0.000000 0.000000 0.000000
DOMAIN_MAX 0.903226 0.903226 0.903226
0.001923 0.150696 0.123627
0.002411 0.164551 0.137848
0.006989 0.283386 0.301666
0.007721 0.283112 0.282684
0.001709 0.151794 0.151794
0.007416 0.286163 0.303802
0.007721 0.286926 0.292206
0.002899 0.175964 0.162384
0.002747 0.180481 0.154816
0.002502 0.167206 0.141144
0.008911 0.323425 0.333344
0.012085 0.336121 0.348724
0.004883 0.237366 0.244904
0.005981 0.251129 0.254395
0.004059 0.196289 0.207367
0.015289 0.356384 0.377472
0.004272 0.225037 0.225281
0.005707 0.243164 0.222870
0.017761 0.392731 0.407440
0.021423 0.423553 0.436554
0.010468 0.321228 0.337585
0.009552 0.312836 0.327393
0.012695 0.333923 0.345856
0.016968 0.366943 0.378326
0.013275 0.369202 0.347534
0.163849 0.629639 0.634491
0.402039 0.791504 0.793915
0.319336 0.746857 0.749451
0.409485 0.794708 0.797302
0.409088 0.794495 0.797424
0.525146 0.846680 0.848969
0.411682 0.796112 0.798584
0.214386 0.750061 0.589691
0.414978 0.849304 0.692932
0.468323 0.827576 0.757202
0.509918 0.831818 0.842773
0.241486 0.688812 0.676453
0.117706 0.564728 0.556366
0.039612 0.403931 0.377136
0.065491 0.464783 0.440704
0.240906 0.576385 0.515961
0.358826 0.477417 0.628540
0.308868 0.508850 0.576355
0.366150 0.301453 0.494293
0.287476 0.426147 0.579407
0.537384 0.376099 0.605469
0.227417 0.373383 0.585724
0.397858 0.332642 0.544037
0.019958 0.411072 0.376312
0.026764 0.427917 0.394653
0.037079 0.472900 0.425140
0.045349 0.509399 0.441406
0.020905 0.410583 0.349304
0.039398 0.458160 0.378967
0.048431 0.477203 0.365021
0.052216 0.486298 0.377594
0.009613 0.305908 0.288727
0.003113 0.197235 0.175110
0.012146 0.343323 0.323242
0.016449 0.369598 0.352997
0.006073 0.270233 0.216370
0.008789 0.288055 0.249329
0.011322 0.315277 0.271637
0.005585 0.263397 0.172791
0.002136 0.154816 0.128479
0.001953 0.147675 0.121002
0.006989 0.283264 0.301788
0.007751 0.283752 0.302246
0.001892 0.158203 0.156830
0.006836 0.280792 0.298615
0.004852 0.237854 0.237030
0.004028 0.210602 0.186127
0.002747 0.174316 0.148865
0.002838 0.177429 0.152100
0.009888 0.317261 0.332642
0.012512 0.339630 0.351807
0.004089 0.221039 0.244080
0.004059 0.197510 0.209351
0.004913 0.222961 0.236877
0.016113 0.371948 0.397247
0.004333 0.215485 0.192139
0.004181 0.223480 0.224182
0.014709 0.409424 0.418457
0.031860 0.425140 0.448151
0.005402 0.297821 0.320923
0.014343 0.358368 0.350983
0.011078 0.369659 0.380524
0.019165 0.375214 0.385712
0.017639 0.370209 0.319519
0.013977 0.348755 0.286987
0.343750 0.771576 0.770691
0.396881 0.788330 0.791229
0.348663 0.762878 0.765656
0.448914 0.813873 0.816345
0.404724 0.792694 0.795166
0.400848 0.790741 0.793213
0.035370 0.447418 0.208710
0.077820 0.489349 0.335022
0.494781 0.839905 0.768738
0.495636 0.839874 0.845428
0.210785 0.639557 0.613525
0.219330 0.639038 0.632507
0.291443 0.662323 0.664612
0.241241 0.651886 0.622162
0.077118 0.627502 0.478394
0.177765 0.656921 0.616882
0.200287 0.326111 0.495880
0.621277 0.372559 0.616974
0.567902 0.459381 0.609650
0.181091 0.400482 0.538971
0.220154 0.401611 0.554169
0.528931 0.422821 0.608063
0.021576 0.392639 0.367432
0.025665 0.433197 0.396088
0.034302 0.456116 0.401428
0.043945 0.503021 0.445007
0.020599 0.409332 0.333710
0.025116 0.407318 0.338654
0.044586 0.468140 0.369629
0.056549 0.487610 0.379456
0.009216 0.318573 0.307831
0.007385 0.278778 0.259735
0.012115 0.328979 0.314545
0.015717 0.364960 0.348328
0.005890 0.246674 0.201355
0.006958 0.262604 0.220673
0.011444 0.299347 0.230865
0.013763 0.321045 0.259491
0.002289 0.159912 0.133789
0.001862 0.143982 0.117188
0.007080 0.278198 0.297089
0.007782 0.290344 0.307404
0.003021 0.202820 0.225647
0.008850 0.300201 0.316437
0.002869 0.191101 0.190155
0.004456 0.219208 0.195190
0.002808 0.176178 0.150787
0.003418 0.193237 0.168701
0.010254 0.320984 0.335968
0.012482 0.339447 0.351624
0.004211 0.224365 0.247162
0.005188 0.221741 0.232971
0.005432 0.267273 0.288727
0.013824 0.370392 0.390503
0.004730 0.224182 0.173950
0.004395 0.227631 0.202728
0.024628 0.397736 0.423401
0.022308 0.446075 0.444794
0.007263 0.312836 0.320862
0.013000 0.330048 0.313934
0.012238 0.392578 0.374207
0.039642 0.334076 0.386383
0.017822 0.364777 0.295532
0.026581 0.413086 0.355011
0.087402 0.611603 0.582672
0.250183 0.739105 0.721558
0.405579 0.792969 0.795685
0.435944 0.799500 0.809631
0.316895 0.745026 0.747528
0.401062 0.790833 0.793304
0.119324 0.577667 0.406281
0.192413 0.625916 0.475708
0.507965 0.845154 0.775787
0.506622 0.839325 0.848724
0.162964 0.591492 0.552551
0.221191 0.625854 0.596924
0.259338 0.635468 0.623230
0.132080 0.562286 0.499176
0.020599 0.368286 0.212494
0.132111 0.679932 0.529327
0.269592 0.705627 0.619659
0.324310 0.433960 0.545410
0.625519 0.520630 0.647217
0.370605 0.618774 0.690674
0.618988 0.472595 0.626984
0.559753 0.447937 0.602844
0.018372 0.377563 0.341949
0.022797 0.412659 0.378235
0.031250 0.452271 0.403931
0.041351 0.497467 0.438324
0.016724 0.380859 0.288116
0.036163 0.444519 0.383209
0.048615 0.473328 0.392212
0.053162 0.477600 0.376068
0.010101 0.310364 0.294128
0.010773 0.317749 0.301941
0.012970 0.335602 0.321808
0.015839 0.365570 0.349030
0.005005 0.230865 0.183624
0.006927 0.261902 0.219910
0.010742 0.292267 0.227020
0.014221 0.324799 0.264465
0.002228 0.158020 0.131805
0.001862 0.144501 0.117706
0.007721 0.283752 0.283203
0.006927 0.282318 0.300018
0.005341 0.256836 0.276398
0.007904 0.285675 0.304016
0.003357 0.204742 0.204102
0.004303 0.216736 0.192596
0.003784 0.162384 0.150787
0.002960 0.180115 0.154907
0.011108 0.328339 0.342438
0.012939 0.342926 0.354675
0.004333 0.227203 0.249817
0.004730 0.212402 0.223907
0.014069 0.365417 0.384216
0.014038 0.371643 0.402100
0.005615 0.240997 0.194550
0.005249 0.233643 0.209961
0.013336 0.417084 0.421204
0.028595 0.425507 0.448303
0.008148 0.324738 0.344574
0.026917 0.286499 0.366150
0.152191 0.454468 0.495087
0.202454 0.490326 0.565613
0.017975 0.347046 0.278778
0.024750 0.410675 0.352936
0.088440 0.627502 0.584137
0.135498 0.684326 0.641876
0.066132 0.527740 0.497681
0.402496 0.796143 0.791748
0.413452 0.796844 0.799438
0.345886 0.761749 0.764313
0.110352 0.559326 0.387604
0.120056 0.538483 0.394165
0.506561 0.847351 0.769379
0.499390 0.841400 0.837494
0.168823 0.596527 0.555695
0.221283 0.630585 0.596619
0.283813 0.642578 0.619415
0.208466 0.583649 0.536804
0.035095 0.441315 0.329376
0.049408 0.557678 0.404114
0.178314 0.755707 0.610840
0.276367 0.833344 0.610291
0.292358 0.478943 0.532654
0.400604 0.445831 0.575714
0.633453 0.511017 0.629700
0.632751 0.509155 0.614471
0.006500 0.263458 0.205658
0.023560 0.415710 0.381622
0.029449 0.450653 0.399567
0.040985 0.489838 0.437469
0.016632 0.372253 0.301453
0.034760 0.440430 0.378357
0.030121 0.428192 0.351349
0.057709 0.492889 0.401581
0.006378 0.264313 0.244904
0.011353 0.322571 0.306244
0.012878 0.334686 0.320465
0.014587 0.358490 0.340973
0.006439 0.256134 0.212036
0.006500 0.255249 0.212402
0.011383 0.298950 0.251923
0.013397 0.318024 0.260132
0.002289 0.160095 0.115479
0.001923 0.147766 0.119385
0.007141 0.282104 0.294067
0.007599 0.291168 0.308289
0.007629 0.291656 0.308594
0.009308 0.303162 0.302643
0.002899 0.175781 0.183533
0.003906 0.206726 0.182404
0.003418 0.153809 0.132751
0.002716 0.162109 0.140106
0.011688 0.331055 0.344635
0.013550 0.347076 0.361847
0.004669 0.233826 0.249756
0.004517 0.221191 0.225128
0.015442 0.362732 0.385742
0.013458 0.364960 0.397552
0.006714 0.224609 0.191742
0.007446 0.270233 0.250885
0.024231 0.407684 0.432556
0.025970 0.441559 0.453094
0.043884 0.349487 0.436737
0.159332 0.467377 0.576080
0.154999 0.477600 0.530792
0.142120 0.494446 0.545929
0.022736 0.370667 0.316589
0.022949 0.403656 0.358582
0.107117 0.629791 0.592316
0.134674 0.703949 0.640656
0.064545 0.558380 0.492432
0.154175 0.642670 0.612732
0.284454 0.723358 0.729340
0.408417 0.794678 0.798950
0.092773 0.557220 0.369202
0.148376 0.614319 0.452789
0.505829 0.838654 0.777679
0.501617 0.839050 0.852844
0.181488 0.616943 0.604706
0.203613 0.629333 0.631470
0.192444 0.624725 0.614532
0.241913 0.601440 0.592224
0.036469 0.423584 0.330963
0.037231 0.461365 0.348175
0.152435 0.744781 0.560455
0.234711 0.826324 0.648651
0.335541 0.837189 0.682007
0.525604 0.781830 0.745728
0.254791 0.471313 0.478699
0.329346 0.563995 0.592346
0.007233 0.276886 0.189026
0.024567 0.419983 0.385773
0.027191 0.443085 0.390869
0.042084 0.486786 0.440521
0.009399 0.320038 0.215485
0.021301 0.391815 0.315460
0.044495 0.467438 0.405243
0.049286 0.477600 0.390472
0.003998 0.206360 0.156128
0.008972 0.316193 0.308350
0.011932 0.327118 0.311951
0.014587 0.358582 0.341064
0.005646 0.242920 0.197144
0.007172 0.265991 0.224518
0.008484 0.264832 0.211487
0.009918 0.283325 0.234314
0.002350 0.161896 0.107086
0.002075 0.152832 0.123962
0.006805 0.280945 0.299011
0.007629 0.291595 0.308533
0.007294 0.287567 0.304840
0.006500 0.266968 0.266144
0.003235 0.176636 0.188934
0.003174 0.187408 0.162292
0.003693 0.162781 0.121216
0.003326 0.163361 0.147156
0.012054 0.328552 0.341949
0.011658 0.352844 0.369385
0.004639 0.233490 0.233826
0.004608 0.249268 0.246521
0.014435 0.370209 0.385315
0.015625 0.369751 0.405762
0.004059 0.209625 0.157715
0.005920 0.256836 0.237274
0.022003 0.406708 0.440704
0.060730 0.382751 0.530609
0.106995 0.424377 0.604919
0.178680 0.489197 0.558777
0.215851 0.508392 0.590820
0.160187 0.490265 0.550568
0.017639 0.365143 0.279419
0.021027 0.401703 0.319153
0.105927 0.644836 0.594788
0.147461 0.718597 0.665192
0.095398 0.583984 0.525665
0.101196 0.621460 0.557312
0.132385 0.612885 0.576813
0.210358 0.658203 0.634857
0.107086 0.557556 0.405518
0.170898 0.600800 0.475769
0.476807 0.839966 0.764709
0.513367 0.835571 0.818817
0.222015 0.639740 0.653473
0.395630 0.636719 0.655243
0.226074 0.698242 0.685852
0.638824 0.593628 0.625549
0.026154 0.407440 0.297943
0.025269 0.417389 0.252014
0.145874 0.728333 0.569763
0.229156 0.814636 0.623718
0.325958 0.839386 0.681458
0.432587 0.824768 0.740021
0.446960 0.827759 0.805908
0.544708 0.853790 0.845581
0.007111 0.244720 0.187805
0.019104 0.387024 0.349487
0.025970 0.424438 0.391113
0.034271 0.474854 0.426483
0.018585 0.369415 0.304016
0.016296 0.357086 0.265594
0.037140 0.456848 0.387604
0.039368 0.450165 0.374603
0.003845 0.164948 0.126678
0.009644 0.305481 0.289398
0.010773 0.332489 0.309967
0.014832 0.348511 0.336090
0.005524 0.250336 0.230255
0.006805 0.260895 0.218323
0.009369 0.266144 0.236633
0.010315 0.288055 0.238770
0.002594 0.170044 0.115906
0.002106 0.154022 0.125214
0.006805 0.280884 0.298950
0.007629 0.291595 0.308533
0.007385 0.288544 0.305725
0.003510 0.209351 0.208344
0.004608 0.209961 0.221283
0.003906 0.205566 0.181335
0.004517 0.180481 0.141022
0.002869 0.178375 0.153137
0.011322 0.330383 0.343506
0.010925 0.347870 0.364685
0.003967 0.218262 0.217804
0.007080 0.283112 0.300262
0.013031 0.365814 0.381226
0.018097 0.382904 0.407928
0.004852 0.248138 0.150787
0.007385 0.229919 0.284973
0.043304 0.328156 0.508820
0.092865 0.427246 0.611023
0.158508 0.434143 0.553467
0.198944 0.504913 0.617676
0.134460 0.368011 0.471802
0.116669 0.410248 0.477234
0.016479 0.346222 0.246429
0.031677 0.430756 0.366974
0.115387 0.662933 0.604187
0.166992 0.740814 0.680328
0.086426 0.582886 0.512054
0.122650 0.637909 0.582184
0.152374 0.607880 0.587952
0.221100 0.637817 0.605469
0.080444 0.521484 0.382904
0.111176 0.537506 0.408020
0.548584 0.832001 0.748718
0.615265 0.848114 0.843964
0.529755 0.572327 0.592041
0.412598 0.560852 0.556915
0.402130 0.507965 0.536957
0.182465 0.604553 0.593719
0.029694 0.406799 0.321747
0.022308 0.406067 0.248444
0.146942 0.718536 0.574219
0.211273 0.810150 0.613434
0.271271 0.826538 0.644012
0.431885 0.836182 0.737091
0.352264 0.772888 0.746338
0.452209 0.822388 0.827087
0.007233 0.246338 0.189575
0.006104 0.278412 0.210602
0.026581 0.426910 0.393707
0.038055 0.476410 0.428192
0.018799 0.383392 0.317505
0.019989 0.375641 0.306946
0.037567 0.449127 0.383087
0.041748 0.461060 0.384674
0.003571 0.158203 0.119293
0.011200 0.320862 0.306122
0.010834 0.332794 0.310425
0.014648 0.347351 0.334747
0.004608 0.233154 0.212128
0.006317 0.252960 0.209351
0.009094 0.262756 0.232819
0.012054 0.305908 0.260345
0.002228 0.157318 0.101959
0.001862 0.145233 0.115997
0.006805 0.280945 0.298950
0.007660 0.291718 0.308655
0.006744 0.279785 0.297699
0.002960 0.194244 0.193237
0.004761 0.213440 0.224762
0.005066 0.230865 0.208191
0.003357 0.192963 0.139679
0.002716 0.172699 0.147156
0.011444 0.329926 0.343719
0.011139 0.349030 0.365784
0.003571 0.208984 0.214722
0.016876 0.364746 0.385742
0.012604 0.363739 0.378876
0.017181 0.367737 0.394196
0.005646 0.246582 0.216187
0.018250 0.253510 0.417389
0.066589 0.383026 0.601013
0.130249 0.420654 0.586670
0.197845 0.488464 0.595459
0.163055 0.417358 0.481323
0.122864 0.349213 0.467072
0.220673 0.553497 0.601105
0.026245 0.390320 0.313202
0.035950 0.443298 0.376282
0.125061 0.666107 0.605042
0.196869 0.766663 0.696075
0.101013 0.592102 0.518127
0.102417 0.596222 0.551239
0.197571 0.620544 0.597137
0.232178 0.635162 0.600800
0.061005 0.481934 0.282318
0.083099 0.502899 0.377686
0.365723 0.807556 0.802795
0.273834 0.608734 0.619415
0.279175 0.566254 0.588745
0.480927 0.571777 0.589996
0.153931 0.546387 0.512756
0.165283 0.619049 0.609436
0.022339 0.375580 0.271179
0.034882 0.453369 0.338013
0.140411 0.710876 0.567322
0.193115 0.788696 0.606018
0.218994 0.789917 0.613098
0.394409 0.828247 0.719055
0.447845 0.831879 0.774200
0.364532 0.788269 0.779327
0.006439 0.232910 0.174530
0.006592 0.266663 0.208191
0.025391 0.433441 0.395020
0.035706 0.451691 0.420990
0.043549 0.486694 0.442505
0.016876 0.371857 0.299683
0.027161 0.415680 0.342529
0.047852 0.480560 0.405365
0.003967 0.168396 0.130249
0.010376 0.313080 0.297607
0.010193 0.327209 0.304016
0.014374 0.345673 0.332855
0.005249 0.245850 0.225555
0.007233 0.267365 0.225647
0.009613 0.269257 0.239868
0.009674 0.280518 0.229919
