res/luts/lut2.CUBE
#Created by: Adobe Photoshop Export Color Lookup Plugin
TITLE "lut2"
#LUT size
LUT_3D_SIZE 5
#data domain
#LUT data points
DOMAIN_MIN 0.000000 0.000000 0.000000
DOMAIN_MAX 0.903226 0.903226 0.903226
0.001923 0.150696 0.123627
0.002930 0.182770 0.178009
0.007385 0.279053 0.279053
0.007599 0.288269 0.305542
0.002899 0.175964 0.162384
0.006561 0.267670 0.269531
0.013885 0.362671 0.384644
0.016876 0.382965 0.398346
0.012848 0.340179 0.352234
0.015381 0.352051 0.362305
0.037720 0.436188 0.332642
0.133636 0.629730 0.533417
0.503754 0.820648 0.776367
0.253510 0.668945 0.657379
0.271027 0.683563 0.657013
0.017120 0.355499 0.198334
0.064209 0.554535 0.436981
0.249084 0.791168 0.654541
0.389404 0.826050 0.721313
0.456573 0.824371 0.816803
0.009613 0.305908 0.288727
0.003296 0.215851 0.160828
0.016846 0.359589 0.349487
0.008606 0.285675 0.246582
0.005585 0.263397 0.172791
0.002441 0.164551 0.138672
0.002686 0.178497 0.164673
0.007477 0.279419 0.298676
0.007996 0.296356 0.312897
0.004639 0.223755 0.199982
0.010681 0.344513 0.349884
0.005615 0.276031 0.275330
0.018463 0.395020 0.410004
0.010406 0.315582 0.330383
0.016571 0.358795 0.358704
0.053864 0.477600 0.387207
0.136810 0.635468 0.522430
0.480530 0.816803 0.787811
0.228149 0.647247 0.625305
0.234680 0.636200 0.589996
0.024658 0.400482 0.287720
0.048889 0.515137 0.408325
0.202576 0.777008 0.614258
0.107849 0.602356 0.477997
0.494904 0.841217 0.826569
0.010010 0.309113 0.293030
0.003754 0.204834 0.180878
0.014252 0.357574 0.340332
0.006134 0.253906 0.208191
0.013580 0.319702 0.257690
0.002228 0.157928 0.131714
0.002777 0.178589 0.159119
0.007477 0.289398 0.306488
0.007812 0.284393 0.289398
0.004028 0.210419 0.185913
0.010498 0.343201 0.360779
0.006683 0.277405 0.268951
0.019287 0.398987 0.413818
0.011139 0.322571 0.336639
0.015442 0.353027 0.352722
0.046906 0.460876 0.361633
0.166901 0.660065 0.544067
0.497101 0.818512 0.802399
0.168640 0.579712 0.546234
0.129669 0.529816 0.489014
0.019104 0.376343 0.262848
0.044739 0.504089 0.396545
0.169586 0.746490 0.604462
0.134125 0.630737 0.503540
0.148956 0.612366 0.556946
0.004486 0.227356 0.200165
0.004852 0.237366 0.232574
0.013336 0.352112 0.333771
0.006378 0.257996 0.212830
0.012756 0.312469 0.269379
0.002258 0.158325 0.103088
0.002716 0.169281 0.184479
0.007416 0.288818 0.305969
0.003357 0.198975 0.201080
0.002991 0.181732 0.156342
0.013702 0.347321 0.359467
0.006836 0.274689 0.266205
0.020660 0.404938 0.424469
0.011139 0.328217 0.344177
0.014160 0.344513 0.344421
0.061951 0.498901 0.379730
0.179901 0.661224 0.535278
0.485687 0.827515 0.816956
0.173126 0.594391 0.552765
0.297272 0.687012 0.644196
0.019867 0.381165 0.289856
0.047546 0.505157 0.400055
0.160095 0.723541 0.592285
0.133820 0.666687 0.534576
0.214844 0.633148 0.555847
0.004059 0.170654 0.132660
0.010559 0.330597 0.307831
0.013550 0.340576 0.326935
0.007599 0.272308 0.231293
0.010559 0.290680 0.241943
0.002228 0.157318 0.101959
0.002716 0.169647 0.184875
0.007477 0.289398 0.306488
0.002991 0.189575 0.191742
0.005066 0.230865 0.208191
0.006989 0.272675 0.274261
0.006714 0.272461 0.263855
0.023499 0.416595 0.435638
0.011169 0.328766 0.344635
0.019470 0.384094 0.379059
0.050842 0.470520 0.317139
0.187805 0.654022 0.549011
0.465271 0.816833 0.809692
0.100372 0.538910 0.509888
0.478943 0.832428 0.831665
0.017212 0.368134 0.265381
0.038635 0.478027 0.388458
0.142822 0.693115 0.567017
0.140045 0.683655 0.528687
0.201233 0.629181 0.520935
0.003967 0.168396 0.130249
0.009857 0.324005 0.300201
0.012848 0.335083 0.320801
0.006073 0.248627 0.204468
0.009674 0.280518 0.229919
