res/luts/lut3.CUBE.CUBE
#Created by: Adobe Photoshop Export Color Lookup Plugin
TITLE "LUT3"
#LUT size
LUT_3D_SIZE 5
#data domain
#LUT data points
DOMAIN_MIN 0.000000 0.000000 0.000000
DOMAIN_MAX 0.903226 0.903226 0.903226
0.063293 0.039307 0.022125
0.077454 0.087555 0.096832
0.054901 0.054901 0.054901
0.071930 0.092438 0.110779
0.070129 0.061646 0.052887
0.078186 0.124237 0.134277
0.086456 0.137878 0.169312
0.076752 0.109772 0.128845
0.110992 0.122772 0.133698
0.085876 0.095947 0.085876
0.237793 0.226166 0.000000
0.172607 0.686951 0.000000
0.547150 0.449066 0.242340
0.591614 0.447418 0.365204
0.566132 0.327301 0.089172
0.149231 0.159027 0.000000
0.000000 0.516876 0.000000
0.000000 0.516510 0.000000
0.504608 0.723602 0.000000
0.698029 0.698029 0.698029
0.094116 0.094116 0.094116
0.105377 0.116394 0.093933
0.091278 0.091278 0.059723
0.105896 0.087860 0.043671
0.108582 0.082458 0.012543
0.049103 0.032837 0.016846
0.077454 0.087555 0.096832
0.054901 0.054901 0.054901
0.079681 0.089966 0.117828
0.073029 0.056427 0.037933
0.086761 0.121582 0.141724
0.082275 0.151550 0.183960
0.081543 0.114502 0.124451
0.103302 0.127472 0.149017
0.121887 0.134369 0.146179
0.227844 0.239594 0.000000
0.229309 0.718079 0.000000
0.531250 0.460785 0.364258
0.576477 0.423340 0.232208
0.496216 0.233002 0.000000
0.165710 0.175812 0.000000
0.000000 0.496429 0.000000
0.000000 0.456390 0.000000
0.429962 0.417206 0.000000
0.709167 0.709167 0.584015
0.094025 0.104309 0.083008
0.109314 0.120361 0.097351
0.075287 0.075287 0.044861
0.093414 0.076111 0.045654
0.102539 0.069183 0.015564
0.056854 0.040863 0.023743
0.078125 0.088104 0.088104
0.066315 0.066315 0.075256
0.062714 0.062714 0.062714
0.068817 0.052399 0.043488
0.082672 0.131317 0.151611
0.071503 0.157379 0.189545
0.093079 0.115845 0.136230
0.099182 0.121826 0.121826
0.099854 0.123657 0.144745
0.262970 0.262970 0.000000
0.397614 0.716522 0.000000
0.511047 0.450653 0.366943
0.595947 0.369293 0.136475
0.581085 0.329834 0.157959
0.140442 0.160461 0.000000
0.000000 0.465942 0.000000
0.000000 0.453888 0.000000
0.355652 0.380219 0.000000
0.296051 0.169189 0.000000
0.074310 0.065643 0.046509
0.105377 0.116394 0.093933
0.079071 0.079071 0.059204
0.090698 0.081390 0.049835
0.122742 0.103790 0.009766
0.056854 0.040863 0.023743
0.077454 0.087555 0.096832
0.081390 0.091431 0.100891
0.065979 0.057770 0.049072
0.068909 0.052551 0.034027
0.084473 0.132416 0.142731
0.084473 0.155487 0.188660
0.097839 0.120819 0.131439
0.100983 0.112701 0.143677
0.113739 0.113739 0.113739
0.302521 0.280426 0.000000
0.541901 0.710938 0.000000
0.521667 0.418579 0.365112
0.483551 0.243256 0.000000
0.570496 0.365875 0.047180
0.136841 0.146698 0.000000
0.000000 0.444305 0.000000
0.000000 0.427521 0.000000
0.242737 0.542023 0.000000
0.440643 0.263031 0.000000
0.071381 0.047211 0.020172
0.088379 0.109741 0.088379
0.082397 0.073517 0.054016
0.097778 0.079987 0.023529
0.119263 0.084808 0.026886
0.056854 0.040863 0.023743
0.077454 0.087555 0.096832
0.081390 0.091431 0.100891
0.058105 0.049957 0.041168
0.078003 0.069611 0.060730
0.081207 0.064331 0.034515
0.073303 0.161438 0.194122
0.082672 0.131317 0.151611
0.099518 0.111389 0.152344
0.096649 0.153412 0.187653
0.261108 0.239563 0.000000
0.657501 0.695007 0.000000
0.523987 0.454865 0.416656
0.678436 0.678436 0.678436
0.670593 0.670593 0.670593
0.132904 0.132904 0.000000
0.000000 0.418915 0.000000
0.000000 0.397186 0.000000
0.217773 0.520874 0.000000
0.444916 0.327240 0.000000
0.071350 0.047119 0.028839
0.088379 0.109741 0.088379
0.078003 0.069611 0.060730
0.095978 0.070770 0.040222
0.108551 0.082458 0.025360
