res/luts/lut3.CUBE
#Created by: Adobe Photoshop Export Color Lookup Plugin
TITLE "lut3"
#LUT size
LUT_3D_SIZE 5
#data domain
#LUT data points
DOMAIN_MIN 0.000000 0.000000 0.000000
DOMAIN_MAX 0.903226 0.903226 0.903226
0.159393 0.007935 0.001099
0.192413 0.011017 0.002441
0.279053 0.024292 0.007385
0.281891 0.026001 0.009583
0.190826 0.010345 0.001984
0.267212 0.022308 0.006744
0.342621 0.046265 0.021881
0.360382 0.054565 0.025177
0.335236 0.038361 0.015411
0.352051 0.042297 0.017212
0.440643 0.080933 0.012512
0.604614 0.246277 0.080963
0.842468 0.549347 0.363281
0.709595 0.295715 0.186737
0.721527 0.315735 0.186340
0.361725 0.043549 0.003143
0.503418 0.167511 0.036438
0.706451 0.491730 0.183563
0.789948 0.560425 0.270691
0.821991 0.556976 0.445160
0.305908 0.029602 0.008118
0.201721 0.014801 0.001953
0.360138 0.045074 0.014923
0.294617 0.025513 0.005341
0.251129 0.021606 0.002289
0.177155 0.009216 0.001404
0.185150 0.010590 0.002075
0.279999 0.024353 0.008942
0.286926 0.027588 0.010254
0.233154 0.015808 0.003204
0.317017 0.039734 0.014984
0.251373 0.023743 0.007141
0.368530 0.059937 0.028259
0.314117 0.031799 0.012238
0.358795 0.044769 0.016541
0.481720 0.106537 0.022461
0.608185 0.253113 0.074493
0.832611 0.541626 0.385193
0.691101 0.267609 0.152893
0.696014 0.253967 0.121185
0.396179 0.062469 0.008057
0.470245 0.134003 0.027802
0.670868 0.465546 0.142365
0.573059 0.215210 0.052216
0.838745 0.592163 0.466766
0.310364 0.030304 0.008484
0.213806 0.013489 0.002563
0.345184 0.044312 0.013550
0.260040 0.020081 0.003510
0.340668 0.032776 0.005981
0.170563 0.008606 0.001251
0.188171 0.010590 0.001923
0.280304 0.026215 0.009644
0.284485 0.025269 0.008179
0.220093 0.014160 0.002716
0.315094 0.039337 0.016937
0.268951 0.023987 0.006683
0.372742 0.061768 0.029327
0.321106 0.033508 0.013031
0.352509 0.042633 0.015472
0.465393 0.095612 0.017090
0.639160 0.283966 0.087616
0.839661 0.545044 0.414581
0.640808 0.191650 0.089050
0.600098 0.145905 0.057190
0.371735 0.051758 0.006287
0.459900 0.125458 0.024719
0.641724 0.412323 0.133484
0.605164 0.247437 0.064270
0.621246 0.226257 0.096222
0.229858 0.016296 0.003204
0.237366 0.017670 0.004608
0.338898 0.042328 0.012634
0.264008 0.020752 0.003723
0.334564 0.031067 0.006744
0.170959 0.008636 0.000763
0.185822 0.009644 0.002655
0.279633 0.026093 0.009613
0.203461 0.012787 0.003265
0.193695 0.010925 0.001831
0.341400 0.040649 0.016724
0.271423 0.023529 0.006531
0.379120 0.064606 0.032471
0.320923 0.034973 0.014099
0.344513 0.039734 0.014130
0.498871 0.121582 0.020782
0.651276 0.285461 0.082092
0.834808 0.563416 0.445496
0.645050 0.206726 0.093384
0.738403 0.320557 0.172211
0.375458 0.053802 0.008209
0.466888 0.126282 0.025635
0.632538 0.375092 0.123047
0.604797 0.292694 0.081665
0.680817 0.250336 0.095459
0.220428 0.009796 0.001282
0.315765 0.035614 0.009766
0.340576 0.038483 0.011810
0.281677 0.023102 0.004547
0.315643 0.026459 0.005096
0.169952 0.008545 0.000732
0.186218 0.009674 0.002686
0.280151 0.026215 0.009644
0.194153 0.011749 0.002899
0.241516 0.016754 0.003510
0.273346 0.023163 0.007050
0.269165 0.023132 0.006378
0.391541 0.070404 0.036011
0.321442 0.035126 0.014160
0.373474 0.055023 0.020660
0.474823 0.101807 0.010712
0.658295 0.276154 0.090851
0.825897 0.541687 0.429840
0.562836 0.153595 0.067596
0.831879 0.573639 0.478394
0.362213 0.048431 0.006439
0.443359 0.106812 0.022766
0.614746 0.329315 0.103363
0.611725 0.315857 0.078125
0.669739 0.245605 0.073669
0.218323 0.009583 0.001221
0.308472 0.033875 0.009094
0.335083 0.036865 0.011108
0.258789 0.019318 0.003387
0.306763 0.024567 0.004486
