res/luts/lut3.CUBE.CUBE
#Created by: Adobe Photoshop Export Color Lookup Plugin
TITLE "LUT3"
#LUT size
LUT_3D_SIZE 32
#data domain
DOMAIN_MIN 0.0 0.0 0.0
DOMAIN_MAX 1.0 1.0 1.0
#LUT data points
0.063293 0.039307 0.022125
0.049103 0.032837 0.016846
0.056854 0.040863 0.023743
0.060974 0.044617 0.027161
0.046509 0.038086 0.021606
0.046509 0.038086 0.021606
0.046387 0.038086 0.029724
0.077454 0.087555 0.096832
0.073914 0.083527 0.092865
0.073914 0.083527 0.092865
0.073914 0.083527 0.092865
0.081390 0.091431 0.100891
0.081390 0.091431 0.100891
0.080566 0.090729 0.109528
0.054901 0.054901 0.054901
0.048981 0.032684 0.032684
0.071198 0.046844 0.046844
0.066681 0.066681 0.066681
0.081390 0.091431 0.100891
0.081390 0.091431 0.100891
0.080566 0.090729 0.109528
0.071930 0.092438 0.110779
0.075592 0.096283 0.114960
0.084229 0.094574 0.113739
0.058838 0.058838 0.058838
0.065796 0.057556 0.057556
0.064697 0.048370 0.048370
0.056671 0.040649 0.040649
0.070129 0.061646 0.052887
0.077118 0.060364 0.031128
0.075409 0.050812 0.041656
0.071350 0.047119 0.028839
0.052765 0.036713 0.028381
0.056854 0.040863 0.023743
0.052765 0.036713 0.028381
0.052795 0.036804 0.020599
0.052765 0.036713 0.028381
0.052765 0.036713 0.028381
0.042206 0.034027 0.034027
0.077454 0.087555 0.096832
0.070007 0.089630 0.089630
0.069275 0.089111 0.098206
0.069275 0.089111 0.098206
0.080566 0.090729 0.109528
0.088867 0.088867 0.108154
0.081390 0.091431 0.100891
0.077454 0.087555 0.096832
0.075592 0.096283 0.114960
0.080566 0.090729 0.109528
0.077972 0.077972 0.087219
0.060791 0.044373 0.044373
0.061920 0.053619 0.053619
0.055115 0.055115 0.046112
0.062714 0.062714 0.062714
0.074036 0.065674 0.056610
0.065979 0.057770 0.049072
0.064697 0.048370 0.048370
0.069946 0.061432 0.061432
0.076996 0.060394 0.041809
0.080750 0.063965 0.063965
0.068817 0.052399 0.043488
0.079437 0.054718 0.045502
0.065979 0.057770 0.049072
0.072906 0.056305 0.047363
0.056854 0.040863 0.023743
0.060883 0.044495 0.035919
0.059326 0.035187 0.026855
0.052765 0.036713 0.028381
0.049072 0.032776 0.024902
0.065491 0.085083 0.094208
0.080566 0.090729 0.109528
0.085083 0.085083 0.103973
0.077454 0.087555 0.096832
0.081390 0.091431 0.100891
0.071930 0.092438 0.110779
0.083282 0.093750 0.122070
0.087891 0.098450 0.117889
0.087311 0.108948 0.118774
0.062714 0.062714 0.062714
0.062714 0.062714 0.062714
0.062378 0.062378 0.071381
0.065979 0.057770 0.049072
0.065796 0.057556 0.057556
0.068817 0.051910 0.060638
0.069946 0.061432 0.061432
0.065979 0.057159 0.065979
0.069946 0.061432 0.061432
0.070129 0.061646 0.052887
0.065796 0.057556 0.057556
0.069946 0.061432 0.061432
0.069946 0.061432 0.061432
0.073822 0.065399 0.065399
0.073029 0.056427 0.037933
0.068817 0.052399 0.043488
0.076874 0.060211 0.051239
0.080750 0.063965 0.063965
0.073608 0.093628 0.093628
0.076721 0.086914 0.105316
0.081390 0.091431 0.100891
0.085114 0.095337 0.105011
0.066681 0.066681 0.066681
0.056854 0.040863 0.023743
0.052765 0.036713 0.028381
0.087891 0.098450 0.117889
0.080109 0.100983 0.110626
0.076508 0.096954 0.106476
0.076508 0.096954 0.106476
0.087311 0.108948 0.118774
0.084900 0.107086 0.136139
0.088379 0.110840 0.140656
0.058929 0.068298 0.068298
0.062714 0.062714 0.062714
0.069946 0.061432 0.061432
0.062103 0.053284 0.062103
0.057953 0.049805 0.049805
0.076904 0.059601 0.068604
0.072906 0.056305 0.047363
0.076874 0.060211 0.051239
0.073822 0.065399 0.065399
0.080963 0.063538 0.072479
0.077728 0.069336 0.069336
0.065796 0.057556 0.057556
0.077972 0.077972 0.087219
0.085938 0.076569 0.085938
0.081818 0.073242 0.073242
0.078003 0.069611 0.060730
0.071289 0.046997 0.037720
0.085022 0.068115 0.058990
0.056854 0.040863 0.023743
0.064880 0.048645 0.030640
0.050232 0.042145 0.024780
0.050232 0.042145 0.024780
0.064880 0.048645 0.030640
0.064880 0.048645 0.030640
0.050110 0.042175 0.033417
0.082611 0.104126 0.123291
0.079071 0.100220 0.119171
0.074585 0.106598 0.116089
0.082611 0.104126 0.123291
0.091705 0.114716 0.144897
0.091705 0.114716 0.144897
0.094910 0.118561 0.149323
0.070618 0.070618 0.070618
0.066681 0.066681 0.066681
0.070618 0.070618 0.070618
0.068817 0.051910 0.060638
0.074097 0.074097 0.083374
0.074097 0.074097 0.083374
0.085052 0.067352 0.076355
0.062103 0.053833 0.045135
0.074036 0.064941 0.074036
0.065979 0.057770 0.049072
0.085022 0.068115 0.058990
0.066681 0.066681 0.066681
0.078705 0.128845 0.168701
0.079285 0.131287 0.181610
0.072418 0.140808 0.191711
0.090698 0.131012 0.194000
0.084351 0.138641 0.191071
0.087952 0.127502 0.189270
0.064880 0.048645 0.030640
0.064880 0.048645 0.030640
0.060974 0.044617 0.027161
0.058105 0.049957 0.041168
0.058289 0.049957 0.031738
0.054352 0.045929 0.028229
0.050232 0.042145 0.024780
0.089722 0.111908 0.131927
0.086151 0.108063 0.127655
0.078766 0.112701 0.141693
0.080200 0.113647 0.133179
0.085175 0.120453 0.150421
0.077820 0.126251 0.155762
0.091400 0.128174 0.159271
0.066193 0.075714 0.084808
0.069946 0.061432 0.061432
0.073608 0.073608 0.091675
0.074951 0.122223 0.151367
0.077362 0.140991 0.161530
0.090210 0.129089 0.180908
0.075104 0.139679 0.170258
0.084198 0.136444 0.177979
0.072418 0.135773 0.165680
0.061676 0.146454 0.197083
0.079376 0.149933 0.192810
0.081757 0.136993 0.199402
0.078308 0.151978 0.206146
0.061890 0.071350 0.088898
0.089600 0.089600 0.099335
0.093964 0.085358 0.076111
0.095795 0.070404 0.060944
0.097504 0.079987 0.049530
0.064880 0.048645 0.030640
0.064819 0.048553 0.039490
0.072906 0.056305 0.047363
0.068909 0.052551 0.034027
0.068909 0.052551 0.034027
0.058289 0.049957 0.031738
0.050110 0.042175 0.033417
0.085175 0.120453 0.150421
0.076630 0.123260 0.142883
0.085175 0.120453 0.150421
0.088135 0.124451 0.154755
0.077362 0.140991 0.161530
0.083679 0.134033 0.164734
0.074524 0.136963 0.157135
0.086853 0.140228 0.182617
0.080109 0.147552 0.179443
0.086853 0.140228 0.182617
0.074982 0.120178 0.129944
0.074097 0.074097 0.083374
0.088043 0.088043 0.116638
0.090088 0.080353 0.090088
0.093994 0.084290 0.093994
0.077393 0.077393 0.095795
0.092560 0.103180 0.113220
0.109772 0.109772 0.109772
0.101959 0.101959 0.101959
0.105011 0.105011 0.115417
0.106079 0.095764 0.106079
0.094574 0.094574 0.084351
0.122070 0.103577 0.071533
0.117920 0.099670 0.067932
0.118042 0.108856 0.099426
0.078186 0.124237 0.134277
0.086761 0.121582 0.141724
0.081390 0.128387 0.138367
0.078186 0.124237 0.134277
0.071930 0.132904 0.152679
0.085693 0.135284 0.156036
0.077362 0.140991 0.161530
0.086456 0.137878 0.169312
0.077362 0.140991 0.161530
0.077515 0.143677 0.174805
0.080109 0.147552 0.179443
0.073303 0.161438 0.194122
0.066284 0.157959 0.211517
0.072662 0.167419 0.212585
0.076752 0.109772 0.128845
0.087891 0.098450 0.117889
0.091797 0.091797 0.120880
0.090088 0.080353 0.090088
0.098022 0.098022 0.098022
0.096283 0.107117 0.117188
0.101074 0.111847 0.101074
0.110992 0.122772 0.133698
0.101166 0.101166 0.111511
0.103577 0.114929 0.125519
0.118317 0.118317 0.106873
0.126251 0.114807 0.126251
0.116547 0.116547 0.127838
0.124176 0.124176 0.135895
0.085876 0.095947 0.085876
0.116608 0.129059 0.151794
0.114746 0.126556 0.137909
0.121887 0.134369 0.146179
0.070374 0.061646 0.042816
0.066223 0.057739 0.039032
0.074310 0.065643 0.046509
0.079285 0.079285 0.048676
0.070923 0.070923 0.061493
0.063171 0.063171 0.044342
0.066681 0.066681 0.066681
0.078369 0.167114 0.189667
0.064178 0.168793 0.190674
0.071350 0.163544 0.207764
0.072662 0.167419 0.212585
0.058868 0.185120 0.232635
0.034790 0.198944 0.247955
0.008057 0.205109 0.253387
0.084473 0.132416 0.142731
0.092560 0.103180 0.113220
0.085114 0.095337 0.105011
0.093079 0.115845 0.136230
0.089722 0.111908 0.131927
0.091614 0.102325 0.121948
0.097473 0.135834 0.168213
0.112274 0.123901 0.123901
0.099182 0.121826 0.121826
0.110382 0.110382 0.099457
0.108459 0.132721 0.143829
0.138275 0.126251 0.138275
0.118439 0.144592 0.156525
0.103119 0.143463 0.177399
0.100677 0.141724 0.186340
0.113831 0.156982 0.181305
0.119751 0.131866 0.131866
0.131348 0.160370 0.173584
0.167999 0.015259 0.145996
0.170197 0.000000 0.320160
0.198669 0.000000 0.369293
0.254150 0.000000 0.424377
0.249084 0.000000 0.489166
0.313049 0.000000 0.306519
0.454651 0.000000 0.489105
0.494293 0.000000 0.480316
0.382385 0.000000 0.248474
0.396606 0.000000 0.232513
0.416534 0.000000 0.244843
0.436676 0.000000 0.257111
0.460846 0.000000 0.246246
0.480713 0.000000 0.233337
0.403198 0.000000 0.269257
0.480927 0.000000 0.231354
0.485077 0.000000 0.485077
0.630585 0.000000 0.400208
0.654816 0.000000 0.382843
0.654724 0.000000 0.380402
0.595734 0.000000 0.410065
0.654297 0.000000 0.372437
0.654083 0.000000 0.369598
0.653870 0.000000 0.366638
0.478607 0.000000 0.478607
0.477600 0.000000 0.477600
0.481232 0.000000 0.470642
0.652161 0.000000 0.350189
0.651703 0.000000 0.346527
0.611115 0.291901 0.172241
0.614197 0.274109 0.383911
0.646118 0.000000 0.435791
0.220551 0.000000 0.307343
0.241547 0.000000 0.316376
0.258026 0.000000 0.314270
0.285339 0.000000 0.310638
0.301880 0.000000 0.308289
0.329620 0.000000 0.297821
0.344910 0.000000 0.289124
0.359802 0.000000 0.278473
0.517487 0.000000 0.470490
0.375092 0.000000 0.499847
0.556610 0.000000 0.454681
0.576080 0.000000 0.446533
0.595551 0.000000 0.438080
0.552490 0.000000 0.454437
0.537842 0.000000 0.431122
0.484985 0.000000 0.455200
0.654236 0.000000 0.407715
0.654388 0.000000 0.406219
0.654510 0.000000 0.404663
0.654602 0.000000 0.403015
0.601501 0.000000 0.426239
0.562775 0.000000 0.443359
0.596741 0.000000 0.425781
0.485443 0.000000 0.485443
0.480927 0.000000 0.231354
0.480927 0.000000 0.231354
0.481140 0.000000 0.229248
0.481140 0.000000 0.229248
0.481384 0.000000 0.226990
0.475159 0.000000 0.139252
0.476746 0.000000 0.117340
0.481567 0.000000 0.224609
0.000000 0.712280 0.712280
0.000000 0.708710 0.708710
0.000000 0.705597 0.705597
0.000000 0.700745 0.700745
0.213470 0.695038 0.695038
0.313507 0.688354 0.688354
0.392090 0.680542 0.680542
0.410034 0.678406 0.678406
0.476807 0.669006 0.669006
0.523071 0.661041 0.661041
0.687622 0.792389 0.792389
0.679657 0.722595 0.722595
0.667664 0.657074 0.657074
0.644257 0.633453 0.633453
0.644257 0.633453 0.633453
0.597412 0.586273 0.586273
0.609070 0.598083 0.598083
0.644257 0.633453 0.633453
0.507385 0.507385 0.484741
0.331818 0.105286 0.160583
0.098267 0.122375 0.153625
0.000000 0.000000 0.000000
0.100739 0.092926 0.000000
0.410950 0.000000 0.000000
0.401764 0.064697 0.254395
0.481689 0.000000 0.154968
0.481689 0.000000 0.154968
0.481689 0.000000 0.154968
0.481689 0.000000 0.154968
0.384613 0.384613 0.000000
0.368622 0.368622 0.368622
0.385162 0.385162 0.000000
0.148071 0.127625 0.000641
0.157318 0.146912 0.000000
0.128754 0.128754 0.000000
0.128052 0.118286 0.000000
0.123901 0.134247 0.000885
0.644257 0.633453 0.633453
0.644257 0.633453 0.633453
0.644257 0.633453 0.633453
0.644257 0.633453 0.633453
0.644257 0.633453 0.633453
0.644257 0.633453 0.633453
0.644257 0.633453 0.633453
0.644257 0.633453 0.633453
0.507385 0.507385 0.484741
0.507385 0.507385 0.484741
0.644257 0.633453 0.633453
0.644257 0.633453 0.633453
0.644257 0.633453 0.633453
0.644257 0.633453 0.633453
0.644257 0.633453 0.633453
0.644257 0.633453 0.633453
0.644257 0.633453 0.633453
0.644257 0.633453 0.633453
0.644257 0.633453 0.633453
0.644257 0.633453 0.633453
0.644257 0.633453 0.633453
0.644257 0.633453 0.633453
0.644257 0.633453 0.633453
0.644257 0.633453 0.633453
0.644257 0.633453 0.633453
0.644257 0.633453 0.633453
0.644257 0.633453 0.633453
0.174713 0.174713 0.000000
0.177856 0.188934 0.000000
0.191620 0.191620 0.000000
0.144623 0.155182 0.000000
0.183167 0.222168 0.000000
0.183838 0.207520 0.000000
0.129791 0.269836 0.000000
0.000000 0.520477 0.000000
0.000000 0.537628 0.000000
0.000000 0.563721 0.000000
0.000000 0.584717 0.000000
0.000000 0.664825 0.000000
0.000000 0.702789 0.000000
0.000000 0.755768 0.035645
0.000000 0.508026 0.000000
0.204987 0.415344 0.000000
0.300751 0.419250 0.000000
0.315460 0.429138 0.000000
0.350006 0.442719 0.000000
0.394806 0.357697 0.000000
0.414551 0.359314 0.257416
0.458984 0.377014 0.322540
0.466949 0.362335 0.306519
0.523743 0.364014 0.321350
0.587006 0.377411 0.267761
0.649139 0.419739 0.000000
0.628021 0.385681 0.000000
0.457916 0.215393 0.000000
0.571716 0.342682 0.000000
0.571808 0.283508 0.000000
0.550537 0.323303 0.000000
0.489471 0.274933 0.000000
0.237793 0.226166 0.000000
0.236511 0.202850 0.000000
0.223602 0.235382 0.000000
0.249664 0.274963 0.000000
0.262604 0.286896 0.000000
0.278992 0.303009 0.000000
0.234406 0.359406 0.000000
0.172607 0.686951 0.000000
0.165253 0.732910 0.000000
0.284790 0.753174 0.000000
0.442230 0.729614 0.000000
0.603180 0.763062 0.000000
0.723419 0.762146 0.019806
0.750397 0.750397 0.387238
0.547150 0.449066 0.242340
0.441498 0.262360 0.104919
0.475433 0.273651 0.143250
0.519775 0.359924 0.317169
0.511627 0.350769 0.322449
0.553009 0.370331 0.370331
0.578491 0.421417 0.380798
0.591614 0.447418 0.365204
0.570740 0.413208 0.372314
0.585052 0.416321 0.402924
0.577972 0.409760 0.368500
0.573822 0.451965 0.324860
0.599152 0.435547 0.266510
0.596130 0.443634 0.258179
0.566132 0.327301 0.089172
0.540955 0.304291 0.000000
0.570251 0.290894 0.000000
0.597443 0.306519 0.000000
0.248383 0.227295 0.000000
0.270630 0.270630 0.000000
0.277954 0.256012 0.000000
0.325134 0.293488 0.000000
0.341095 0.309631 0.000000
0.378082 0.305481 0.000000
0.431061 0.350189 0.000000
0.697906 0.685486 0.000000
0.704132 0.704132 0.000000
0.694641 0.694641 0.015594
0.675720 0.675720 0.371979
0.708405 0.708405 0.600006
0.713715 0.713715 0.713715
0.733337 0.733337 0.733337
0.721558 0.721558 0.721558
0.749023 0.749023 0.749023
0.721558 0.721558 0.721558
0.686279 0.686279 0.686279
0.694122 0.694122 0.694122
0.701965 0.701965 0.701965
0.698029 0.698029 0.698029
0.709808 0.709808 0.709808
0.698029 0.698029 0.698029
0.690186 0.690186 0.690186
0.701965 0.701965 0.701965
0.733337 0.733337 0.733337
0.690186 0.690186 0.690186
0.701965 0.701965 0.701965
0.705872 0.705872 0.705872
0.701965 0.701965 0.701965
0.686279 0.686279 0.686279
0.678436 0.678436 0.678436
0.293243 0.688538 0.000000
0.326233 0.749237 0.000000
0.379486 0.783112 0.000000
0.426270 0.484009 0.000000
0.476166 0.442230 0.000000
0.528290 0.416901 0.000000
0.561981 0.475403 0.000000
0.707947 0.707947 0.000000
0.705780 0.705780 0.174316
0.705872 0.705872 0.445709
0.683502 0.683502 0.603699
0.698029 0.698029 0.698029
0.729401 0.729401 0.729401
0.733337 0.733337 0.733337
0.482391 0.400970 0.347412
0.247101 0.125916 0.000000
0.238617 0.136597 0.026489
0.246399 0.127533 0.000000
0.405975 0.267456 0.186890
0.431824 0.327118 0.254059
0.446625 0.329681 0.287079
0.430542 0.335632 0.308197
0.441833 0.335114 0.321442
0.449677 0.343140 0.329651
0.454132 0.348328 0.320923
0.447235 0.342285 0.285583
0.466736 0.350800 0.294159
0.490723 0.365143 0.277557
0.531708 0.364410 0.238190
0.539703 0.373291 0.229279
0.545258 0.326172 0.131134
0.534943 0.307373 0.000000
0.343628 0.323914 0.000000
0.636414 0.264923 0.377075
0.657806 0.257721 0.357147
0.171326 0.403259 0.722534
0.089844 0.512024 0.542206
0.434753 0.333221 0.347321
0.492767 0.000000 0.116119
0.575562 0.000000 0.000000
0.589996 0.000000 0.000000
0.575104 0.000000 0.000000
0.555542 0.000000 0.000000
0.570526 0.000000 0.000000
0.580536 0.000000 0.000000
0.779266 0.000000 0.000000
0.818634 0.000000 0.000000
0.847992 0.000000 0.000000
0.876770 0.000000 0.000000
0.555786 0.000000 0.000000
0.393555 0.308502 0.308502
0.393341 0.000000 0.532013
0.983856 0.000000 0.000000
0.977783 0.000000 0.000000
0.959747 0.000000 0.000000
0.937347 0.000000 0.000000
0.927979 0.000000 0.000000
0.918091 0.000000 0.000000
0.913147 0.000000 0.000000
0.932983 0.000000 0.000000
0.931366 0.000000 0.000000
0.891296 0.000000 0.000000
0.860413 0.000000 0.000000
0.641937 0.101166 0.135498
0.678741 0.000000 0.147491
0.191620 0.024628 0.369995
0.077240 0.036804 0.450562
0.167053 0.000000 0.153748
0.182953 0.000000 0.135559
0.327087 0.000000 0.347626
0.445129 0.000000 0.430817
0.464783 0.000000 0.436127
0.489227 0.000000 0.423676
0.498413 0.000000 0.373993
0.532410 0.000000 0.330444
0.542145 0.000000 0.303467
0.682861 0.000000 0.113892
0.233307 0.055328 0.402771
0.274292 0.000000 0.389740
0.444885 0.000000 0.384857
0.465118 0.000000 0.427246
0.477478 0.000000 0.492828
0.509888 0.000000 0.486511
0.548218 0.000000 0.462646
0.557495 0.000000 0.446869
0.571686 0.000000 0.458649
0.571350 0.000000 0.425507
0.566315 0.000000 0.403503
0.585052 0.000000 0.376251
0.566193 0.000000 0.262726
0.332520 0.160248 0.350739
0.000000 0.374390 0.530426
0.276855 0.434174 0.276855
0.385529 0.363190 0.172791
0.348816 0.289124 0.216675
0.258820 0.232117 0.432983
0.114868 0.005829 0.049469
0.316406 0.000000 0.096466
0.132477 0.017487 0.188080
0.066589 0.025024 0.108063
0.041443 0.032776 0.071747
0.077148 0.016296 0.016296
0.094086 0.010193 0.035004
0.105225 0.005402 0.071014
0.116089 0.000580 0.082428
0.121368 0.000000 0.080963
0.120453 0.002655 0.093506
0.156830 0.000000 0.136932
0.161774 0.000000 0.155029
0.195923 0.000000 0.216400
0.154236 0.001221 0.167786
0.063202 0.040955 0.211395
0.085449 0.022400 0.039825
0.358856 0.000000 0.401184
0.358459 0.000000 0.372650
0.396088 0.000000 0.423798
0.368256 0.000000 0.382111
0.348450 0.000000 0.362610
0.355377 0.000000 0.348328
0.292877 0.000000 0.278992
0.271790 0.000000 0.258057
0.109619 0.007385 0.103058
0.460785 0.000000 0.153778
0.318451 0.000000 0.215454
0.081665 0.028656 0.222595
0.104065 0.010101 0.083496
0.221710 0.000000 0.242676
0.215179 0.000000 0.256165
0.000000 0.441956 0.000000
0.000000 0.476318 0.000000
0.000000 0.510529 0.000000
0.694550 0.000000 0.599060
0.650177 0.000000 0.519531
0.621765 0.000000 0.573578
0.531281 0.000000 0.335083
0.557037 0.000000 0.565094
0.509644 0.000000 0.509644
0.700806 0.000000 0.291382
0.831085 0.000000 0.140839
0.961975 0.000000 0.000000
0.981476 0.000000 0.000000
0.986389 0.000000 0.000000
0.405151 0.000000 0.010162
0.336945 0.000000 0.105133
0.439667 0.000000 0.068268
0.514618 0.000000 0.498444
0.475769 0.000000 0.475769
0.943726 0.000000 0.088776
0.938873 0.000000 0.151001
0.953888 0.000000 0.183838
0.779907 0.000000 0.278839
0.484833 0.000000 0.447906
0.544678 0.000000 0.279694
0.904266 0.000000 0.129272
0.905029 0.000000 0.290039
0.885071 0.000000 0.253601
0.889679 0.000000 0.230255
0.879761 0.000000 0.139191
0.869720 0.000000 0.000000
0.854950 0.000000 0.000000
0.149231 0.159027 0.000000
0.124664 0.134125 0.000000
0.131653 0.161621 0.000000
0.143005 0.174530 0.000000
0.143005 0.174530 0.000000
0.184204 0.216278 0.000000
0.164856 0.279755 0.000000
0.000000 0.516876 0.000000
0.000000 0.543518 0.000000
0.000000 0.560181 0.000000
0.000000 0.573608 0.000000
0.000000 0.645966 0.000000
0.000000 0.713409 0.000000
0.000000 0.767090 0.000000
0.000000 0.516510 0.000000
0.205414 0.426544 0.000000
0.291962 0.476746 0.000000
0.258606 0.382721 0.000000
0.198761 0.209625 0.000000
0.312103 0.502991 0.000000
0.429565 0.760406 0.000000
0.504608 0.723602 0.000000
0.583221 0.718231 0.000000
0.680939 0.720734 0.000000
0.706390 0.706390 0.000000
0.727203 0.727203 0.366669
0.711823 0.711823 0.515472
0.703705 0.703705 0.611023
0.698029 0.698029 0.698029
0.682343 0.682343 0.682343
0.698029 0.698029 0.698029
0.623535 0.623535 0.623535
0.128662 0.138397 0.000000
0.137024 0.137024 0.000000
0.140289 0.130859 0.000000
0.141022 0.150757 0.000000
0.124268 0.143768 0.000000
0.132538 0.151917 0.000000
0.129700 0.185791 0.000000
0.000000 0.401367 0.000000
0.000000 0.410461 0.000000
0.000000 0.431030 0.000000
0.000000 0.432190 0.000000
0.000000 0.487579 0.000000
0.000000 0.539490 0.000000
0.000000 0.570251 0.000000
0.000000 0.397186 0.000000
0.189697 0.304596 0.000000
0.188782 0.344604 0.000000
0.153290 0.338013 0.000000
0.122192 0.435791 0.000000
0.109009 0.302185 0.000000
0.210327 0.409241 0.000000
0.184357 0.428192 0.000000
0.228912 0.415741 0.000000
0.283020 0.463806 0.000000
0.356842 0.509888 0.000000
0.408875 0.491058 0.000000
0.461029 0.461029 0.000000
0.495758 0.414429 0.000000
0.517395 0.481720 0.000000
0.371063 0.289612 0.000000
0.439056 0.283417 0.000000
0.546539 0.305237 0.000000
0.122528 0.104279 0.000000
0.126770 0.108246 0.000000
0.120483 0.120483 0.000000
0.132904 0.132904 0.000000
0.116394 0.116394 0.000000
0.100037 0.109497 0.000000
0.105682 0.136932 0.000000
0.000000 0.309021 0.000000
0.000000 0.308044 0.000000
0.000000 0.326874 0.000000
0.000000 0.347595 0.000000
0.000000 0.375061 0.000000
0.000000 0.399933 0.000000
0.000000 0.423737 0.000000
0.047455 0.296722 0.000000
0.154846 0.220917 0.000000
0.164276 0.243469 0.000000
0.183289 0.245789 0.000000
0.181580 0.278992 0.000000
0.181641 0.292603 0.000000
0.157806 0.248688 0.000000
0.167664 0.325073 0.000000
0.199432 0.330780 0.000000
0.199890 0.361938 0.000000
0.256409 0.364624 0.000000
0.240234 0.348267 0.000000
0.203522 0.405487 0.000000
0.244171 0.371002 0.000000
0.265656 0.399475 0.000000
0.340363 0.452942 0.000000
0.345276 0.470428 0.000000
0.392822 0.505219 0.000000
0.099792 0.187988 0.052155
0.097534 0.183594 0.051758
0.085022 0.198242 0.057465
0.087311 0.207092 0.057281
0.093567 0.211578 0.025208
0.100098 0.215942 0.000000
0.077789 0.222015 0.000000
0.086761 0.235321 0.000000
0.066376 0.241241 0.000000
0.064850 0.250305 0.000000
0.013763 0.261017 0.000000
0.010620 0.288391 0.000000
0.000000 0.303162 0.000000
0.010895 0.314880 0.000000
0.120544 0.200867 0.000000
0.131226 0.166443 0.000000
0.145569 0.198029 0.000000
0.148865 0.202301 0.000000
0.144409 0.179260 0.000000
0.152405 0.187836 0.000000
0.183685 0.236511 0.000000
0.179138 0.232330 0.000000
0.173950 0.242493 0.000000
0.207886 0.247711 0.000000
0.237823 0.237823 0.000000
0.224915 0.213715 0.000000
0.235962 0.214874 0.000000
0.249084 0.238434 0.000000
0.215240 0.250946 0.000000
0.278778 0.303253 0.000000
0.289307 0.301758 0.000000
0.283173 0.283173 0.000000
0.081360 0.064331 0.013672
0.091980 0.066742 0.014801
0.093658 0.076202 0.009674
0.082764 0.073853 0.020233
0.085510 0.068329 0.005981
0.087921 0.062866 0.000000
0.090912 0.081970 0.003876
0.099945 0.196655 0.075928
0.099945 0.196655 0.075928
0.085968 0.202698 0.057678
0.087311 0.207092 0.057281
0.078400 0.230988 0.000000
0.116882 0.218811 0.012177
0.097168 0.229370 0.012726
0.104706 0.233734 0.000000
0.087372 0.248840 0.000000
0.045746 0.264069 0.000000
0.061554 0.268341 0.000000
0.092834 0.289673 0.000000
0.108246 0.141022 0.026917
0.158752 0.182037 0.000000
0.156372 0.136292 0.000000
0.141235 0.141235 0.000000
0.152039 0.132324 0.000000
0.170441 0.170441 0.000000
0.170349 0.170349 0.000000
0.154999 0.125946 0.000000
0.119629 0.110291 0.000000
0.217041 0.217041 0.000000
0.206909 0.247864 0.000000
0.219910 0.245972 0.000000
0.259430 0.246796 0.000000
0.083771 0.058868 0.019623
0.079590 0.054962 0.017151
0.081360 0.064331 0.013672
0.083771 0.058868 0.019623
0.077118 0.060364 0.031128
0.081360 0.064331 0.013672
0.078552 0.069794 0.027863
0.112305 0.167236 0.095306
0.122162 0.161530 0.090027
0.111145 0.163300 0.076935
0.097900 0.168762 0.097900
0.104767 0.181610 0.104767
0.108795 0.190277 0.108795
0.103210 0.205383 0.077026
0.101868 0.122864 0.048370
0.114380 0.095825 0.020538
0.119507 0.109467 0.046997
0.123688 0.113770 0.033844
0.086670 0.077850 0.022797
0.114594 0.227600 0.043091
0.121307 0.232025 0.000061
0.122803 0.236481 0.000000
0.106812 0.247192 0.000000
0.108093 0.256073 0.000000
0.106445 0.242676 0.000000
0.087433 0.266724 0.000000
0.103668 0.288391 0.000000
0.105621 0.292694 0.000000
0.119171 0.296661 0.000000
0.085480 0.302826 0.000000
0.107117 0.310791 0.000000
0.131439 0.184998 0.015045
0.079559 0.054962 0.026093
0.077118 0.060364 0.031128
0.069000 0.052521 0.024811
0.069000 0.052521 0.024811
0.079559 0.054962 0.026093
0.069061 0.052521 0.015686
0.065002 0.048645 0.021606
0.114502 0.138489 0.101349
0.104553 0.140320 0.090515
0.111084 0.134430 0.097870
0.106476 0.144135 0.106476
0.120697 0.161163 0.105011
0.127075 0.169495 0.110352
0.123962 0.165253 0.107727
0.111267 0.101593 0.040680
0.101837 0.084015 0.026398
0.111267 0.101593 0.040680
0.103119 0.093811 0.021240
