res/luts/lut3.CUBE.CUBE
#Created by: Adobe Photoshop Export Color Lookup Plugin
TITLE "LUT3"
#LUT size
LUT_3D_SIZE 8
#data domain
#LUT data points
DOMAIN_MIN 0.000000 0.000000 0.000000
DOMAIN_MAX 0.903226 0.903226 0.903226
0.063293 0.039307 0.022125
0.046509 0.038086 0.021606
0.073914 0.083527 0.092865
0.081390 0.091431 0.100891
0.071198 0.046844 0.046844
0.080566 0.090729 0.109528
0.058838 0.058838 0.058838
0.070129 0.061646 0.052887
0.056854 0.040863 0.023743
0.064880 0.048645 0.030640
0.079071 0.100220 0.119171
0.091705 0.114716 0.144897
0.070618 0.070618 0.070618
0.085052 0.067352 0.076355
0.085022 0.068115 0.058990
0.072418 0.140808 0.191711
0.070374 0.061646 0.042816
0.070923 0.070923 0.061493
0.064178 0.168793 0.190674
0.034790 0.198944 0.247955
0.085114 0.095337 0.105011
0.097473 0.135834 0.168213
0.108459 0.132721 0.143829
0.100677 0.141724 0.186340
0.148071 0.127625 0.000641
0.123901 0.134247 0.000885
0.644257 0.633453 0.633453
0.644257 0.633453 0.633453
0.644257 0.633453 0.633453
0.644257 0.633453 0.633453
0.644257 0.633453 0.633453
0.644257 0.633453 0.633453
0.293243 0.688538 0.000000
0.476166 0.442230 0.000000
0.705780 0.705780 0.174316
0.729401 0.729401 0.729401
0.238617 0.136597 0.026489
0.446625 0.329681 0.287079
0.454132 0.348328 0.320923
0.531708 0.364410 0.238190
0.000000 0.441956 0.000000
0.650177 0.000000 0.519531
0.509644 0.000000 0.509644
0.981476 0.000000 0.000000
0.439667 0.000000 0.068268
0.938873 0.000000 0.151001
0.544678 0.000000 0.279694
0.889679 0.000000 0.230255
0.099792 0.187988 0.052155
0.093567 0.211578 0.025208
0.066376 0.241241 0.000000
0.000000 0.303162 0.000000
0.145569 0.198029 0.000000
0.183685 0.236511 0.000000
0.237823 0.237823 0.000000
0.215240 0.250946 0.000000
0.094116 0.094116 0.094116
0.061035 0.044586 0.018677
0.105377 0.116394 0.093933
0.118103 0.142609 0.104370
0.104156 0.078522 0.048096
0.106018 0.087921 0.029297
0.122711 0.103668 0.025055
0.108582 0.082458 0.012543
0.052795 0.036804 0.020599
0.052765 0.036713 0.028381
0.081818 0.081818 0.091431
0.081390 0.091431 0.100891
0.065979 0.057159 0.065979
0.071930 0.092438 0.110779
0.065796 0.057556 0.057556
0.079437 0.054718 0.045502
0.071350 0.047119 0.028839
0.064819 0.048553 0.039490
0.074585 0.106598 0.116089
0.093079 0.115845 0.136230
0.065796 0.057556 0.057556
0.075409 0.050812 0.041656
0.066681 0.066681 0.066681
0.090698 0.131012 0.194000
0.073029 0.056427 0.037933
0.063171 0.063171 0.044342
0.074951 0.165344 0.198853
0.008057 0.205109 0.253387
0.088287 0.122589 0.132935
0.113739 0.113739 0.113739
0.121735 0.148529 0.160767
0.119446 0.146698 0.170929
0.135345 0.115845 0.000000
0.122345 0.157837 0.032959
0.353546 0.567627 0.669678
0.644257 0.633453 0.633453
0.644257 0.633453 0.633453
0.597412 0.586273 0.586273
0.644257 0.633453 0.633453
0.644257 0.633453 0.633453
0.364807 0.305420 0.000000
0.443237 0.285370 0.000000
0.713409 0.713409 0.200989
0.741180 0.741180 0.741180
0.588623 0.399200 0.342194
0.592712 0.404144 0.332062
0.540222 0.382904 0.294861
0.537415 0.350922 0.149017
0.000000 0.449860 0.000000
0.000000 0.562805 0.000000
0.705261 0.000000 0.170837
0.987976 0.000000 0.231079
0.992828 0.000000 0.257996
0.959320 0.000000 0.475891
0.949036 0.000000 0.150757
0.934509 0.000000 0.229034
0.107849 0.177734 0.067841
0.085968 0.202698 0.057678
0.109283 0.229218 0.000000
0.000000 0.298340 0.000000
0.158234 0.182037 0.000000
0.154968 0.177795 0.000000
0.183807 0.250732 0.000000
0.233124 0.210266 0.000000
0.093445 0.103912 0.093445
0.078125 0.088104 0.078125
0.101746 0.112305 0.090393
0.113495 0.138031 0.113495
0.091949 0.066803 0.025421
0.086517 0.077515 0.046112
0.110931 0.076904 0.020782
0.127808 0.092499 0.004120
0.049103 0.032837 0.016846
0.052765 0.036713 0.028381
0.081818 0.081818 0.091431
0.068512 0.099121 0.099121
0.081390 0.091431 0.100891
0.075592 0.096283 0.114960
0.057953 0.049805 0.049805
0.072906 0.056305 0.047363
0.063263 0.039215 0.030273
0.056793 0.040771 0.031891
0.078003 0.110626 0.120148
0.091705 0.114716 0.144897
0.070221 0.070221 0.079254
0.070618 0.070618 0.070618
0.090210 0.129089 0.180908
0.076416 0.148254 0.201294
0.089325 0.072235 0.041809
0.075287 0.075287 0.044861
0.072662 0.167419 0.212585
0.001221 0.202667 0.262238
0.104706 0.115906 0.115906
0.097229 0.107910 0.107910
0.107697 0.146729 0.158295
0.498322 0.000000 0.031158
0.136322 0.126343 0.000000
0.154358 0.192139 0.000000
0.000000 0.444763 0.247009
0.000000 0.561310 0.334869
0.644257 0.633453 0.633453
0.644257 0.633453 0.633453
0.574005 0.562683 0.562683
0.644257 0.633453 0.633453
0.276001 0.216248 0.000000
0.376068 0.203644 0.000000
0.701965 0.701965 0.159576
0.749023 0.749023 0.749023
0.503448 0.287659 0.000000
0.537506 0.347076 0.253052
0.552094 0.320404 0.174622
0.572723 0.340424 0.000000
0.178406 0.178406 0.000000
0.000000 0.536682 0.000000
0.000000 0.676025 0.000000
0.957703 0.000000 0.003082
0.976837 0.000000 0.155670
0.746124 0.000000 0.321808
0.997498 0.000000 0.125732
0.973419 0.000000 0.000000
0.100342 0.168976 0.082062
0.094421 0.183533 0.072662
0.095612 0.220520 0.019714
0.047577 0.282715 0.000000
0.153625 0.153625 0.000000
0.153870 0.225616 0.000000
0.183685 0.236511 0.000000
0.253754 0.231201 0.000000
0.098541 0.098541 0.088104
0.092133 0.113708 0.092133
0.101746 0.112305 0.090393
0.111084 0.134430 0.097870
0.091949 0.066803 0.025421
0.097504 0.079987 0.049530
0.123383 0.088745 0.030212
0.102539 0.069092 0.026215
0.059357 0.035278 0.019073
0.052765 0.036713 0.028381
0.081207 0.081207 0.099915
0.076508 0.096954 0.106476
0.081390 0.091431 0.100891
0.079681 0.089966 0.117828
0.061920 0.053619 0.053619
0.072906 0.056305 0.047363
0.052795 0.036804 0.020599
0.060883 0.044495 0.035919
0.076752 0.109772 0.128845
0.089844 0.125641 0.146057
0.077576 0.068329 0.086517
0.069946 0.061432 0.061432
0.075012 0.142242 0.183441
0.090210 0.129089 0.180908
0.081207 0.064331 0.034515
0.083252 0.083252 0.052338
0.045013 0.176971 0.209869
0.032623 0.202942 0.252930
0.103668 0.126343 0.091064
0.389923 0.000000 0.228424
0.635162 0.000000 0.358978
0.464172 0.128601 0.208099
0.165741 0.154907 0.000000
0.128784 0.152008 0.048401
0.000000 0.462128 0.246918
0.000000 0.573517 0.326477
0.208893 0.387360 0.000000
0.644257 0.633453 0.633453
0.644257 0.633453 0.633453
0.644257 0.633453 0.633453
0.335938 0.277344 0.000000
0.397766 0.246094 0.000000
0.702301 0.702301 0.088226
0.745087 0.745087 0.745087
0.545593 0.260986 0.000000
0.486664 0.325134 0.000000
0.552704 0.299500 0.141052
0.514191 0.304138 0.000000
0.177521 0.167816 0.000000
0.141754 0.207397 0.000000
0.000000 0.631073 0.000000
0.000000 0.746002 0.000000
0.418457 0.676361 0.000000
0.642975 0.000000 0.124634
0.991608 0.000000 0.000000
0.925262 0.000000 0.000000
0.083801 0.058838 0.010284
0.089600 0.198242 0.030029
0.096710 0.224854 0.016754
0.026764 0.274231 0.000000
0.156647 0.167816 0.000000
0.153534 0.206665 0.000000
0.195801 0.195801 0.000000
0.229187 0.268585 0.000000
0.098541 0.098541 0.088104
0.092133 0.113708 0.092133
0.101746 0.112305 0.090393
0.106445 0.129913 0.106445
0.093170 0.076172 0.057068
0.086517 0.077515 0.046112
0.116913 0.090240 0.031586
0.133911 0.105804 0.027771
0.063293 0.039307 0.022125
0.052765 0.036713 0.028381
0.073914 0.083527 0.092865
0.076508 0.096954 0.106476
0.081390 0.091431 0.100891
0.088043 0.088043 0.116638
0.062103 0.053284 0.062103
0.071289 0.046997 0.037720
0.060974 0.044617 0.027161
0.060883 0.044495 0.035919
0.082611 0.104126 0.123291
0.079651 0.127350 0.147247
0.077728 0.069336 0.069336
0.082703 0.082703 0.073090
0.075012 0.142242 0.183441
0.076416 0.148254 0.201294
0.073029 0.056427 0.037933
0.090698 0.081390 0.049835
0.058014 0.173340 0.218018
0.000000 0.206482 0.267334
0.483856 0.000000 0.375061
0.484863 0.000000 0.484863
0.479523 0.000000 0.479523
0.470978 0.046082 0.470978
0.156372 0.136292 0.000000
0.123627 0.134155 0.017853
0.000000 0.474518 0.207153
0.000000 0.603394 0.303101
0.168152 0.232697 0.000000
0.084656 0.407135 0.000000
0.336914 0.459229 0.000000
0.644257 0.633453 0.633453
0.377258 0.328308 0.000000
0.471130 0.306641 0.000000
0.702301 0.702301 0.088226
0.737244 0.737244 0.737244
0.533508 0.453735 0.388428
0.607727 0.464935 0.353973
0.944794 0.000000 0.000000
0.998138 0.000000 0.000000
0.169891 0.169891 0.000000
0.203674 0.246185 0.000000
0.000000 0.617767 0.000000
0.000000 0.781921 0.000000
0.381592 0.751221 0.000000
0.707947 0.707947 0.000000
0.692139 0.692139 0.597046
0.561157 0.142303 0.166748
0.093658 0.076263 0.000000
0.085968 0.202698 0.057678
0.101227 0.220459 0.000000
0.029724 0.269714 0.000000
0.156372 0.136292 0.000000
0.152039 0.132324 0.000000
0.190887 0.249817 0.000000
0.214539 0.227295 0.000000
0.059357 0.035278 0.019073
0.097229 0.107910 0.097229
0.097229 0.107910 0.097229
0.099854 0.135895 0.099854
0.093170 0.076172 0.057068
0.105896 0.087860 0.043671
0.101532 0.083984 0.053131
0.112762 0.086334 0.028381
0.056854 0.040863 0.023743
0.052765 0.036713 0.028381
0.073914 0.083527 0.092865
0.067535 0.098541 0.107758
0.081390 0.091431 0.100891
0.054901 0.054901 0.054901
0.069946 0.061432 0.061432
0.075470 0.050964 0.031982
0.069000 0.052521 0.024811
0.056793 0.040771 0.031891
0.082611 0.104126 0.123291
0.086761 0.121582 0.141724
0.072937 0.055756 0.064453
0.064758 0.084534 0.102386
0.081818 0.134949 0.186432
0.061401 0.152435 0.214935
0.085449 0.068237 0.026672
0.074036 0.065674 0.056610
0.050507 0.182861 0.205536
0.370941 0.000000 0.501190
0.499908 0.000000 0.476227
0.468048 0.084778 0.000000
0.454620 0.183441 0.000000
0.482574 0.000000 0.203918
0.144684 0.134735 0.000000
0.187408 0.187408 0.000000
0.000000 0.495941 0.177307
0.000000 0.628265 0.261780
0.141144 0.414276 0.000000
0.193665 0.472076 0.000000
0.312592 0.312592 0.000000
0.516815 0.360657 0.215393
0.363770 0.344025 0.000000
0.529480 0.373871 0.000000
0.714264 0.714264 0.000000
0.749023 0.749023 0.749023
0.867859 0.000000 0.000000
0.788879 0.000000 0.000000
0.440582 0.287750 0.273315
0.923950 0.000000 0.000000
0.189362 0.211090 0.000000
0.161224 0.180695 0.000000
0.000000 0.601715 0.000000
0.000000 0.766174 0.000000
0.282257 0.760986 0.000000
0.664001 0.728821 0.000000
0.715027 0.715027 0.538727
0.698029 0.698029 0.698029
0.096161 0.070709 0.006500
0.113068 0.186340 0.070068
0.083466 0.193878 0.057098
0.063416 0.259338 0.000000
0.170044 0.158569 0.000000
0.159149 0.130066 0.000000
0.181061 0.222290 0.000000
0.202881 0.214264 0.000000
0.071381 0.047211 0.020172
0.084686 0.105713 0.084686
0.092133 0.113708 0.092133
0.102814 0.125946 0.102814
0.093414 0.076111 0.045654
0.095978 0.070770 0.040222
0.104279 0.078522 0.035492
0.123383 0.088745 0.030212
0.059326 0.035187 0.026855
0.052765 0.036713 0.028381
0.073914 0.083527 0.092865
0.076508 0.096954 0.106476
0.071930 0.092438 0.110779
0.065796 0.057556 0.057556
0.076721 0.060028 0.060028
0.068665 0.052246 0.052246
0.068909 0.052551 0.034027
0.058289 0.049957 0.031738
0.084900 0.107086 0.136139
0.086761 0.121582 0.141724
0.078003 0.069611 0.060730
0.084198 0.136444 0.177979
0.070160 0.134552 0.174072
0.073425 0.146545 0.209656
0.086609 0.077698 0.033966
0.075287 0.075287 0.044861
0.265228 0.000000 0.504913
0.392151 0.000000 0.499268
0.538055 0.000000 0.450409
0.472504 0.024384 0.280975
0.482513 0.000000 0.178223
0.482635 0.000000 0.200195
0.157074 0.167816 0.000000
0.178772 0.217865 0.000000
0.000000 0.517273 0.138458
0.000000 0.665710 0.238892
0.198273 0.436798 0.000000
0.270050 0.419250 0.000000
0.518799 0.394928 0.277313
0.583679 0.357605 0.069855
0.319641 0.299866 0.000000
0.439423 0.303070 0.000000
0.702850 0.702850 0.000000
0.887634 0.000000 0.000000
0.960388 0.000000 0.000000
0.871765 0.000000 0.000000
0.838440 0.000000 0.000000
0.420044 0.420044 0.445374
0.170044 0.170044 0.000000
0.134155 0.175476 0.000000
0.000000 0.581451 0.000000
0.000000 0.765778 0.000000
0.140533 0.749268 0.000000
0.578247 0.723602 0.000000
0.694885 0.694885 0.405182
0.670593 0.670593 0.670593
0.097809 0.080078 0.011871
0.081360 0.064331 0.013672
0.093567 0.211578 0.025208
0.087372 0.248840 0.000000
0.115326 0.149414 0.030029
0.145264 0.145264 0.000000
0.193878 0.205994 0.000000
0.185944 0.226532 0.000000
0.065033 0.048645 0.013092
0.097870 0.108337 0.086670
0.097870 0.108337 0.086670
0.113068 0.124420 0.100983
0.076996 0.060394 0.041809
0.091858 0.066803 0.036560
0.091858 0.066803 0.036560
0.112610 0.086426 0.042877
0.056854 0.040863 0.023743
0.046509 0.038086 0.021606
0.073914 0.083527 0.092865
0.085114 0.095337 0.105011
0.079681 0.089966 0.117828
0.065979 0.057770 0.049072
0.062103 0.053833 0.045135
0.078003 0.069611 0.060730
0.058289 0.049957 0.031738
0.060883 0.044495 0.035919
0.086151 0.108063 0.127655
0.077820 0.126251 0.155762
0.076721 0.060028 0.060028
0.095337 0.134308 0.177063
0.061676 0.146454 0.197083
0.081451 0.103271 0.131836
0.086517 0.077515 0.046112
0.233124 0.000000 0.393860
0.389252 0.000000 0.476807
0.606262 0.000000 0.425354
0.482269 0.000000 0.213776
0.481781 0.000000 0.222107
0.652557 0.000000 0.353699
0.650024 0.000000 0.334808
0.173492 0.184753 0.000000
0.198242 0.210266 0.000000
0.000000 0.530396 0.000000
0.000000 0.689301 0.158386
0.241211 0.464539 0.000000
0.418091 0.397400 0.144897
0.545258 0.410248 0.325684
0.545654 0.323578 0.202942
0.353394 0.353394 0.000000
0.464752 0.316772 0.000000
0.454285 0.353424 0.367279
0.692871 0.000000 0.000000
0.402710 0.000000 0.393127
0.605072 0.000000 0.000000
0.619720 0.000000 0.000000
0.724030 0.000000 0.000000
0.149231 0.159027 0.000000
0.180084 0.235809 0.000000
0.000000 0.564789 0.000000
0.000000 0.749573 0.000000
0.233063 0.416382 0.000000
0.506378 0.749115 0.000000
0.708191 0.708191 0.327972
0.588226 0.588226 0.588226
0.096161 0.070709 0.006500
0.092010 0.066772 0.004578
0.085358 0.166229 0.066040
0.118591 0.223145 0.008728
0.063293 0.263794 0.000000
0.152161 0.132111 0.000000
0.174713 0.174713 0.000000
0.200897 0.258179 0.000000
0.071350 0.047119 0.028839
0.093445 0.103912 0.093445
0.092133 0.113708 0.092133
0.118317 0.118317 0.106873
0.086304 0.077423 0.057678
0.093170 0.076172 0.057068
0.097504 0.079987 0.049530
0.108551 0.082458 0.025360
