res/luts/lut3.CUBE
#Created by: Adobe Photoshop Export Color Lookup Plugin
TITLE "lut3"
#LUT size
LUT_3D_SIZE 32
#data domain
DOMAIN_MIN 0.0 0.0 0.0
DOMAIN_MAX 1.0 1.0 1.0
#LUT data points
0.159393 0.007935 0.001099
0.164551 0.008301 0.001190
0.155914 0.007263 0.000946
0.163757 0.007965 0.001099
0.176758 0.009216 0.001404
0.157013 0.007294 0.001007
0.144897 0.005859 0.000824
0.192413 0.011017 0.002441
0.273499 0.025085 0.009216
0.267212 0.023895 0.008636
0.259430 0.022675 0.008179
0.271729 0.024292 0.008514
0.283386 0.025024 0.007660
0.300201 0.028381 0.009064
0.279053 0.024292 0.007385
0.182678 0.011017 0.002594
0.151794 0.008026 0.001709
0.183838 0.011139 0.002655
0.241669 0.018219 0.005005
0.274628 0.023712 0.007416
0.279633 0.025604 0.009399
0.281891 0.026001 0.009583
0.285614 0.026703 0.009949
0.302582 0.029999 0.011169
0.283325 0.025757 0.008392
0.205933 0.013611 0.003723
0.214172 0.012695 0.003479
0.201996 0.011322 0.002869
0.190826 0.010345 0.001984
0.221466 0.013245 0.002838
0.239197 0.013519 0.002838
0.243591 0.013824 0.002930
0.170166 0.008545 0.001038
0.169189 0.008453 0.001068
0.162476 0.007843 0.001099
0.157318 0.007385 0.000977
0.157532 0.007416 0.000977
0.157532 0.007324 0.001038
0.149902 0.006165 0.000977
0.185730 0.010223 0.002289
0.272095 0.024841 0.009094
0.266602 0.023773 0.008606
0.266815 0.023804 0.008606
0.272461 0.024811 0.009033
0.279724 0.026184 0.009644
0.281250 0.026184 0.009644
0.284332 0.025909 0.009583
0.284393 0.025909 0.009338
0.289398 0.026947 0.009033
0.280884 0.025146 0.008301
0.247803 0.019287 0.005920
0.180786 0.010498 0.002747
0.215240 0.013062 0.003510
0.207916 0.011993 0.003204
0.218964 0.012421 0.003479
0.242279 0.015411 0.004578
0.213196 0.011780 0.003265
0.210785 0.011505 0.003174
0.229340 0.013641 0.003998
0.241852 0.015594 0.004333
0.231140 0.015350 0.003113
0.219208 0.013824 0.002625
0.216980 0.013550 0.002594
0.218689 0.013763 0.002625
0.184296 0.009888 0.001556
0.157410 0.007538 0.001068
0.178864 0.010040 0.001953
0.164062 0.008606 0.001556
0.153625 0.007599 0.001282
0.164673 0.008759 0.001678
0.261597 0.021271 0.006195
0.290009 0.026764 0.008759
0.270966 0.024597 0.008972
0.273438 0.024963 0.009125
0.273071 0.024902 0.009064
0.284546 0.027008 0.010010
0.292328 0.028625 0.010742
0.312347 0.032501 0.012543
0.300018 0.028320 0.010681
0.225464 0.016022 0.005127
0.217163 0.015137 0.003906
0.217804 0.014496 0.003845
0.217621 0.012238 0.003448
0.218964 0.012421 0.003510
0.223053 0.012939 0.003662
0.223846 0.013031 0.003723
0.231476 0.013977 0.004059
0.239624 0.015045 0.004456
0.232971 0.014160 0.004120
0.221802 0.012787 0.003632
0.218872 0.012390 0.003510
0.228973 0.013794 0.003845
0.227295 0.014099 0.003418
0.217163 0.012878 0.002991
0.219116 0.013062 0.003113
0.232819 0.014954 0.003540
0.254852 0.022675 0.007233
0.275330 0.025696 0.008545
0.281830 0.025757 0.008881
0.287292 0.026550 0.008972
0.305664 0.029602 0.009552
0.238342 0.017517 0.004852
0.126678 0.004974 0.001007
0.187714 0.010986 0.002899
0.300201 0.030273 0.011536
0.290283 0.028137 0.010529
0.286377 0.027374 0.010162
0.297760 0.029663 0.011230
0.304443 0.031189 0.011993
0.324005 0.035370 0.013702
0.310913 0.030670 0.010773
0.230713 0.016754 0.004883
0.217346 0.015167 0.003937
0.201538 0.012573 0.003174
0.213623 0.011780 0.003296
0.218323 0.012360 0.003479
0.222260 0.012817 0.003632
0.222687 0.012878 0.003662
0.231232 0.013855 0.004028
0.241943 0.015656 0.004608
0.241608 0.017059 0.004883
0.234161 0.015778 0.004333
0.240692 0.015778 0.004028
0.253967 0.017700 0.004700
0.270599 0.020355 0.005707
0.270905 0.019989 0.005463
0.261444 0.016907 0.004028
0.248932 0.015778 0.003540
0.187042 0.010773 0.001770
0.194061 0.010712 0.001831
0.192871 0.008179 0.001373
0.171539 0.006927 0.001007
0.179443 0.009460 0.001465
0.195190 0.011261 0.001923
0.180115 0.010101 0.001556
0.211151 0.014801 0.003265
0.298218 0.033722 0.012573
0.288116 0.030457 0.011169
0.305054 0.031128 0.011902
0.312531 0.032898 0.012756
0.329163 0.037170 0.014801
0.330048 0.037262 0.014832
0.321930 0.034637 0.013641
0.234070 0.018005 0.005981
0.237518 0.017670 0.005249
0.232635 0.016998 0.004913
0.216461 0.014954 0.003876
0.235626 0.017212 0.004730
0.257538 0.019684 0.005798
0.239288 0.016510 0.004700
0.229919 0.013763 0.003967
0.231232 0.013916 0.004028
0.220673 0.012482 0.003479
0.241089 0.015747 0.004791
0.251434 0.019684 0.006775
0.330261 0.035889 0.014526
0.351593 0.043884 0.020294
0.353821 0.045929 0.021790
0.345825 0.047638 0.024017
0.350800 0.050018 0.025574
0.200714 0.011780 0.001526
0.193512 0.010895 0.001465
0.192413 0.010712 0.001801
0.186859 0.010376 0.001709
0.175018 0.009918 0.001587
0.184021 0.010834 0.001831
0.166534 0.008881 0.001282
0.203094 0.013763 0.002808
0.317810 0.037109 0.012939
0.305115 0.034698 0.012146
0.301727 0.036163 0.013885
0.302368 0.036255 0.014099
0.325531 0.042358 0.017883
0.332489 0.043152 0.018463
0.329865 0.038910 0.016968
0.219910 0.017761 0.006622
0.209442 0.015503 0.004974
0.267822 0.024078 0.008575
0.297546 0.029633 0.011383
0.347534 0.043152 0.018402
0.357788 0.047821 0.022186
0.343933 0.044312 0.020630
0.339050 0.047882 0.024078
0.332153 0.045074 0.022339
0.354675 0.050659 0.025024
0.365662 0.054901 0.027435
0.363647 0.053894 0.026611
0.356995 0.050110 0.024353
0.295807 0.029358 0.013092
0.261688 0.022491 0.009308
0.275482 0.022797 0.008087
0.254059 0.019135 0.006073
0.217438 0.013611 0.002594
0.203552 0.011993 0.002136
0.209167 0.012634 0.002319
0.219116 0.013824 0.002655
0.216644 0.013519 0.002563
0.205017 0.012146 0.002167
0.178589 0.009216 0.001312
0.219391 0.014465 0.003448
0.336945 0.039124 0.018036
0.326935 0.037842 0.016937
0.314606 0.039459 0.016815
0.327667 0.042389 0.018829
0.342621 0.045319 0.022034
0.332123 0.043152 0.020355
0.323029 0.044037 0.019653
0.341400 0.048889 0.022095
0.356262 0.052612 0.023468
0.362518 0.053497 0.024292
0.339813 0.040222 0.018127
0.219299 0.016388 0.006287
0.275482 0.023804 0.008545
0.296814 0.027008 0.010162
0.277985 0.020599 0.007965
0.272675 0.020477 0.007690
0.329987 0.035492 0.013641
0.322845 0.033600 0.012756
0.324921 0.034088 0.013062
0.300415 0.028442 0.010132
0.307831 0.030029 0.009857
0.300873 0.028534 0.008881
0.332855 0.036316 0.010864
0.312531 0.030853 0.008606
0.267212 0.022308 0.006744
0.329315 0.036041 0.013062
0.322906 0.035889 0.014313
0.326538 0.038330 0.015686
0.315216 0.039612 0.016968
0.316498 0.039307 0.017212
0.344177 0.045715 0.022095
0.342621 0.046265 0.021881
0.342438 0.049316 0.022125
0.341797 0.048553 0.021790
0.344727 0.048157 0.021576
0.352295 0.051147 0.023193
0.358398 0.054260 0.024780
0.378876 0.062714 0.029663
0.360382 0.054565 0.025177
0.279205 0.030396 0.012268
0.289520 0.027863 0.010376
0.293243 0.028656 0.010742
0.300201 0.029968 0.011353
0.300781 0.030090 0.011444
0.305298 0.031158 0.011902
0.335236 0.038361 0.015411
0.338745 0.038147 0.015320
0.309845 0.030640 0.011658
0.306488 0.029724 0.011078
0.352936 0.042603 0.017273
0.326385 0.034485 0.013275
0.335754 0.037079 0.014557
0.352051 0.042297 0.017212
0.341248 0.038696 0.015045
0.349213 0.041290 0.014862
0.355713 0.043610 0.015991
0.225800 0.015991 0.004272
0.220947 0.015045 0.003662
0.224274 0.014435 0.002777
0.226227 0.014709 0.002899
0.252960 0.018494 0.004150
0.240356 0.016663 0.003571
0.216644 0.013092 0.002380
0.289734 0.027039 0.007935
0.365082 0.058899 0.027557
0.361786 0.057251 0.026825
0.368744 0.059998 0.029449
0.370789 0.062592 0.030670
0.382507 0.074036 0.036316
0.398560 0.079712 0.040314
0.391357 0.070343 0.035950
0.320923 0.041138 0.018494
0.314789 0.033173 0.013153
0.301727 0.029877 0.011200
0.333557 0.036041 0.012604
0.328552 0.035217 0.012604
0.305176 0.031158 0.011871
0.339203 0.040039 0.016602
0.353180 0.045258 0.021027
0.335541 0.038910 0.017120
0.334137 0.036530 0.014374
0.334747 0.036865 0.014557
0.362762 0.046722 0.019592
0.371918 0.050842 0.021820
0.360962 0.047943 0.020508
0.371246 0.053375 0.023254
0.371002 0.058502 0.025238
0.348328 0.049225 0.020264
0.283600 0.016113 0.005920
0.312592 0.017578 0.009552
0.389099 0.028992 0.027405
0.424347 0.036530 0.042877
0.457947 0.033722 0.073822
0.491974 0.045715 0.098145
0.497406 0.035675 0.125244
0.500610 0.030853 0.108734
0.594757 0.063873 0.129028
0.601501 0.071503 0.131866
0.578491 0.061218 0.103973
0.582642 0.063934 0.093170
0.597260 0.076324 0.065613
0.601746 0.071289 0.064941
0.624329 0.063629 0.066345
0.598236 0.045258 0.050751
0.581787 0.031799 0.041107
0.578491 0.035675 0.040497
0.624329 0.089996 0.067413
0.642456 0.105896 0.091125
0.646240 0.112030 0.136200
0.648560 0.109650 0.139343
0.676331 0.121429 0.176910
0.688110 0.131622 0.174286
0.699524 0.136444 0.133728
0.699158 0.137573 0.135529
0.697723 0.141449 0.141479
0.700714 0.144928 0.143250
0.707855 0.153564 0.146149
0.715210 0.163300 0.154083
0.712738 0.164978 0.150970
0.707672 0.160919 0.145294
0.380737 0.007385 0.027863
0.389801 0.008270 0.029083
0.404419 0.008667 0.030304
0.413940 0.008667 0.031586
0.438660 0.008514 0.034851
0.454987 0.012024 0.040436
0.466614 0.012482 0.045288
0.473572 0.010223 0.042877
0.508789 0.009033 0.044586
0.532471 0.016602 0.046021
0.540710 0.016724 0.025116
0.550446 0.017303 0.028107
0.570709 0.015350 0.032959
0.586670 0.022278 0.039551
0.581421 0.017731 0.035156
0.600342 0.029510 0.046631
0.589844 0.030884 0.050507
0.582245 0.030182 0.041473
0.608734 0.060181 0.037628
0.622040 0.067932 0.050018
0.609833 0.053375 0.060699
0.588837 0.040070 0.055695
0.568909 0.029724 0.072357
0.582397 0.034271 0.068604
0.606262 0.037964 0.045105
0.606415 0.039093 0.045471
0.578522 0.026855 0.032806
0.580566 0.027802 0.033630
0.590363 0.032227 0.037506
0.603485 0.042755 0.045502
0.604279 0.054565 0.052399
0.623749 0.069183 0.064209
0.677307 0.517090 0.367950
0.675995 0.505524 0.370483
0.695740 0.514099 0.414154
0.700745 0.511017 0.417511
0.717316 0.506348 0.436554
0.720001 0.505493 0.426636
0.727783 0.504639 0.401794
0.742767 0.511292 0.414368
0.789001 0.538696 0.458954
0.802948 0.567230 0.488098
0.846680 0.659424 0.587738
0.824951 0.604126 0.519592
0.778107 0.489136 0.382538
0.742920 0.421417 0.310333
0.717102 0.362274 0.244476
0.738007 0.394470 0.271179
0.762970 0.433533 0.296021
0.678375 0.297638 0.177155
0.392822 0.046570 0.012238
0.257629 0.007080 0.000305
0.347870 0.004059 0.000671
0.462097 0.027313 0.011292
0.559570 0.042816 0.026825
0.598022 0.078430 0.042542
0.600769 0.117828 0.039520
0.594269 0.122833 0.038940
0.590729 0.160461 0.045868
0.617065 0.190155 0.063812
0.604797 0.191162 0.068542
0.623199 0.199921 0.080597
0.669525 0.212860 0.117889
0.674835 0.211975 0.118317
0.338501 0.048859 0.014648
0.316895 0.039764 0.011230
0.348236 0.040741 0.013062
0.354340 0.041931 0.014374
0.636230 0.246155 0.162079
0.821747 0.538330 0.449341
0.803497 0.492493 0.400330
0.803925 0.497101 0.404510
0.796295 0.492340 0.397308
0.801025 0.501312 0.406921
0.801239 0.502197 0.407837
0.803528 0.506531 0.412445
0.751740 0.412933 0.315491
0.707733 0.342957 0.247375
0.759705 0.425903 0.328583
0.805389 0.509369 0.415588
0.799957 0.498444 0.404144
0.799622 0.497803 0.403473
0.799774 0.498108 0.403748
0.799866 0.498291 0.404114
0.799744 0.497986 0.404327
0.800049 0.498718 0.405090
0.795837 0.490906 0.396881
0.813568 0.525299 0.433472
0.851257 0.603851 0.519470
0.803345 0.505554 0.411438
0.792145 0.484222 0.388763
0.805389 0.509521 0.415710
0.801025 0.501099 0.406738
0.798370 0.496033 0.401306
0.800476 0.500061 0.405579
0.798462 0.496216 0.401459
0.408936 0.069641 0.013641
0.415070 0.073120 0.015076
0.416168 0.075012 0.015961
0.435577 0.087128 0.020721
0.412354 0.078094 0.016083
0.392212 0.070007 0.012756
0.421448 0.089294 0.019867
0.496429 0.151215 0.048492
0.605530 0.299591 0.136627
0.613953 0.316040 0.147461
0.623077 0.347809 0.167389
0.636200 0.373871 0.183502
0.675201 0.461670 0.240479
0.715057 0.517365 0.289246
0.708344 0.482361 0.257721
0.552277 0.250824 0.088715
0.500397 0.148376 0.040375
0.590088 0.229156 0.089172
0.617218 0.245667 0.107208
0.616058 0.244598 0.110046
0.625092 0.258575 0.131256
0.615692 0.233124 0.119690
0.643738 0.218323 0.134521
0.653748 0.229279 0.141876
0.669922 0.245667 0.150787
0.675720 0.250488 0.151794
0.694794 0.266785 0.155029
0.710999 0.286346 0.168213
0.725220 0.297394 0.166840
0.657013 0.204803 0.095215
0.664825 0.202057 0.089661
0.699097 0.242157 0.115417
0.440643 0.080933 0.012512
0.439240 0.080139 0.012024
0.455475 0.089203 0.014679
0.475739 0.104370 0.019623
0.483948 0.116608 0.021881
0.486694 0.118317 0.022766
0.514526 0.134491 0.031952
0.604614 0.246277 0.080963
0.711975 0.487915 0.193329
0.737000 0.526917 0.227783
0.752289 0.553101 0.256439
0.770050 0.569458 0.278320
0.817383 0.617676 0.344116
0.848755 0.654938 0.400543
0.842468 0.549347 0.363281
0.686035 0.274292 0.132568
0.653229 0.203552 0.101776
0.654083 0.208710 0.106781
0.618958 0.181213 0.091522
0.642700 0.208466 0.112488
0.666229 0.242004 0.142639
0.709595 0.295715 0.186737
0.720123 0.296204 0.184418
0.713776 0.289978 0.178711
0.712555 0.297943 0.184479
0.717316 0.304565 0.188690
0.711609 0.295532 0.175995
0.710938 0.295715 0.174744
0.721527 0.315735 0.186340
0.722015 0.313965 0.184357
0.698883 0.273132 0.149750
0.665924 0.226379 0.112061
0.495758 0.118195 0.017822
0.498627 0.119568 0.017914
0.490875 0.112366 0.014099
0.504333 0.122375 0.017609
0.508972 0.126099 0.019012
0.520233 0.135651 0.022614
0.532898 0.147919 0.028076
0.650085 0.272644 0.090363
0.817322 0.554688 0.278931
0.819214 0.548309 0.293304
0.826141 0.531647 0.334595
0.827789 0.542999 0.358154
0.846069 0.603424 0.464722
0.852600 0.619934 0.492462
0.828308 0.579865 0.481720
0.743500 0.406799 0.303009
0.735962 0.351501 0.258301
0.832184 0.531891 0.436584
0.857941 0.608887 0.497864
0.852966 0.608490 0.499908
0.848053 0.634583 0.533844
0.838226 0.608063 0.513153
0.840393 0.596313 0.532257
0.842926 0.602875 0.532135
0.846130 0.613586 0.518372
0.839294 0.598846 0.501801
0.833923 0.588257 0.488312
0.830292 0.578217 0.481506
0.838837 0.587646 0.507507
0.833710 0.574280 0.493927
0.834473 0.566498 0.490356
0.841400 0.581085 0.506744
0.680450 0.418304 0.120911
0.707153 0.466431 0.142151
0.724976 0.516541 0.145416
0.762787 0.569427 0.187134
0.802612 0.609589 0.230530
0.823029 0.625854 0.258026
0.856842 0.619080 0.295258
0.849915 0.607483 0.306580
0.827271 0.563507 0.328705
0.825470 0.555389 0.343079
0.828705 0.549683 0.407623
0.826782 0.543304 0.416321
0.845032 0.572357 0.504425
0.866547 0.621429 0.554718
0.861481 0.616455 0.536713
0.796692 0.483215 0.383728
0.701019 0.323151 0.209381
0.665527 0.274017 0.168640
0.642181 0.243835 0.147919
0.620026 0.216736 0.126068
0.585724 0.177002 0.095795
0.572632 0.161469 0.084869
0.565033 0.144531 0.074371
0.546326 0.129364 0.062378
0.446136 0.064117 0.020233
0.446808 0.064911 0.020599
0.503387 0.101837 0.040100
0.519989 0.112640 0.046356
0.505890 0.098083 0.037720
0.513977 0.102905 0.040131
0.504456 0.093231 0.033783
0.512909 0.097656 0.035706
0.555206 0.155548 0.016418
0.570770 0.167633 0.022491
0.573486 0.165985 0.025360
0.657593 0.251434 0.078094
0.749542 0.363464 0.203796
0.752045 0.359436 0.223541
0.743073 0.329681 0.271698
0.690308 0.217255 0.165955
0.639069 0.077362 0.057281
0.627625 0.059998 0.043732
0.701355 0.088318 0.064453
0.698914 0.093597 0.060638
0.669556 0.088226 0.036469
0.681854 0.092865 0.039642
0.701691 0.091125 0.037933
0.706757 0.105042 0.050537
0.684387 0.104614 0.065430
0.666779 0.116852 0.072449
0.660583 0.229706 0.155060
0.626587 0.152344 0.096039
0.731842 0.155945 0.112732
0.803101 0.230621 0.170380
0.839142 0.211243 0.127747
0.842957 0.212067 0.138733
0.842804 0.191162 0.160767
0.850800 0.214111 0.169128
0.835052 0.230530 0.139130
0.841125 0.241150 0.147736
0.837677 0.238281 0.143005
0.806274 0.200562 0.120331
0.781036 0.185547 0.138397
0.724335 0.166168 0.111786
0.596741 0.066101 0.077911
0.643433 0.130096 0.139313
0.436035 0.047180 0.059387
0.415527 0.030426 0.045471
0.359039 0.003845 0.020020
0.461548 0.025604 0.053131
0.600677 0.071808 0.156799
0.607330 0.075989 0.139343
0.609222 0.073761 0.083832
0.622711 0.074310 0.094421
0.657898 0.069672 0.124237
0.672119 0.098877 0.125336
0.656403 0.132751 0.070557
0.583923 0.090485 0.060547
0.457397 0.074158 0.110168
0.479004 0.064148 0.096527
0.579590 0.064545 0.090240
0.623352 0.088928 0.121185
0.683563 0.106750 0.164368
0.687195 0.114532 0.163422
0.695770 0.135498 0.155151
0.707367 0.148926 0.172150
0.699097 0.141785 0.176727
0.701080 0.148193 0.172424
0.713165 0.171967 0.160309
0.714142 0.198273 0.178070
0.645050 0.210358 0.157043
0.554535 0.117584 0.093140
0.522400 0.082489 0.115570
0.484802 0.052429 0.076965
0.509644 0.041748 0.042175
0.493652 0.033722 0.040955
0.266449 0.005371 0.003357
0.261902 0.003815 0.003815
0.315887 0.005371 0.009766
0.291992 0.009216 0.010010
0.127838 0.014496 0.007141
0.181641 0.010284 0.005310
0.300476 0.002197 0.001556
0.293701 0.002655 0.002441
0.285828 0.004211 0.006165
0.311584 0.005035 0.006775
0.335083 0.002228 0.004974
0.351135 0.005798 0.009033
0.332977 0.006805 0.015503
0.345276 0.008575 0.018250
0.381561 0.015259 0.030121
0.346863 0.011414 0.022186
0.206360 0.007172 0.008392
0.321381 0.016724 0.016571
0.443268 0.030945 0.034698
0.427917 0.026611 0.033020
0.339539 0.006256 0.020569
0.357117 0.008087 0.021759
0.378540 0.008270 0.019135
0.335724 0.000397 0.011841
0.417084 0.008698 0.029053
0.569885 0.076935 0.098511
0.571014 0.051208 0.078918
0.453613 0.011322 0.037506
0.352142 0.023621 0.056030
0.385864 0.031464 0.057037
0.356293 0.011475 0.016754
0.428955 0.032135 0.035339
0.700592 0.188293 0.070892
0.732147 0.192017 0.100311
0.743073 0.104919 0.109467
0.713776 0.070526 0.084961
0.773956 0.106415 0.156067
0.782990 0.106750 0.148804
0.826721 0.121460 0.149048
0.811523 0.130981 0.147858
0.745483 0.129089 0.110352
0.682281 0.074097 0.082703
0.616455 0.055542 0.128845
0.694214 0.076233 0.141510
0.777893 0.028656 0.059692
0.764709 0.041779 0.074768
0.683380 0.049438 0.084412
0.678253 0.040192 0.074860
0.732239 0.075409 0.112732
0.775024 0.081207 0.127930
0.853577 0.049408 0.119324
0.850952 0.047852 0.119659
0.856201 0.051666 0.134399
0.861420 0.053253 0.133514
0.894714 0.067108 0.141449
0.880371 0.091888 0.170837
0.690552 0.050507 0.117706
0.669128 0.022430 0.074585
0.751526 0.031158 0.061127
0.787598 0.053284 0.088959
0.794220 0.036163 0.087585
0.791931 0.030090 0.074982
0.813873 0.029175 0.056580
0.804443 0.029053 0.052673
0.361725 0.043549 0.003143
0.369019 0.048126 0.003784
0.385162 0.059784 0.005402
0.390503 0.064087 0.006226
0.435303 0.093231 0.014038
0.440796 0.098541 0.015747
0.417847 0.087524 0.012543
0.503418 0.167511 0.036438
0.591492 0.333588 0.083038
0.603607 0.350037 0.092072
0.608002 0.366180 0.096985
0.629974 0.395203 0.113251
0.672028 0.457306 0.148499
0.713806 0.520447 0.195526
0.706451 0.491730 0.183563
0.584290 0.312500 0.072266
0.523651 0.235016 0.038361
0.429688 0.152039 0.010956
0.551758 0.237946 0.048309
0.767181 0.540466 0.249756
0.788849 0.558594 0.270752
0.789948 0.560425 0.270691
0.795563 0.573273 0.271820
0.802856 0.571350 0.290771
0.829926 0.568756 0.363800
0.834961 0.580109 0.383179
0.847870 0.609558 0.443573
0.836090 0.584747 0.430359
0.821991 0.556976 0.445160
0.823975 0.560516 0.454987
0.802063 0.515503 0.428131
0.771423 0.455841 0.365356
0.362000 0.048309 0.006409
0.360901 0.047699 0.006287
0.362457 0.048157 0.006409
0.358002 0.047058 0.006104
0.360565 0.049469 0.006866
0.362946 0.051575 0.007324
0.367523 0.054291 0.008209
0.433960 0.102234 0.022797
0.520691 0.220947 0.065186
0.526093 0.225372 0.065155
0.536591 0.237183 0.063202
0.545349 0.251404 0.067719
0.574371 0.302124 0.084564
0.609497 0.335480 0.106903
0.610870 0.312958 0.097900
0.502777 0.187439 0.035370
0.494781 0.144684 0.027008
0.524719 0.176331 0.039368
0.512878 0.185944 0.039307
0.490295 0.171417 0.028656
0.552399 0.247284 0.047089
0.548676 0.235168 0.039886
0.584106 0.245880 0.037750
0.629761 0.297974 0.063538
0.646698 0.314056 0.078949
0.644104 0.304504 0.077087
0.658539 0.303497 0.088043
0.672943 0.312958 0.099060
0.672607 0.279053 0.096924
0.565033 0.152100 0.030304
0.665833 0.231476 0.081116
0.688782 0.254059 0.094757
0.337769 0.032928 0.003754
0.346558 0.036926 0.005035
0.348175 0.041107 0.006805
0.352509 0.042480 0.007263
0.343597 0.039337 0.006165
0.333832 0.036957 0.005768
0.332764 0.036804 0.007111
0.386322 0.064423 0.015259
0.482910 0.148743 0.045624
0.476196 0.147003 0.043274
0.479614 0.161896 0.046112
0.484680 0.167297 0.047729
0.515381 0.199707 0.060791
0.540619 0.218628 0.072968
0.542969 0.207977 0.069855
0.448273 0.125671 0.027466
0.420715 0.093872 0.016327
0.433228 0.099182 0.018097
0.471954 0.115967 0.024353
0.480011 0.124634 0.026520
0.465546 0.123779 0.021393
0.489838 0.142792 0.028412
0.513306 0.167542 0.036224
0.522827 0.172638 0.037537
0.542511 0.179077 0.037262
0.574921 0.211365 0.050568
0.552643 0.191772 0.033997
0.506989 0.153717 0.017639
0.577606 0.228394 0.039520
0.634949 0.293610 0.069366
0.623901 0.275696 0.053528
0.601379 0.243561 0.040802
0.375824 0.067627 0.020050
0.374664 0.066956 0.019470
0.383087 0.071106 0.020447
0.401855 0.078949 0.024567
0.404419 0.076355 0.024261
0.415863 0.081940 0.027039
0.403259 0.073181 0.022949
0.379547 0.064514 0.017670
0.438843 0.103394 0.032684
0.432739 0.101715 0.030823
0.431396 0.107391 0.030518
0.441406 0.114136 0.033051
0.461426 0.129517 0.037964
0.483887 0.145203 0.046570
0.471283 0.134674 0.041077
0.381378 0.077332 0.015656
0.380188 0.067383 0.014893
0.400665 0.074951 0.017700
0.392975 0.063293 0.012451
0.413971 0.074341 0.015839
0.445526 0.093933 0.020630
0.445343 0.095093 0.020325
0.451202 0.103577 0.021362
0.467224 0.112030 0.023834
0.469086 0.106262 0.017761
0.452911 0.095978 0.014221
0.475983 0.111023 0.020630
0.460663 0.100891 0.016510
0.477997 0.112518 0.020325
0.514526 0.139130 0.031372
0.536255 0.155365 0.037628
0.522278 0.142761 0.031250
0.252411 0.015259 0.001923
0.268127 0.018036 0.002594
0.272095 0.019806 0.003082
0.280731 0.021667 0.003601
0.234680 0.015839 0.002075
0.235535 0.015930 0.002075
0.263306 0.019257 0.003021
0.295532 0.028809 0.005463
0.400177 0.080048 0.024658
0.404541 0.080444 0.025269
0.405029 0.076874 0.024536
0.419952 0.083527 0.027832
0.425079 0.081757 0.027161
0.421661 0.082031 0.026276
0.431671 0.093597 0.028992
0.431427 0.095428 0.029602
0.442841 0.109222 0.035736
0.458466 0.118530 0.040009
0.449951 0.111420 0.033661
0.383972 0.071014 0.015656
0.392120 0.064819 0.014648
0.367676 0.051270 0.009827
0.396637 0.053284 0.012177
0.380493 0.048553 0.009399
0.381744 0.056244 0.008942
0.384674 0.058014 0.009552
0.415863 0.074799 0.015961
0.417175 0.076019 0.015778
0.466339 0.107330 0.026550
0.465790 0.106995 0.025818
0.488190 0.122620 0.031006
0.472137 0.110748 0.025024
0.236694 0.016083 0.002106
0.230621 0.015289 0.001923
0.243500 0.017029 0.002319
0.247101 0.017548 0.002594
0.235443 0.015930 0.002441
0.242188 0.016846 0.002716
0.239197 0.015900 0.002472
0.287720 0.026459 0.005402
0.375519 0.062988 0.018921
0.366364 0.058716 0.016998
0.367798 0.059662 0.017395
0.374664 0.060791 0.018158
0.402893 0.068207 0.022644
0.417236 0.075378 0.026245
0.406525 0.068939 0.023102
0.328400 0.038635 0.009155
0.306366 0.035339 0.006805
0.295746 0.032898 0.006012
0.310669 0.036041 0.007080
0.434357 0.088593 0.030457
0.436462 0.093842 0.033356
0.437378 0.095642 0.033936
0.436646 0.099457 0.035187
0.447144 0.106567 0.037292
0.435547 0.101624 0.028870
0.464508 0.120300 0.038422
0.458038 0.116211 0.036255
0.471069 0.123810 0.040649
0.488708 0.132080 0.046509
0.507111 0.144257 0.053955
0.488190 0.122742 0.043091
0.421265 0.079285 0.020660
0.258179 0.014343 0.002441
0.246185 0.014069 0.002258
0.226410 0.014862 0.002167
0.217438 0.013641 0.001862
0.218506 0.013763 0.001892
0.215576 0.013397 0.001801
0.192413 0.010529 0.001129
0.249176 0.018860 0.003387
0.358887 0.049164 0.015686
0.349701 0.045563 0.014038
0.359131 0.049103 0.015625
0.364136 0.051086 0.016541
0.381500 0.058533 0.020264
0.390961 0.062164 0.021454
0.382507 0.056519 0.016998
0.306885 0.031616 0.006836
0.292053 0.028473 0.005768
0.299347 0.029999 0.006256
