res/luts/lut3.CUBE
#Created by: Adobe Photoshop Export Color Lookup Plugin
TITLE "lut3"
#LUT size
LUT_3D_SIZE 8
#data domain
#LUT data points
DOMAIN_MIN 0.000000 0.000000 0.000000
DOMAIN_MAX 0.903226 0.903226 0.903226
0.159393 0.007935 0.001099
0.176758 0.009216 0.001404
0.273499 0.025085 0.009216
0.283386 0.025024 0.007660
0.151794 0.008026 0.001709
0.279633 0.025604 0.009399
0.283325 0.025757 0.008392
0.190826 0.010345 0.001984
0.187042 0.010773 0.001770
0.179443 0.009460 0.001465
0.298218 0.033722 0.012573
0.329163 0.037170 0.014801
0.237518 0.017670 0.005249
0.257538 0.019684 0.005798
0.220673 0.012482 0.003479
0.351593 0.043884 0.020294
0.225800 0.015991 0.004272
0.252960 0.018494 0.004150
0.365082 0.058899 0.027557
0.382507 0.074036 0.036316
0.314789 0.033173 0.013153
0.305176 0.031158 0.011871
0.334137 0.036530 0.014374
0.360962 0.047943 0.020508
0.338501 0.048859 0.014648
0.636230 0.246155 0.162079
0.796295 0.492340 0.397308
0.751740 0.412933 0.315491
0.799957 0.498444 0.404144
0.799744 0.497986 0.404327
0.851257 0.603851 0.519470
0.801025 0.501099 0.406738
0.680450 0.418304 0.120911
0.802612 0.609589 0.230530
0.827271 0.563507 0.328705
0.845032 0.572357 0.504425
0.701019 0.323151 0.209381
0.585724 0.177002 0.095795
0.446136 0.064117 0.020233
0.505890 0.098083 0.037720
0.700592 0.188293 0.070892
0.773956 0.106415 0.156067
0.745483 0.129089 0.110352
0.777893 0.028656 0.059692
0.732239 0.075409 0.112732
0.856201 0.051666 0.134399
0.690552 0.050507 0.117706
0.794220 0.036163 0.087585
0.375824 0.067627 0.020050
0.404419 0.076355 0.024261
0.438843 0.103394 0.032684
0.461426 0.129517 0.037964
0.380188 0.067383 0.014893
0.445526 0.093933 0.020630
0.469086 0.106262 0.017761
0.477997 0.112518 0.020325
0.305908 0.029602 0.008118
0.197968 0.012604 0.002350
0.329865 0.039368 0.011383
0.358185 0.048981 0.015533
0.259033 0.022736 0.003876
0.296875 0.025970 0.005493
0.322906 0.031708 0.006866
0.251129 0.021606 0.002289
0.167511 0.008301 0.001190
0.160522 0.007660 0.001038
0.273438 0.025055 0.009216
0.283966 0.025146 0.009247
0.158203 0.008606 0.001862
0.271271 0.024597 0.008942
0.236877 0.017731 0.004852
0.220184 0.014160 0.002716
0.187042 0.010162 0.001648
0.189575 0.010468 0.001709
0.308960 0.032196 0.012512
0.332581 0.038208 0.015320
0.221039 0.015472 0.005219
0.220947 0.012634 0.003571
0.238525 0.015717 0.004852
0.356201 0.049927 0.024902
0.227203 0.014771 0.002930
0.223145 0.015778 0.004211
0.348083 0.066803 0.030670
0.422424 0.074890 0.040344
0.247894 0.027893 0.011139
0.345734 0.044617 0.015167
0.320587 0.049011 0.020966
0.372101 0.051270 0.022125
0.364471 0.049255 0.010956
0.343353 0.041138 0.007996
0.765717 0.455719 0.352783
0.793701 0.486389 0.391937
0.768433 0.440338 0.343689
0.818542 0.535736 0.444092
0.797607 0.494598 0.399780
0.795685 0.490906 0.395935
0.433685 0.087402 0.003540
0.528168 0.114655 0.012817
0.838715 0.589355 0.349243
0.839050 0.589325 0.510834
0.677612 0.258057 0.141693
0.684357 0.257416 0.160034
0.734741 0.286957 0.195099
0.700836 0.273468 0.149841
0.526947 0.243591 0.052368
0.649323 0.279907 0.144836
0.669006 0.034424 0.060486
0.887817 0.050201 0.144897
0.868103 0.094696 0.138123
0.652344 0.062469 0.084381
0.684967 0.063019 0.094299
0.852783 0.073639 0.136688
0.383301 0.058868 0.018219
0.400238 0.079254 0.024628
0.430328 0.092682 0.025970
0.457855 0.124634 0.039215
0.378876 0.066742 0.012634
0.398041 0.065765 0.013306
0.459503 0.100250 0.018677
0.487640 0.113434 0.020752
0.301666 0.032532 0.009766
0.278778 0.024231 0.006104
0.329651 0.035187 0.010437
0.354034 0.047150 0.014740
0.255981 0.019012 0.003265
0.272919 0.021484 0.004059
0.323639 0.028198 0.004547
0.341919 0.033142 0.006104
0.172699 0.008759 0.001312
0.157013 0.007355 0.000977
0.274689 0.024139 0.008820
0.284241 0.026398 0.009735
0.194916 0.013245 0.004272
0.297424 0.028381 0.010620
0.189880 0.011902 0.002869
0.228638 0.015259 0.003052
0.188385 0.010345 0.001678
0.205200 0.012146 0.002167
0.312897 0.033112 0.012939
0.332428 0.038147 0.015289
0.224365 0.015900 0.005371
0.243835 0.015564 0.004639
0.247986 0.022247 0.008118
0.342255 0.049316 0.023254
0.235199 0.015869 0.002350
0.227875 0.016327 0.003326
0.396057 0.061188 0.032135
0.386383 0.086609 0.039154
0.277100 0.031158 0.011139
0.336365 0.035461 0.010376
0.330383 0.058807 0.019623
0.446167 0.036591 0.022308
0.365479 0.047089 0.008698
0.403778 0.068604 0.015900
0.543701 0.225403 0.115265
0.707245 0.400085 0.271088
0.798035 0.495148 0.400787
0.812561 0.507629 0.429718
0.750305 0.409912 0.312225
0.795807 0.491150 0.396118
0.587738 0.189606 0.027252
0.662323 0.241730 0.051208
0.844208 0.600586 0.362244
0.843658 0.588104 0.518890
0.635376 0.203674 0.093231
0.685791 0.241669 0.126984
0.713593 0.253113 0.150879
0.602844 0.174683 0.062103
0.378845 0.048462 0.003693
0.602875 0.310699 0.078522
0.720581 0.347626 0.147461
0.754639 0.079681 0.088501
0.889343 0.138367 0.175476
0.780243 0.233490 0.227570
0.886993 0.103180 0.154541
0.864990 0.087708 0.132080
0.368103 0.052246 0.013763
0.388580 0.068420 0.020477
0.420410 0.090302 0.026642
0.450958 0.120544 0.036926
0.359497 0.053650 0.008087
0.436096 0.085693 0.021576
0.469543 0.103668 0.023651
0.480133 0.106537 0.020020
0.311096 0.030579 0.008575
0.317749 0.032318 0.009247
0.336182 0.037018 0.011230
0.354675 0.047394 0.014862
0.240540 0.016754 0.002625
0.272247 0.021362 0.004028
0.317444 0.026764 0.004333
0.344971 0.034058 0.006409
0.170654 0.008606 0.001251
0.157532 0.007385 0.001007
0.283539 0.025146 0.007690
0.272766 0.024872 0.009064
0.246582 0.020538 0.007202
0.285828 0.025513 0.009430
0.203461 0.013458 0.003387
0.226135 0.014923 0.002930
0.214172 0.009003 0.001678
0.192963 0.010742 0.001801
0.320801 0.035004 0.013855
0.336090 0.039246 0.015839
0.227203 0.016266 0.005524
0.235016 0.014404 0.004211
0.344025 0.047333 0.021790
0.343750 0.049805 0.026154
0.251526 0.018188 0.003021
0.244904 0.017151 0.003601
0.338898 0.070679 0.031464
0.411194 0.075073 0.040405
0.289185 0.034058 0.014160
0.405090 0.025665 0.017975
0.624573 0.091644 0.060089
0.670776 0.115387 0.102356
0.366119 0.040558 0.007385
0.396606 0.067413 0.015533
0.545319 0.243622 0.116425
0.606689 0.316803 0.169739
0.507050 0.144165 0.061340
0.796509 0.501160 0.392944
0.801880 0.502502 0.408447
0.766876 0.438385 0.341248
0.576355 0.171936 0.022583
0.588654 0.153259 0.024139
0.843628 0.605347 0.350372
0.840637 0.592560 0.491974
0.640991 0.208984 0.095367
0.685883 0.247253 0.126709
0.729889 0.261780 0.147217
0.675720 0.195587 0.083038
0.432831 0.083862 0.012115
0.471436 0.170380 0.026672
0.649811 0.427948 0.139221
0.725067 0.575531 0.138733
0.735352 0.107422 0.080505
0.795593 0.086487 0.109863
0.892120 0.130768 0.157227
0.891876 0.129333 0.142548
0.265747 0.021606 0.003448
0.391754 0.069946 0.021210
0.414276 0.089325 0.025482
0.449951 0.115021 0.036652
0.359070 0.050079 0.009186
0.431824 0.083344 0.020508
0.416595 0.076508 0.015259
0.490143 0.117218 0.026001
0.264221 0.021759 0.005249
0.323029 0.033508 0.009644
0.335510 0.036774 0.011078
0.347168 0.044678 0.013611
0.264984 0.020447 0.003693
0.265839 0.020325 0.003693
0.323303 0.028137 0.005646
0.339233 0.032379 0.006134
0.172699 0.008789 0.000946
0.160095 0.007660 0.001038
0.275482 0.024841 0.008575
0.282043 0.026550 0.009827
0.282318 0.026642 0.009857
0.302643 0.029022 0.009308
0.191101 0.010315 0.002625
0.217438 0.013702 0.002594
0.204926 0.008209 0.001282
0.186310 0.008972 0.001434
0.325867 0.035736 0.014160
0.340576 0.040558 0.017151
0.233734 0.017151 0.005524
0.230530 0.015503 0.004242
0.352417 0.046295 0.022156
0.339600 0.047150 0.024994
0.269257 0.015930 0.002899
0.279877 0.022736 0.005585
0.394440 0.065948 0.035004
0.401398 0.083984 0.042145
0.457703 0.041382 0.036377
0.631805 0.099792 0.110138
0.627472 0.106537 0.079376
0.613983 0.118317 0.088837
0.388306 0.049408 0.010651
0.389252 0.063995 0.016510
0.572083 0.246307 0.123077
0.605774 0.345154 0.168457
0.504028 0.171051 0.058807
0.626617 0.261902 0.140961
0.730286 0.374756 0.282959
0.799408 0.498352 0.407471
0.551880 0.169983 0.018585
0.620636 0.228455 0.042023
0.843353 0.586731 0.365784
0.841583 0.587555 0.529022
0.652710 0.231415 0.133728
0.671753 0.245789 0.159027
0.662323 0.240356 0.142609
0.701324 0.214233 0.123016
0.437012 0.074036 0.012299
0.439240 0.095917 0.014709
0.624847 0.409454 0.098663
0.696045 0.561005 0.177002
0.761078 0.583649 0.216339
0.851471 0.474365 0.309235
0.710480 0.102325 0.052521
0.757538 0.176300 0.123108
0.276520 0.023895 0.002808
0.395935 0.072174 0.022156
0.406036 0.084869 0.023346
0.452911 0.112885 0.037659
0.303925 0.032867 0.003845
0.382050 0.058472 0.010529
0.459320 0.099823 0.026978
0.471161 0.106537 0.023254
0.218964 0.013672 0.001831
0.298889 0.031952 0.009827
0.327942 0.034668 0.010193
0.347260 0.044708 0.013641
0.252319 0.018433 0.003113
0.276154 0.022034 0.004242
0.293304 0.021851 0.003662
0.309235 0.025055 0.004700
0.174530 0.008972 0.000793
0.164764 0.008118 0.001099
0.270813 0.024628 0.008972
0.282532 0.026642 0.009857
0.277832 0.025848 0.009491
0.265900 0.022186 0.006500
0.200806 0.010376 0.002808
0.199341 0.011536 0.001984
0.212402 0.009033 0.001068
0.202728 0.009094 0.001617
0.328827 0.035065 0.013763
0.325531 0.042572 0.018616
0.233246 0.017120 0.004669
0.232056 0.019409 0.005341
0.346222 0.049255 0.022034
0.353516 0.049042 0.027100
0.220581 0.014038 0.001862
0.256531 0.020538 0.004852
0.385040 0.065460 0.037720
0.496460 0.054474 0.079285
0.571899 0.074463 0.133911
0.650146 0.114563 0.097473
0.681610 0.128723 0.121857
0.632629 0.115326 0.091888
0.364441 0.047241 0.007416
0.380829 0.063049 0.010925
0.570496 0.264587 0.125153
0.619659 0.367371 0.195801
0.555786 0.195923 0.076355
0.564026 0.236603 0.096466
0.603210 0.226837 0.110687
0.677246 0.281555 0.162415
0.572052 0.170288 0.027039
0.642975 0.213562 0.051239
0.830994 0.589539 0.341980
0.846466 0.580231 0.449493
0.686432 0.258301 0.182373
0.793060 0.254639 0.184326
0.689545 0.336731 0.221252
0.894012 0.205902 0.153137
0.402100 0.065826 0.008881
0.398682 0.070831 0.005646
0.617981 0.382690 0.105408
0.691895 0.537292 0.151337
0.755615 0.588257 0.215668
0.811005 0.557770 0.299896
0.817657 0.563934 0.421875
0.859100 0.619446 0.511230
0.275269 0.018738 0.002777
0.371765 0.056335 0.014923
0.401398 0.074493 0.023407
0.430267 0.104706 0.033081
0.369202 0.048920 0.009430
0.357361 0.044128 0.006470
0.438995 0.093109 0.022583
0.445435 0.089050 0.019714
0.215485 0.009247 0.001160
0.306305 0.029510 0.008179
0.317810 0.036133 0.009979
0.348846 0.041046 0.012939
0.249664 0.019531 0.004517
0.270752 0.021210 0.003967
0.303345 0.022064 0.004822
0.313324 0.025970 0.004944
0.182404 0.009735 0.000946
0.166046 0.008240 0.001129
0.270752 0.024628 0.008972
0.282532 0.026642 0.009857
0.278839 0.026031 0.009583
0.208099 0.014008 0.003540
0.232391 0.014099 0.004089
0.216888 0.013550 0.002563
0.230255 0.010773 0.001465
0.190521 0.010559 0.001740
0.322784 0.035553 0.014008
0.319031 0.040833 0.017700
0.218506 0.015137 0.003937
0.274963 0.025024 0.009094
0.336639 0.047485 0.021118
0.366730 0.054535 0.027679
0.236786 0.019226 0.001678
0.278778 0.016632 0.007812
0.456177 0.034943 0.067047
0.552002 0.075989 0.139404
0.630981 0.079773 0.093842
0.667877 0.126099 0.145569
0.605560 0.048370 0.049561
0.584412 0.067200 0.051880
0.358337 0.040283 0.005341
0.421844 0.077911 0.018127
0.582825 0.287750 0.133240
0.639252 0.402924 0.214203
0.542236 0.194824 0.068756
0.591797 0.256073 0.114868
0.624786 0.221252 0.119507
0.685730 0.255981 0.134369
0.532532 0.139038 0.021484
0.577454 0.152405 0.027710
0.860626 0.572754 0.314240
0.885651 0.607025 0.507294
0.853119 0.184326 0.122894
0.801453 0.173340 0.096191
0.796326 0.128387 0.083130
0.653564 0.217590 0.124268
0.415070 0.065491 0.011200
0.386475 0.065155 0.005432
0.619141 0.367310 0.108734
0.677979 0.528351 0.141602
0.721680 0.561371 0.171997
0.810669 0.581512 0.295166
0.770386 0.458130 0.310303
0.820038 0.552887 0.467957
0.276733 0.018951 0.002838
0.259827 0.024170 0.003632
0.403687 0.075836 0.024048
0.441620 0.105713 0.033630
0.370209 0.054749 0.010742
0.376007 0.051453 0.009705
0.440277 0.088440 0.021515
0.452057 0.095734 0.021881
0.209167 0.008606 0.001007
0.321564 0.033081 0.009613
0.318268 0.036224 0.010010
0.347626 0.040649 0.012787
0.232574 0.017059 0.003693
0.263092 0.019958 0.003571
0.300415 0.021515 0.004639
0.328949 0.029602 0.006134
0.169952 0.008545 0.000732
0.157532 0.007446 0.000977
0.270813 0.024628 0.008972
0.282684 0.026672 0.009857
0.269775 0.024414 0.008881
0.193054 0.012268 0.002960
0.235687 0.014526 0.004242
0.241516 0.016754 0.003510
0.203644 0.012115 0.001434
0.185730 0.010010 0.001617
0.323822 0.035431 0.014008
0.321106 0.041229 0.017914
0.209259 0.013977 0.003815
0.360413 0.047058 0.022156
0.333435 0.046661 0.020599
0.362122 0.048248 0.024170
0.252014 0.018982 0.003876
0.367554 0.020020 0.030365
0.507965 0.054565 0.130463
0.600769 0.072510 0.118469
0.666931 0.114044 0.125702
0.635468 0.070831 0.053680
0.592010 0.041290 0.047607
0.685394 0.166565 0.130554
0.402405 0.057800 0.010315
0.435455 0.084961 0.020050
0.594696 0.291901 0.134003
0.666107 0.447021 0.234741
0.563782 0.204315 0.072083
0.565674 0.208649 0.092346
0.666718 0.235535 0.127167
0.694153 0.252747 0.130310
0.497009 0.109497 0.007629
0.536865 0.124542 0.020355
0.777679 0.523224 0.415344
0.723389 0.222229 0.147217
0.726898 0.178467 0.120148
0.832764 0.183807 0.121185
0.626373 0.160156 0.069122
0.637604 0.233795 0.137939
0.386566 0.051422 0.006836
0.432159 0.090973 0.013214
0.612152 0.355499 0.103577
0.662903 0.487061 0.134888
0.684082 0.489410 0.141296
0.792480 0.564941 0.267365
0.818085 0.572510 0.359253
0.777008 0.486328 0.368927
0.265228 0.017029 0.002350
0.267273 0.022156 0.003510
0.399170 0.079407 0.024353
0.434723 0.089966 0.031403
0.456787 0.112823 0.038330
0.360291 0.049896 0.009033
0.405914 0.069946 0.013855
0.467682 0.108521 0.027008
0.218323 0.009583 0.001221
0.313812 0.031219 0.008850
0.312103 0.034698 0.009430
0.345947 0.040100 0.012543
0.245300 0.018890 0.004272
0.276886 0.022247 0.004272
0.305908 0.022583 0.004974
0.306763 0.024567 0.004486
